/* XPM */
static char *bd92c45599c74754a7a80ba9abdede6cfWeWCr0qiUc53udC[] = {
/* columns rows colors chars-per-pixel */
"512 512 163 2 ",
"   c None",
".  c #E83627",
"X  c #EA3C27",
"o  c #E93628",
"O  c #E93828",
"+  c #EF6E1F",
"@  c #EF741F",
"#  c #F0761F",
"$  c #F17B1F",
"%  c #EB4426",
"&  c #EC4C25",
"*  c #EA4028",
"=  c #EC5025",
"-  c #ED5025",
";  c #EC5125",
":  c #EC5024",
">  c #EC5224",
",  c #EC5324",
"<  c #EC5225",
"1  c #EB5424",
"2  c #EB5524",
"3  c #EC5424",
"4  c #ED5524",
"5  c #ED5525",
"6  c #EC5624",
"7  c #ED5624",
"8  c #EC5724",
"9  c #ED5724",
"0  c #EE5624",
"q  c #EC5424",
"w  c #EC5823",
"e  c #ED5823",
"r  c #ED5923",
"t  c #ED5B22",
"y  c #ED5A23",
"u  c #ED5B23",
"i  c #EE5A23",
"p  c #EE5B23",
"a  c #EE5D21",
"s  c #ED5C22",
"d  c #ED5C23",
"f  c #ED5D23",
"g  c #EE5D23",
"h  c #ED5F22",
"j  c #ED5E23",
"k  c #EE5E22",
"l  c #EE5F22",
"z  c #EE5E23",
"x  c #EC5824",
"c  c #ED5824",
"v  c #ED5924",
"b  c #EC5C24",
"n  c #ED5F24",
"m  c #ED5B23",
"M  c #ED6021",
"N  c #EE6021",
"B  c #ED6221",
"V  c #EE6221",
"C  c #ED6022",
"Z  c #ED6122",
"A  c #EE6022",
"S  c #EE6122",
"D  c #EF6122",
"F  c #ED6222",
"G  c #EE6222",
"H  c #EF6222",
"J  c #EE6322",
"K  c #EE6421",
"L  c #EE6621",
"P  c #EE6721",
"I  c #EF6721",
"U  c #EE6422",
"Y  c #EE6522",
"T  c #EF6522",
"R  c #EE6523",
"E  c #EE6622",
"W  c #EE6722",
"Q  c #EF6722",
"!  c #EE6322",
"~  c #EF6821",
"^  c #EF6921",
"/  c #EF6A21",
"(  c #EE6B21",
")  c #EF6B21",
"_  c #EF6A22",
"`  c #EE6B22",
"'  c #EF6D20",
"]  c #EE6C21",
"[  c #EF6C21",
"{  c #EE6D21",
"}  c #EF6D21",
"|  c #EF6E20",
" . c #EF6F20",
".. c #EF6E21",
"X. c #EF6F21",
"o. c #EF6D22",
"O. c #EF6D21",
"+. c #F06621",
"@. c #F06B21",
"#. c #F06C21",
"$. c #F06E20",
"%. c #F06F20",
"&. c #F16F20",
"*. c #F06C21",
"=. c #EF7020",
"-. c #EF7120",
";. c #EF7220",
":. c #EF7320",
">. c #EF7221",
",. c #EF7321",
"<. c #EF7220",
"1. c #EF7820",
"2. c #EF7820",
"3. c #F07020",
"4. c #F17020",
"5. c #F07120",
"6. c #F07220",
"7. c #F17220",
"8. c #F07320",
"9. c #F17320",
"0. c #F07321",
"q. c #F07420",
"w. c #F07520",
"e. c #F17520",
"r. c #F07421",
"t. c #F07620",
"y. c #F17720",
"u. c #F07220",
"i. c #F17820",
"p. c #F17B20",
"a. c #F27A20",
"s. c #F17A20",
"d. c #F1801E",
"f. c #F1811E",
"g. c #F1821E",
"h. c #F2821E",
"j. c #F2831E",
"k. c #F2841C",
"l. c #F2851C",
"z. c #F2841D",
"x. c #F2851D",
"c. c #F2861D",
"v. c #F2871D",
"b. c #F2841E",
"n. c #F2851E",
"m. c #F1871E",
"M. c #F2841D",
"N. c #F2891C",
"B. c #F2881D",
"V. c #F2891D",
"C. c #F28B1D",
"Z. c #F4941B",
"A. c #F49B1A",
"S. c #F6AB17",
"D. c #F8AF17",
"F. c #F5A319",
"G. c #F6AC18",
"H. c #F7B417",
"J. c #F8B317",
"K. c #F7BB16",
"L. c #F8B916",
"P. c #F7B018",
"I. c #F8B218",
/* pixels */
"                                                                                                                                                                                                                                                                                                                                                                                                                                                                                                                                                                                                                                                                                                                                                                                                                                                                                                                                                                                                                                                                ",
"                                                                                                                                                                                                                                                                                                                                                                                                                                                                                                                                                                                                                                                                                                                                                                                                                                                                                                                                                                                                                                                                ",
"                                                                                                                                                                                                                                                                                                                                                                                                                                                                                                                                                                                                                                                                                                                                                                                                                                                                                                                                                                                                                                                                ",
"                                                                                                                                                                                                                                                                                                                                                                                                                                                                                                                                                                                                                                                                                                                                                                                                                                                                                                                                                                                                                                                                ",
"                                                                                                                                                                                                                                                                                                                                                                                                                                                                                                                                                                                                                                                                                                                                                                                                                                                                                                                                                                                                                                                                ",
"                                                                                                                                                                                                                                                                                                                                                                                                                                                                                                                                                                                                                                                                                                                                                                                                                                                                                                                                                                                                                                                                ",
"                                                                                                                                                                                                                                                                                                                                                                                                                                                                                                                                                                                                                                                                                                                                                                                                                                                                                                                                                                                                                                                                ",
"                                                                                                                                                                                                                                                                                                                                                                                                                                                                                                                                                                                                                                                                                                                                                                                                                                                                                                                                                                                                                                                                ",
"                                                                                                                                                                                                                                                                                                                                                                                                                                                                                                                                                                                                                                                                                                                                                                                                                                                                                                                                                                                                                                                                ",
"                                                                                                                                                                                                                                                                                                                                                                                                                                                                                                                                                                                                                                                                                                                                                                                                                                                                                                                                                                                                                                                                ",
"                                                                                                                                                                                                                                                                                                                                                                                                                                                                                                                                                                                                                                                                                                                                                                                                                                                                                                                                                                                                                                                                ",
"                                                                                                                                                                                                                                                                                                                                                                                                                                                                                                                                                                                                                                                                                                                                                                                                                                                                                                                                                                                                                                                                ",
"                                                                                                                                                                                                                                                                                                                                                                                                                                                                                                                                                                                                                                                                                                                                                                                                                                                                                                                                                                                                                                                                ",
"                                                                                                                                                                                                                                                                                                                                                                                                                                                                                                                                                                                                                                                                                                                                                                                                                                                                                                                                                                                                                                                                ",
"                                                                                                                                                                                                                                                                                                                                                                                                                                                                                                                                                                                                                                                                                                                                                                                                                                                                                                                                                                                                                                                                ",
"                                                                                                                                                                                                                                                                                                                                                                                                                                                                                                                                                                                                                                                                                                                                                                                                                                                                                                                                                                                                                                                                ",
"                                                                                                                                                                                                                                                                                                                                                                                                                                                                                                                                                                                                                                                                                                                                                                                                                                                                                                                                                                                                                                                                ",
"                                                                                                                                                                                                                                                                                                                                                                                                                                                                                                                                                                                                                                                                                                                                                                                                                                                                                                                                                                                                                                                                ",
"                                                                                                                                                                                                                                                                                                                                                                                                                                                                                                                                                                                                                                                                                                                                                                                                                                                                                                                                                                                                                                                                ",
"                                                                                                                                                                                                                                                                                                                                                                                                                                                                                                                                                                                                                                                                                                                                                                                                                                                                                                                                                                                                                                                                ",
"                                                                                                                                                                                                                                                                                                                                                                                                                                                                                                                                                                                                                                                                                                                                                                                                                                                                                                                                                                                                                                                                ",
"                                                                                                                                                                                                                                                                                                                                                                                                                                                                                                                                                                                                                                                                                                                                                                                                                                                                                                                                                                                                                                                                ",
"                                                                                                                                                                                                                                                                                                                                                                                                                                                                                                                                                                                                                                                                                                                                                                                                                                                                                                                                                                                                                                                                ",
"                                                                                                                                                                                                                                                                                                                                                                                                                                                                                                                                                                                                                                                                                                                                                                                                                                                                                                                                                                                                                                                                ",
"                                                                                                                                                                                                                                                                                                                                                                                                                                                                                                                                                                                                                                                                                                                                                                                                                                                                                                                                                                                                                                                                ",
"                                                                                                                                                                                                                                                                                                                                                                                                                                                                                                                                                                                                                                                                                                                                                                                                                                                                                                                                                                                                                                                                ",
"                                                                                                                                                                                                                                                                                                                                                                                                                                                                                                                                                                                                                                                                                                                                                                                                                                                                                                                                                                                                                                                                ",
"                                                                                                                                                                                                                                                                                                                                                                                                                                                                                                                                                                                                                                                                                                                                                                                                                                                                                                                                                                                                                                                                ",
"                                                                                                                                                                                                                                                                                                                                                                                                                                                                                                                                                                                                                                                                                                                                                                                                                                                                                                                                                                                                                                                                ",
"                                                                                                                                                                                                                                                                                                                                                                                                                                                                                                                                                                                                                                                                                                                                                                                                                                                                                                                                                                                                                                                                ",
"                                                                                                                                                                                                                                                                                                                                                                                                                                                                                                                        & & & & & & & &                                                                                                                                                                                                                                                                                                                                                                                                                                                                                                                         ",
"                                                                                                                                                                                                                                                                                                                                                                                                                                                                                                                  & & & & & & & & & & & & & &                                                                                                                                                                                                                                                                                                                                                                                                                                                                                                                   ",
"                                                                                                                                                                                                                                                                                                                                                                                                                                                                                                              & & & & & & & & & & & & & & & & & &                                                                                                                                                                                                                                                                                                                                                                                                                                                                                                               ",
"                                                                                                                                                                                                                                                                                                                                                                                                                                                                                                            & & & & & & & & & & & & & & & & & & & &                                                                                                                                                                                                                                                                                                                                                                                                                                                                                                             ",
"                                                                                                                                                                                                                                                                                                                                                                                                                                                                                                          & & & & & & & & & & & & & & & & & & & & & &                                                                                                                                                                                                                                                                                                                                                                                                                                                                                                           ",
"                                                                                                                                                                                                                                                                                                                                                                                                                                                                                                        & & & & & & & & & & & & & & & & & & & & & & & &                                                                                                                                                                                                                                                                                                                                                                                                                                                                                                         ",
"                                                                                                                                                                                                                                                                                                                                                                                                                                                                                                      & & & & & & & & & & & & & & & & & & & & & & & & & &                                                                                                                                                                                                                                                                                                                                                                                                                                                                                                       ",
"                                                                                                                                                                                                                                                                                                                                                                                                                                                                                                    & & & & & & & & & & & & & & & & & & & & & & & & & & & &                                                                                                                                                                                                                                                                                                                                                                                                                                                                                                     ",
"                                                                                                                                                                                                                                                                                                                                                                                                                                                                                                    & & & & & & & & & & & & & & & & & & & & & & & & & & & &                                                                                                                                                                                                                                                                                                                                                                                                                                                                                                     ",
"                                                                                                                                                                                                                                                                                                                                                                                                                                                                                                  & & & = = & & & & & & & & & & & & & & & & & & & & & & & & &                                                                                                                                                                                                                                                                                                                                                                                                                                                                                                   ",
"                                                                                                                                                                                                                                                                                                                                                                                                                                                                                                  = = = = & & & & & & & & & & & & & & & & & & & & & & & & & &                                                                                                                                                                                                                                                                                                                                                                                                                                                                                                   ",
"                                                                                                                                                                                                                                                                                                                                                                                                                                                                                                  = = = = & & & & & & & & & & & & & & & & & & & & & & & & & &                                                                                                                                                                                                                                                                                                                                                                                                                                                                                                   ",
"                                                                                                                                                                                                                                                                                                                                                                                                                                                                                                : = = = = = & & & & & & & & & & & & & & & & & & & & & & & & & &                                                                                                                                                                                                                                                                                                                                                                                                                                                                                                 ",
"                                                                                                                                                                                                                                                                                                                                                                                                                                                                                                = = = = = = & & & = & & & & & & & & & & & & & & & & & & & & & &                                                                                                                                                                                                                                                                                                                                                                                                                                                                                                 ",
"                                                                                                                                                                                                                                                                                                                                                                                                                                                                                                : = = = = = = & & & = & & & & & & & & & & & & & & & & & & & & &                                                                                                                                                                                                                                                                                                                                                                                                                                                                                                 ",
"                                                                                                                                                                                                                                                                                                                                                                                                                                                                                                = = = = = = = & & = = = & & & & & & & & & & & & & & & & & & & &                                                                                                                                                                                                                                                                                                                                                                                                                                                                                                 ",
"                                                                                                                                                                                                                                                                                                                                                                                                                                                                                                = = = = = = = = & & = = = & & & & & & & & & & & & & & & & & & &                                                                                                                                                                                                                                                                                                                                                                                                                                                                                                 ",
"                                                                                                                                                                                                                                                                                                                                                                                                                                                                                                = = = = = = = = = & = = = = & & & & & & & & & & & & & & & & & &                                                                                                                                                                                                                                                                                                                                                                                                                                                                                                 ",
"                                                                                                                                                                                                                                                                                                                                                                                                                                                                                                = = = = = = = = = = & & & & & & & & & & & & & & & & & & & & & &                                                                                                                                                                                                                                                                                                                                                                                                                                                                                                 ",
"                                                                                                                                                                                                                                                                                                                                                                                                                                                                                                = = = = = = = = > > = & & & & & & & & & & & & & & & & & & & & &                                                                                                                                                                                                                                                                                                                                                                                                                                                                                                 ",
"                                                                                                                                                                                                                                                                                                                                                                                                                                                                                                > > = = = = = > > = = = = = & & & & & & & & & & & & & & & & & &                                                                                                                                                                                                                                                                                                                                                                                                                                                                                                 ",
"                                                                                                                                                                                                                                                                                                                                                                                                                                                                                                = = = = = = = > = = = = = = = = & & & & & & & & & & & & & & & &                                                                                                                                                                                                                                                                                                                                                                                                                                                                                                 ",
"                                                                                                                                                                                                                                                                                                                                                                                                                                                                                                > > = = = = > > > = = = = = = = & & & & & & & & & & & & & & & &                                                                                                                                                                                                                                                                                                                                                                                                                                                                                                 ",
"                                                                                                                                                                                                                                                                                                                                                                                                                                                                                                = = = = = = = = > = = = = = = = = = & & & & & & & & & & & & & &                                                                                                                                                                                                                                                                                                                                                                                                                                                                                                 ",
"                                                                                                                                                                                                                                                                                                                                                                                                                                                                                                = = = = = = = = > = = = = = = = = = = = & & & & & & & & & & & &                                                                                                                                                                                                                                                                                                                                                                                                                                                                                                 ",
"                                                                                                                                                                                                                                                                                                                                                                                                                                                                                                = 3 = = = = = = = = = = = = = = = = = = = = & & & & & & & & & &                                                                                                                                                                                                                                                                                                                                                                                                                                                                                                 ",
"                                                                                                                                                                                                                                                                                                                                                                                                                                                                                                = 3 3 = = = = = = = > > > = = = = = & & & & = & & & & & & & & &                                                                                                                                                                                                                                                                                                                                                                                                                                                                                                 ",
"                                                                                                                                                                                                                                                                                                                                                                                                                                                                                                = 3 3 3 = = = = = = > = = = = = = = = & & & = = & & & & & & & &                                                                                                                                                                                                                                                                                                                                                                                                                                                                                                 ",
"                                                                                                                                                                                                                                                                                                                                                                                                                                                                                                = = 3 3 3 = = = = = = = = = = = = = = > & & & = = & & & & & & &                                                                                                                                                                                                                                                                                                                                                                                                                                                                                                 ",
"                                                                                                                                                                                                                                                                                                                                                                                                                                                                                                3 = 3 3 3 3 = = = = = = = = = = = > > = = & & = = = & & & & & &                                                                                                                                                                                                                                                                                                                                                                                                                                                                                                 ",
"                                                                                                                                                                                                                                                                                                                                                                                                                                                                                                3 3 = = = = = = = = > > = = = = = = = = = = & = = = = & & & & &                                                                                                                                                                                                                                                                                                                                                                                                                                                                                                 ",
"                                                                                                                                                                                                                                                                                                                                                                                                                                                                                                3 3 3 = 3 3 = = = = = > > > = = = = = = = = = & = = = = & & & &                                                                                                                                                                                                                                                                                                                                                                                                                                                                                                 ",
"                                                                                                                                                                                                                                                                                                                                                                                                                                                                                                3 3 3 3 3 3 = 3 3 = = > = = = = = = = = = = = = & & = & & & & &                                                                                                                                                                                                                                                                                                                                                                                                                                                                                                 ",
"                                                                                                                                                                                                                                                                                                                                                                                                                                                                                                3 3 3 3 3 = = 3 3 3 = = = = = = = = = = = = = = = & & & & & & &                                                                                                                                                                                                                                                                                                                                                                                                                                                                                                 ",
"                                                                                                                                                                                                                                                                                                                                                                                                                                                                                                3 3 3 3 3 3 = = = = 3 = = = = = > = = = = = = = = = & & = = = &                                                                                                                                                                                                                                                                                                                                                                                                                                                                                                 ",
"                                                                                                                                                                                                                                                                                                                                                                                                                                                                                                3 3 3 3 3 3 3 = = = 3 3 = = = = > > = = = = = > = = = & & & = =                                                                                                                                                                                                                                                                                                                                                                                                                                                                                                 ",
"                                                                                                                                                                                                                                                                                                                                                                                                                                                                                                3 3 3 3 3 3 3 3 = = = 3 3 = = = = > = = = = = > > > = = & & & &                                                                                                                                                                                                                                                                                                                                                                                                                                                                                                 ",
"                                                                                                                                                                                                                                                                                                                                                                                                                                                                                                3 3 3 3 3 3 3 3 3 = 3 3 3 3 = = = = = = = = = = > = = = = & & &                                                                                                                                                                                                                                                                                                                                                                                                                                                                                                 ",
"                                                                                                                                                                                                                            @ %. . . . . . .+ +                                                                                                                                                                                                                                                 3 3 3 3 3 3 3 3 3 3 3 3 3 3 3 = = = = = = = = = = = = = > > & &                                                                                                                                                                                                                                               O o o o o o o o o o o                                                                                                                                                                                                                             ",
"                                                                                                                                                                                                                        %.8. . . . . . . . . . . . . .                                                                                                                                                                                                                                          3 3 3 3 3 3 3 3 3 3 3 3 3 3 3 3 = = = = = = = = = = = = = > = &                                                                                                                                                                                                                                           X O O o o o o o o o o o o o .                                                                                                                                                                                                                         ",
"                                                                                                                                                                                                                    %.8.8.8.8. . . . . . . . . . . . . . .                                                                                                                                                                                                                                      3 3 3 3 3 3 3 3 3 3 3 3 = = = = 3 = = = = = = = = = = = = = = =                                                                                                                                                                                                                                       O O O O O O o o o o o o o o o o o o o                                                                                                                                                                                                                     ",
"                                                                                                                                                                                                                  8.8.8.8.8.%.%. . . . . . . . . . . . . . .                                                                                                                                                                                                                                    3 3 3 3 3 3 3 3 3 3 3 3 3 = = = 3 3 = = = = = = = = = = = = = =                                                                                                                                                                                                                                     X X O O O O O O o o o o o o o o o o o o o                                                                                                                                                                                                                   ",
"                                                                                                                                                                                                                8.8.8.8.%.%.%.%.8. . . . . . . . . . . . . .)                                                                                                                                                                                                                                   3 3 3 3 3 3 3 3 3 3 3 3 3 3 = = 3 3 3 = = = = = > = = = = > > =                                                                                                                                                                                                                                   X X X X O o o o o o o o o o o o o o o o o o o                                                                                                                                                                                                                 ",
"                                                                                                                                                                                                              8.8.8.8.8.8.%.%.%.8.8. . . . . . . . . . . . . .@.                                                                                                                                                                                                                                3 3 3 3 3 3 3 3 3 3 3 3 3 3 3 = 3 = 3 3 = = = = > = = = = > > =                                                                                                                                                                                                                                 X X X X X X O o o o o o o o o o o o o o o o o o o                                                                                                                                                                                                               ",
"                                                                                                                                                                                                            # 8.8.8.8.8.8.8.%.%.%.8.8. . . . . . . . . . . . . . .                                                                                                                                                                                                                              c 3 3 3 3 3 3 3 3 3 3 3 3 3 3 3 = = = = 3 = = = > = = = = = = =                                                                                                                                                                                                                               X X X X X X X X O O O o O O o o o o o o o o o o o o o                                                                                                                                                                                                             ",
"                                                                                                                                                                                                            8.8.8.8.8.8.8.8.8.%.%.8.8.8. . . . . . . . . . . . . .                                                                                                                                                                                                                              e c 3 3 3 3 3 3 3 3 3 3 3 3 3 3 3 = = = 3 3 = = = = = = = = = =                                                                                                                                                                                                                               X X X X X X X X X O O O O O O o o o o o o o o o o o o                                                                                                                                                                                                             ",
"                                                                                                                                                                                                          8.8.8.8.8.8.8.8.8.8.8.%.%.8.8.8. . . . . . . . . . . . . .                                                                                                                                                                                                                            e e c 3 3 3 3 3 3 3 3 3 3 3 3 3 3 3 3 = = = 3 = = = = = = = = =                                                                                                                                                                                                                             X X X X X X X X X X X O o o o o O o o o o o o o o o o o o                                                                                                                                                                                                           ",
"                                                                                                                                                                                                          8.8.8.8.8.8.8.8.8.8.8.8.8.8.%.%.%. . . . . . . . . . . . .                                                                                                                                                                                                                            e e e c 3 3 3 3 3 3 3 3 3 3 3 3 3 3 3 = = = = 3 = = = = = = = =                                                                                                                                                                                                                             X X X X X X X X X X X X O O o o O O o o o o o o o o o o o                                                                                                                                                                                                           ",
"                                                                                                                                                                                                        ;.8.8.8.8.8.8.8.8.8.8.8.8.8.%.%.%.8.8. . . . . . . . . . . . .                                                                                                                                                                                                                          e e e e c 3 3 3 3 3 3 3 3 3 3 3 3 3 3 3 = = 3 3 e > = = = = = =                                                                                                                                                                                                                           X X X X X X X X X X X X X X O o o O O O o o o o o o o o o o o                                                                                                                                                                                                         ",
"                                                                                                                                                                                                        8.8.8.8.8.8.8.8.8.8.8.8.8.8.8.%.%.%.8.8. . . . . . . . . . . . .                                                                                                                                                                                                                        e e e e e c 3 3 3 3 3 3 3 3 3 3 3 3 3 3 3 = 3 3 3 3 = = = = = =                                                                                                                                                                                                                         X X X X X X X X X X X X X X X X O o O O O O o o o o o o o o o o                                                                                                                                                                                                         ",
"                                                                                                                                                                                                        t.8.8.8.8.8.8.8.8.8.8.8.8.8.8.8.%.%.%.%.8. . . . . . . . . . . .                                                                                                                                                                                                                        e e e e e e 3 3 3 3 3 3 3 3 3 3 3 3 3 3 3 3 = = = = = = = = = =                                                                                                                                                                                                                         X X X X X X X X X X X X X X X X X O o o O O O o o o o o o o o o                                                                                                                                                                                                         ",
"                                                                                                                                                                                                        t.t.8.8.8.8.8.8.8.8.8.8.8.8.8.8.8.%.%.%.8.8. . . . . . . . . . . .                                                                                                                                                                                                                      e e e e e e e 3 3 3 3 3 3 3 3 3 3 3 3 3 3 3 3 = = = = = = = = =                                                                                                                                                                                                                       X X X X X X X X X X X X X X X X X X X O o O O O O o o o o o o o o                                                                                                                                                                                                         ",
"                                                                                                                                                                                                        t.t.t.8.8.8.8.8.8.8.8.8.8.8.8.8.8.8.%.%.8.8.8. . . . . . . . . . .                                                                                                                                                                                                                      e e e e e e e e 3 3 3 3 3 3 3 3 3 3 3 3 3 3 3 3 3 3 = 3 3 = = =                                                                                                                                                                                                                       X X X X X X X X X X X X X X X X X X X X O O O O O O o o o o o o o                                                                                                                                                                                                         ",
"                                                                                                                                                                                                        t.t.t.t.8.8.8.8.8.8.8.8.8.8.8.8.8.8.8.%.%.%.8.8. . . . . . . . . . .                                                                                                                                                                                                                    e e e e e e e e e 3 3 3 3 3 3 3 3 3 3 3 3 3 3 3 3 3 3 3 3 3 = =                                                                                                                                                                                                                     X X X X X X X X X X X X X X X X X X X X X X O O O O O O o o o o o o                                                                                                                                                                                                         ",
"                                                                                                                                                                                                        8.t.t.t.t.8.8.8.8.8.8.8.8.8.8.8.8.8.8.8.%.8.8.8.8. . . . . . . . . .                                                                                                                                                                                                                    e e e e e e e e e e c 3 3 3 3 3 3 3 3 3 3 3 3 3 3 3 = = = = 3 =                                                                                                                                                                                                                     X X X X X X X X X X X X X X X X X X X X X X X O o o o o O o o o o o                                                                                                                                                                                                         ",
"                                                                                                                                                                                                        t.t.t.t.t.t.8.8.8.8.8.8.8.8.8.8.8.8.8.8.8.8.%.%.8.8. . . . . . . . . .                                                                                                                                                                                                                  e e e e e e e e e e e c 3 3 3 3 3 3 3 3 3 3 3 3 3 3 3 = = = 3 3                                                                                                                                                                                                                   X X X X X X X X X X X X X X X X X X X X X X X X X O O o o O O o o o o                                                                                                                                                                                                         ",
"                                                                                                                                                                                                        t.t.t.t.t.t.t.8.8.8.8.8.8.8.8.8.8.8.8.8.8.8.%.%.8.8.%. . . . . . . . . .                                                                                                                                                                                                                e e e e e e e e e e e e c 3 3 3 3 3 3 3 3 3 3 3 3 3 3 3 = = = 3                                                                                                                                                                                                                 X X X X X X X X X X X X X X X X X X X X X X X X X X X O o o O O O o o o                                                                                                                                                                                                         ",
"                                                                                                                                                                                                        # t.t.t.t.t.t.t.8.8.8.8.8.8.8.8.8.8.8.8.8.8.8.%.%.%.%.8. . . . . . . . .                                                                                                                                                                                                                e e e e e e e e e e e e e c 3 3 3 3 3 3 3 3 3 3 3 3 3 3 3 = 3 3                                                                                                                                                                                                                 X X X X X X X X X X X X X X X X X X X X X X X X X X X X O o O O O O o o                                                                                                                                                                                                         ",
"                                                                                                                                                                                                        # # t.t.8.8.t.t.t.8.8.8.8.8.8.8.8.8.8.8.8.8.8.8.%.%.%.8.8. . . . . . . . .                                                                                                                                                                                                              e e e e e e e e e e e e e e 3 3 3 3 3 3 3 3 3 3 3 3 3 3 3 3 = =                                                                                                                                                                                                               X X X X X X X X X X X X X X X X X X X X X X X X X X X X X X O o o O O O o                                                                                                                                                                                                         ",
"                                                                                                                                                                                                          # # t.t.8.8.t.t.t.8.8.8.8.8.8.8.8.8.8.8.8.8.8.8.%.%.%.8.8. . . . . . . .                                                                                                                                                                                                              e e e e e e e e e e e e e e e 3 3 3 3 3 3 3 3 3 3 3 3 3 3 3 3 =                                                                                                                                                                                                               X % X X X X X X X X X X X X X X X X X X X X X X X X X X X X X O o O O O                                                                                                                                                                                                           ",
"                                                                                                                                                                                                          # # # t.t.t.t.t.t.t.8.8.8.8.8.8.8.8.8.8.8.8.8.8.8.%.%.8.8.8. . . . . . . .                                                                                                                                                                                                            e e e e e e e e e e e e e e e e 3 3 3 3 3 3 3 3 3 3 3 3 3 3 3 3                                                                                                                                                                                                             X X % % X X X X X X X X X X X X X X X X X X X X X X X X X X X X X O O O X                                                                                                                                                                                                           ",
"                                                                                                                                                                                                            # # # t.t.t.t.t.8.t.8.8.8.8.8.8.8.8.8.8.8.8.8.8.8.%.%.%.8.8. . . . . . .%.                                                                                                                                                                                                          e e e e e e e e e e e e e e e e e 3 3 3 3 3 3 3 3 3 3 3 3 3 3 3                                                                                                                                                                                                           * X X % % % X X X X X X X X X X X X X X X X X X X X X X X X X X X X X O O                                                                                                                                                                                                             ",
"                                                                                                                                                                                                            t.# # # t.t.8.8.8.t.t.8.8.8.8.8.8.8.8.8.8.8.8.8.8.8.%.8.8.8.8. . . . . . .                                                                                                                                                                                                          e e e e e e e e e e e e e e e e e e 3 3 3 3 3 3 3 3 3 3 3 3 3 3                                                                                                                                                                                                           % % % X % X X X X X X X X X X X X X X X X X X X X X X X X X X X X X X X O                                                                                                                                                                                                             ",
"                                                                                                                                                                                                              # # # # t.t.8.8.8.t.t.8.8.8.8.8.8.8.8.8.8.8.8.8.8.8.%.%.%.8.8. . . . . . .                                                                                                                                                                                                        e e e e e e e e e e e e e e e e e e e 3 3 3 3 3 3 3 3 3 3 3 3 3                                                                                                                                                                                                         % % % % X % X X % X X X X X X X X X X X X X X X X X X X X X X X X X X X X                                                                                                                                                                                                               ",
"                                                                                                                                                                                                              # # # # # t.t.t.t.t.t.t.8.8.8.8.8.8.8.8.8.8.8.8.8.8.8.%.%.8.8.8. . . . . .                                                                                                                                                                                                        d e e e e e e e e e e e e e e e e e e e c 3 3 3 3 3 3 3 3 3 3 3                                                                                                                                                                                                         % X % % % X X X X % X X X X X X X X X X X X X X X X X X X X X X X X X X X                                                                                                                                                                                                               ",
"                                                                                                                                                                                                                # # # # # t.t.8.t.t.t.t.8.8.8.8.8.8.8.8.8.8.8.8.8.8.8.%.8.8.8.8. . . . . .                                                                                                                                                                                                      d d e e e e e e e e e e e e e e e e e e e c 3 3 3 3 3 3 3 3 3 3                                                                                                                                                                                                       % % X % % % X X X X X X X X X X X X X X X X X X X X X X X X X X X X X X X                                                                                                                                                                                                                 ",
"                                                                                                                                                                                                                t.# # # # # t.t.8.8.t.t.t.8.8.8.8.8.8.8.8.8.8.8.8.8.8.8.%.%.%.%.8. . . . .                                                                                                                                                                                                      e e e e e e e e e e e e e e e e e e e e e e 3 3 3 3 3 3 3 3 3 3                                                                                                                                                                                                       % % % % X % % % % % X X X X X X X X X X X X X X X X X X X X X X X X X X O                                                                                                                                                                                                                 ",
"                                                                                                                                                                                                                  @ # # # # # t.t.8.t.t.t.8.8.8.8.8.8.8.8.8.8.8.8.8.8.8.8.%.%.%.8.8. . . . .                                                                                                                                                                                                    e e e e e e e e e e e e e e e e e e e e e e e 3 3 3 3 3 3 3 3 3                                                                                                                                                                                                     % % % % % X % % % % X X X X % X X X X X X X X X X X X X X X X X X X X X X                                                                                                                                                                                                                   ",
"                                                                                                                                                                                                                    # # # # # # t.t.t.t.t.t.t.8.8.8.8.8.8.8.8.8.8.8.8.8.8.8.%.%.8.8.%. . . . .                                                                                                                                                                                                  d d e e e e e e e e e e e e e e e e e e e e e e c 3 3 3 3 3 3 3                                                                                                                                                                                                   % % % % % % % X X X X % X X X % % X X X X X X X X X X X X X X X X X X X X                                                                                                                                                                                                                     ",
"                                                                                                                                                                                                                    # # # # # # # t.t.8.t.t.t.t.8.8.8.8.8.8.8.8.8.8.8.8.8.8.8.%.8.%.%.%. . .+                                                                                                                                                                                                   d e e e e e e e e e e e e e e e e e e e e e e e e c 3 3 3 3 3 3                                                                                                                                                                                                   % % % % % % % % X X X % % X X X % % X X X X X X X X X X X X X X X X X X X                                                                                                                                                                                                                     ",
"                                                                                                                                                                                                                      # # # # # # # t.t.8.8.t.t.t.8.8.8.8.8.8.8.8.8.8.8.8.8.8.8.%.%.%.%.8. . . .                                                                                                                                                                                                d d e e e e d e e e e e e e e e e e e e e e e e e e 3 3 3 3 3 3                                                                                                                                                                                                 % % % % % % % % % % X X % % X X X X X X X X X X X X X X X X X X X X X X X                                                                                                                                                                                                                       ",
"                                                                                                                                                                                                                      # # # # # # # # t.t.t.t.t.t.t.8.8.8.8.8.8.8.8.8.8.8.8.8.8.8.%.%.8.8.8. . .                                                                                                                                                                                                d d d e e e d d e e e e e e e e e e e e e e e e e e e 3 3 3 3 3                                                                                                                                                                                                 % % % % % % % % % % % X % % X X % % X X X X X X X X X X X X X X X X X X X                                                                                                                                                                                                                       ",
"                                                                                                                                                                                                                        # # # # # # # # t.t.t.t.t.t.t.8.8.8.8.8.8.8.8.8.8.8.8.8.8.8.8.8.8.8.%. . .                                                                                                                                                                                              d d d d e d d d d e e e e e e e e e e e e e e e e e e e 3 3 3 3                                                                                                                                                                                               % % % % % % % % % % % % % % % X X % X X X X % X X X X X X X X X X X X X X                                                                                                                                                                                                                         ",
"                                                                                                                                                                                                                          # # # # # # # # t.t.t.t.t.t.t.8.8.8.8.8.8.8.8.8.8.8.8.8.8.8.%.%.%.8.8. .                                                                                                                                                                                              d d d d d e d d d d e e e e e e e e e e e e e e e e e e e 3 3 3                                                                                                                                                                                               % % % % % % % % % % % % % % % X X % % X X X % % X X X X X X X X X X X X                                                                                                                                                                                                                           ",
"                                                                                                                                                                                                                          # # # # # # # # # t.t.8.8.t.t.t.8.8.8.8.8.8.8.8.8.8.8.8.8.8.8.%.%.%.8.8. .                                                                                                                                                                                            d d d d d d e e d d e e e e e e e e e e e e e e e e e e e e 3 3                                                                                                                                                                                             % % % % % % % % % % % % % % % % X X % % % X X X X X X X X X X X X X X X X                                                                                                                                                                                                                           ",
"                                                                                                                                                                                                                            # # # # # # # # # t.t.8.8.t.t.t.8.8.8.8.8.8.8.8.8.8.8.8.8.8.8.%.%.%.8.8. .                                                                                                                                                                                          d d d d d d d e d d e e e e e e e e e e e e e e e e e e e e e 3                                                                                                                                                                                           % % % % % % % % % % % % % % % % % % X X % % % X X X X % X X X X X X X X X                                                                                                                                                                                                                             ",
"                                                                                                                                                                                                                            # # # # # # # # # # t.t.t.t.t.t.t.8.8.8.8.8.8.8.8.8.8.8.8.8.8.8.%.%.8.8.8.                                                                                                                                                                                          d d d d d d d d d d d e d e e e e e e e e e e e e e e e e e e e                                                                                                                                                                                           % % % % % % % % % % % % % % % % % % % X X % % % % X X % % X X X X X X X X                                                                                                                                                                                                                             ",
"                                                                                                                                                                                                                              # # # # # # # # # # t.t.t.t.t.8.8.8.8.8.8.8.8.8.8.8.8.8.8.8.8.8.%.8.8.8.;.                                                                                                                                                                                        d d d d d d d d d d d e d d e e e e e e e e e e e e e e e e e e                                                                                                                                                                                         % % % % % % % % % % % % % % % % % % % % % X % % % % X X % % % X X X X X X                                                                                                                                                                                                                               ",
"                                                                                                                                                                                                                              # # # # # # # # # # # t.t.t.8.8.8.t.8.8.8.8.8.8.8.8.8.8.8.8.8.8.8.%.8.8.8.                                                                                                                                                                                        d d d d d d d d d d e e d d d e e e e e e e e e e e e e e e e e                                                                                                                                                                                         % % % % % % % % % % % % % % % % % % % % % % % % % % % X X X X X X X X X X                                                                                                                                                                                                                               ",
"                                                                                                                                                                                                                                # # # # # # # # # # # t.t.t.8.8.t.t.8.8.8.8.8.8.8.8.8.8.8.8.8.8.8.8.%.%.#                                                                                                                                                                                       d d d d d d d d d d d e d d d d e e e e e e e e e e e e e e e e                                                                                                                                                                                       % % % % % % % % % % % % % % % % % % % % % % % % X % % X X X X X X X X X X                                                                                                                                                                                                                                 ",
"                                                                                                                                                                                                                                  # # # # # # # # # # # t.t.t.t.t.t.t.8.8.8.8.8.8.8.8.8.8.8.8.8.8.8.%.%.8.;.                                                                                                                                                                                    d d d d d d d d d d d d e e d d d e e e e e e e e e e e e e e e                                                                                                                                                                                     % % % % % % % % % % % % % % % % % % % % % % % % % % % % % % X X X X % % X                                                                                                                                                                                                                                   ",
"                                                                                                                                                                                                                                  # # # # # # # # # # # # t.t.t.t.t.t.t.8.8.8.8.8.8.8.8.8.8.8.8.8.8.8.%.8.8.                                                                                                                                                                                    d d d d d d d d d d d d d e e e d d e e e e e e e e e e e e e e                                                                                                                                                                                     % % % % % % % % % % % % % % % % % % % % % % % % % % % % % % % % % % % % %                                                                                                                                                                                                                                   ",
"                                                                                                                                                                                                                                    # # # # # # # # # # # # t.t.8.8.t.t.t.8.8.8.8.8.8.8.8.8.8.8.8.8.8.8.%.%.%.                                                                                                                                                                                  d d d d d d d d d d d d d d d d d d d e e e e e e e e e e e e e                                                                                                                                                                                   % % % % % % % % % % % % % % % % % % % % % % % % % % % % % X X % % % X X %                                                                                                                                                                                                                                     ",
"                                                                                                                                                                                                                                    # # # # # # # # # # # # # t.t.8.8.t.t.t.8.8.8.8.8.8.8.8.8.8.8.8.8.8.8.%.%.                                                                                                                                                                                  d d d d d d d d d d d d d d d e d e d d e e e e e e e e e e e e                                                                                                                                                                                   % % % % % % % % % % % % % % % % % % % % % % % % % % % % % % X % X % % X X                                                                                                                                                                                                                                     ",
"                                                                                                                                                                                                                                      # # # # # # # # # # # # # t.t.t.t.t.t.t.8.8.8.8.8.8.8.8.8.8.8.8.8.8.8.%.%.                                                                                                                                                                                A d d d d d d d d d d d d d d d e e e e d e e e e e e e e e e e                                                                                                                                                                                 % % % % % % % % % % % % % % % % % % % % % % % % % % % % % % % % X X X X %                                                                                                                                                                                                                                       ",
"                                                                                                                                                                                                                                      i.# # # # # # # # # # # # # t.t.t.t.t.8.t.8.8.8.8.8.8.8.8.8.8.8.8.8.8.8.%.                                                                                                                                                                                A A d d d d d d d d d d d d d d d e e e d d e e e e e e e e e e                                                                                                                                                                                 & % % % % % % % % % % % % % % % % % % % % % % % % % % % % % % % % X X % %                                                                                                                                                                                                                                       ",
"                                                                                                                                                                                                                                        # # # # # # # # # # # # # # t.t.8.8.8.t.t.8.8.8.8.8.8.8.8.8.8.8.8.8.8.8.8.                                                                                                                                                                              A A d d d d d d d d d d d d d d d d e e d d e e e e e e e e e e                                                                                                                                                                               % & & % % % % % % % % % % % % % % % % % % % % % % % % % % % % % % % % % X                                                                                                                                                                                                                                         ",
"                                                                                                                                                                                                                                          # # # # # # # # # # # # # # t.t.8.8.8.t.t.8.8.8.8.8.8.8.8.8.8.8.8.8.8.8.8.                                                                                                                                                                            A A d d d d d d d d d d d d d d d d d e d e e e e e e e e e e e                                                                                                                                                                             % % & & % % % % % % % % % % % % % % % % % % % % % % % % % % % % % % % % %                                                                                                                                                                                                                                           ",
"                                                                                                                                                                                                                                          # # # # # # # # # # # # # # # t.t.t.t.t.t.t.8.8.8.8.8.8.8.8.8.8.8.8.8.8.8.                                                                                                                                                                            A A A d d d d d d d d d d d d d d d d d d d e e d e e e e e e e                                                                                                                                                                             % % & & % % % & % % % % % % % % % % % % % % % % % % % % % % % % % % % % %                                                                                                                                                                                                                                           ",
"                                                                                                                                                                                                                                            # # # # # # # # # # # # # # # t.t.8.t.t.t.t.8.8.8.8.8.8.8.8.8.8.8.8.8.8.8.                                                                                                                                                                          A A A d d d d d d d d d d d d d d d d d d d e e d d e e e e e e                                                                                                                                                                           & % % & & % % % % & % % % % % % % % % % % % % % % % % % % % % % % % % % %                                                                                                                                                                                                                                             ",
"                                                                                                                                                                                                                                            # # # # # # # # # # # # # # # # t.t.8.8.8.8.8.8.8.8.8.8.8.8.8.8.8.8.8.8.8.                                                                                                                                                                          A A A A A A d d d d d d d d d d d d d d d d e e e d d e e e e e                                                                                                                                                                           & % % & & & & % % % % % % % % % % % % % % % % % % % % % % % % % % % % % %                                                                                                                                                                                                                                             ",
"                                                                                                                                                                                                                                              # # # # # # # # # # # # # # # # t.t.8.8.8.t.t.8.8.8.8.8.8.8.8.8.8.8.8.8.8.                                                                                                                                                                        A A A A A d d d d d d d d d d d d d d d d d d e e d d d e e e e                                                                                                                                                                         & & & & % & & & % % % % & % % % % % % % % % % % % % % % % % % % % % % % %                                                                                                                                                                                                                                               ",
"                                                                                                                                                                                                                                              # # # # # # # # # # # # # # # # # t.t.t.t.t.t.t.8.8.8.8.8.8.8.8.8.8.8.8.8.                                                                                                                                                                        A A A A A A d d A d d d d d d d d d d d d d d d e e d d d e e e                                                                                                                                                                         & & & & % % & & & & % % & & % % % % % % % % % % % % % % % % % % % % % % %                                                                                                                                                                                                                                               ",
"                                                                                                                                                                                                                                                # # # # # # # # # # # # # # # # # t.t.t.t.t.t.t.8.8.8.8.8.8.8.8.8.8.8.8.8.                                                                                                                                                                      A A A A A A d d A A d d d d d d d d d d d d d d d e d d d d e e                                                                                                                                                                       & & & & & & % & & & & % % & & & % % % % % % % % % % % % % % % % % % % % %                                                                                                                                                                                                                                                 ",
"                                                                                                                                                                                                                                                  # # # # # # # # # # # # # # # # # t.t.8.8.t.t.t.8.8.8.8.8.8.8.8.8.8.8.8.;.                                                                                                                                                                    A A A A A A A d d A A d d d d d d d d d d d d d d d e e e e e e                                                                                                                                                                     & & & & & & & & % % & & & % % % % % % % % % % % % % % % % % % % % % % % %                                                                                                                                                                                                                                                   ",
"                                                                                                                                                                                                                                                  # # # # # # # # # # # # # # # # # # t.t.8.8.t.t.t.8.8.8.8.8.8.8.8.8.8.8.8.                                                                                                                                                                    A A A A A A A d d A A A d d d d d d d d d d d d d d d e e e d d                                                                                                                                                                     & & & & & & & & & % & & % % % % % & & % % % % % % % % % % % % % % % % % %                                                                                                                                                                                                                                                   ",
"                                                                                                                                                                                                                                                    # # # # # # # # # # # # # # # # # # t.t.t.t.t.t.t.8.8.8.8.8.8.8.8.8.8.8.8.                                                                                                                                                                  A A A A A A A A d d A A A d d d d d d d d d d d d d d d e e e e                                                                                                                                                                   & & & & & & & & & & & & & & & % % & & & & % % % % % % % % % % % % % % % %                                                                                                                                                                                                                                                     ",
"                                                                                                                                                                                                                                                    # # # # # # # # # # # # # # # # # # # t.t.8.t.t.t.t.8.8.8.8.8.8.8.8.8.8.8.                                                                                                                                                                  A A A A A A A A A d A A A A d d d d d d d d d d d d d d d e e e                                                                                                                                                                   & & & & & & & & & & & & & & & & % % & & & & % % % % % % % % % % % % % % %                                                                                                                                                                                                                                                     ",
"                                                                                                                                                                                                                                                      # # # # # # # # # # # # # # # # # # # t.t.t.t.t.t.8.8.8.8.8.8.8.8.8.8.8.8.                                                                                                                                                                A A A A A A A A A A d d d d d d d d d d d d d d d d d d d d e e                                                                                                                                                                 & & & & & & & & & & & & & % % % % % & & & % % % % % % % % % % % % % % % %                                                                                                                                                                                                                                                       ",
"                                                                                                                                                                                                                                                        # # # # # # # # # # # # # # # # # # # t.t.t.t.t.8.t.8.8.8.8.8.8.8.8.8.8.                                                                                                                                                                A A A A A A A A A A A d d d d d d d d d d d d d d d d d d d d e                                                                                                                                                                 & & & & & & & & & & & & & & & % % % & & % % % % & % % % % % % % % % % %                                                                                                                                                                                                                                                         ",
"                                                                                                                                                                                                                                                        # # # # # # # # # # # # # # # # # # # # t.t.t.t.8.8.8.8.8.8.8.8.8.8.8.8.8.                                                                                                                                                              A A A A A A A A A A A A A A d A A d d d d d d d d d d d d d d d                                                                                                                                                               & & & & & & & & & & & & & & & & & % % & & & % % % & & % % % % % % % % % %                                                                                                                                                                                                                                                         ",
"                                                                                                                                                                                                                                                          # # # # # # # # # # # # # # # # # # # # t.t.8.8.8.8.t.8.8.8.8.8.8.8.8.8.8.                                                                                                                                                            A A A A A A A A A A A A A A A A A d d d d d d d d d d d d d d                                                                                                                                                               & & & & & & & & & & & & & & & & & & & % & & & & % % % % % % % % % % % % %                                                                                                                                                                                                                                                           ",
"                                                                                                                                                                                                                                                          # # # # # # # # # # # # # # # # # # # # # t.t.8.8.t.t.t.8.8.8.8.8.8.8.8.8.                                                                                                                                                              A A A A A A A A A A A A A A A d d d d d d d d d d d d d d d                                                                                                                                                               & & & & & & & & & & & & & & & & & & & & % % & & & & % % % % % % % % % % %                                                                                                                                                                                                                                                           ",
"                                                                                                                                                                                                                                                            # # # # # # # # # # # # # # # # # # # # # t.t.t.t.t.t.t.8.8.8.8.8.8.8.8.;.                                                                                                                                                            A A A A A A A A A A A A A A A d d d d d d d d d d d d d d d                                                                                                                                                             & & & & & & & & & & & & & & & & & & & & & & % & & & & % % % % & % % % % %                                                                                                                                                                                                                                                             ",
"                                                                                                                                                                                                                                                            # # # # # # # # # # # # # # # # # # # # # # t.t.8.t.t.t.t.8.8.8.8.8.8.8.8.                                                                                                                                                              A A A A A A A A A A A A A A A A A A A d d d d d d d d d                                                                                                                                                               & & & & & & & & & & & & & & & & & & & & & & & % % & & & % & & & & % % % %                                                                                                                                                                                                                                                             ",
"                                                                                                                                                                                                                                                              # # # # # # # # # # # # # # # # # # # # # # t.t.t.t.t.t.t.8.8.8.8.8.8.8.#                                                                                                                                                             A A A A A A A A A A A A A A A A A A A A d d d d d d d d                                                                                                                                                             & & & & & & & & & & & & & & & & & & & & & & & & & % % & & & & & & & % % %                                                                                                                                                                                                                                                               ",
"                                                                                                                                                                                                                                                                # # # # # # # # # # # # # # # # # # # # # # t.t.8.t.8.t.t.8.8.8.8.8.8.8.@                                                                                                                                                             A A A A A A A A A A A A A A A d d d d A d d d d d d                                                                                                                                                             & & & & & & & & & & & & & & & & & & & & & & & & & & % % % % % % % % % % %                                                                                                                                                                                                                                                                 ",
"                                                                                                                                                                                                                                                                # # # # # # # # # # # # # # # # # # # # # # # t.t.t.8.8.8.t.8.8.8.8.8.8.8.                                                                                                                                                              A A A A A A A A A A A A A A A d d d A A d d d d                                                                                                                                                               & & & & & & & & & & & & & & & & & & & & & & & & & & & & % % % % % % % % %                                                                                                                                                                                                                                                                 ",
"                                                                                                                                                                                                                                                                  # # # # # # # # # # # # # # # # # # # # # # # t.t.8.8.t.t.t.8.8.8.8.8.8.8.                                                                                                                                                            A A A A A A A A A A A A A A A A d d d A d d d d                                                                                                                                                             & & & & & & & & & & & & & & & & & & & & & & & & & & & & & & & & & & & % &                                                                                                                                                                                                                                                                   ",
"                                                                                                                                                                                                                                                                  # # # # # # # # # # # # # # # # # # # # # # # # t.t.8.t.t.t.t.8.8.8.8.8.8.                                                                                                                                                              A A A A A A A A A A A A A A A A d A A d d d                                                                                                                                                               & & & & & & & & & & & & & & & & & & & & & & & & & & & & & & & & & & & & %                                                                                                                                                                                                                                                                   ",
"                                                                                                                                                                                                                                                                    # # # # # # # # # # # # # # # # # # # # # # # # t.t.t.t.t.t.t.8.8.8.8.8.8.                                                                                                                                                                A A A A A A A A A A A A A A A d d A                                                                                                                                                                 & = & & & & & & & & & & & & & & & & & & & & & & & & & & & & & & & % % % %                                                                                                                                                                                                                                                                     ",
"                                                                                                                                                                                                                                                                    # # # # # # # # # # # # # # # # # # # # # # # # # t.t.t.8.t.t.t.8.8.8.8.8.                                                                                                                                                                  U A A A A A A A A A A A A A A d                                                                                                                                                                   = = = & & & & & & & & & & & & & & & & & & & & & & & & & & & & & & & % % %                                                                                                                                                                                                                                                                     ",
"                                                                                                                                                                                                                                                                      # # # # # # # # # # # # # # # # # # # # # # # # # t.t.8.8.t.t.t.8.8.8.8.8.                                                                                                                                                                    A A A A A A A A A A A A                                                                                                                                                                     & & = = = & & & & & & & & & & & & & & & & & & & & & & & & & & & & & & & %                                                                                                                                                                                                                                                                       ",
"                                                                                                                                                                                                                                                                        # # # # # # # # # # # # # # # # # # # # # # # # # t.t.8.t.t.t.t.8.8.8.8.8.                                                                                                                                                                          A A A A                                                                                                                                                                           : = & = = = = & & & & & & & & & & & & & & & & & & & & & & & & & & & & & &                                                                                                                                                                                                                                                                         ",
"                                                                                                                                                                                                                                                                        $ # # # # # # # # # # # # # # # # # # # # # # # # # t.t.8.8.t.t.t.8.8.8.8.                                                                                                                                                                                                                                                                                                                                                            = = = & & & & & & & & & & & & & & & & & & & & & & & & & & & & & & & & & &                                                                                                                                                                                                                                                                         ",
"                                                                                                                                                                                                                                                                          # # # # # # # # # # # # # # # # # # # # # # # # # # t.t.8.t.t.t.8.8.8.8.;.                                                                                                                                                                                                                                                                                                                                                        = = = = = & & & & & & & & & & & & & & & & & & & & & & & & & & & & & & & &                                                                                                                                                                                                                                                                           ",
"                                                                                                                                                                                                                                                                          i.# # # # # # # # # # # # # # # # # # # # # # # # # # t.t.t.t.t.t.t.8.8.8.                                                                                                                                                                                                                                                                                                                                                        = = = = = = = = & = & & & & & & & & & & & & & & & & & & & & & & & & & & &                                                                                                                                                                                                                                                                           ",
"                                                                                                                                                                                                                                                                            # # # # # # # # # # # # # # # # # # # # # # # # # # # t.t.8.t.t.t.t.8.8.;.                                                                                                                                                                                                                                                                                                                                                    = = = = = = = = = = = & & & & & & & & & & & & & & & & & & & & & & & & & &                                                                                                                                                                                                                                                                             ",
"                                                                                                                                                                                                                                                                            $ # # $ # # # # # # # # # # # # # # # # # # # # # # # # t.t.8.8.t.t.t.8.8.                                                                                                                                                                                                                                                                                                                                                    = = = > = = = = = = = & & & & & & & & & & & & & & & & & & & & & & & & & &                                                                                                                                                                                                                                                                             ",
"                                                                                                                                                                                                                                                                              # # # $ # # # # # # # # # # # # # # # # # # # # # # # # t.t.t.t.t.t.t.8.8.                                                                                                                                                                                                                                                                                                                                                = = = = > = = = = = = & = = & & & & & & & & & & & & & & & & & & & & & & &                                                                                                                                                                                                                                                                               ",
"                                                                                                                                                                                                                                                                                # # $ $ # # # # # # # # # # # # # # # # # # # # # # # # t.t.t.t.t.t.t.;.                                                                                                                                                                                                                                                                                                                                                = = = = = = = = = = = = = = = = & & & & & & & & & & & & & & & & & & & &                                                                                                                                                                                                                                                                                 ",
"                                                                                                                                                                                                                                                                                # # $ $ $ # # # # # # # # # # # # # # # # # # # # # # # # t.t.t.t.t.t.t.                                                                                                                                                                                                                                                                                                                                                = = = = = = = = = = = = = = = = = = & & & & & & & & & & & & & & & & & &                                                                                                                                                                                                                                                                                 ",
"                                                                                                                                                                                                                                                                                  # # # # # # # # # # # # # # # # # # # # # # # # # # # # # t.t.t.t.t.t.                                                                                                                                                                                                                                                                                                                                                = = = = = = > > = = = = = = & & & & = & & & & & & & & & & & & & & & &                                                                                                                                                                                                                                                                                   ",
"                                                                                                                                                                                                                                                                                  # # # # # $ # # # # # # # # # # # # # # # # # # # # # # # # t.t.t.t.t.                                                                                                                                                                                                                                                                                                                                                = = = = = = > > = = = = = = = & & & = = & & & & & & & & & & & & & & &                                                                                                                                                                                                                                                                                   ",
"                                                                                                                                                                                                                                                                                    # # # # # $ # # # # # # # # # # # # # # # # # # # # # # # # t.t.t.t.                                                                                                                                                                                                                                                                                                                                                3 = = = = = = = = = = = = = = > & & & = = & & & & & & & & & & & & &                                                                                                                                                                                                                                                                                     ",
"                                                                                                                                                                                                                                                                                      # # # # # # # # # # # # # # # # # # # # # # # # # # # # # # t.t.t.                                                                                                                                                                                                                                                                                                                                                3 3 = = = = = = = = = = = > > = = & & = = = & & & & & & & & & & &                                                                                                                                                                                                                                                                                       ",
"                                                                                                                                                                                                                                                                                      i.$ # # # # $ # # # # # # # # # # # # # # # # # # # # # # # # t.t.                                                                                                                                                                                                                                                                                                                                                = = = = = = = > > = = = = = = = = = & = = = = & & & & & & & & & &                                                                                                                                                                                                                                                                                       ",
"                                                                                                                                                                                                                                                                                        $ $ # # # # $ # # # # # # # # # # # # # # # # # # # # # # # # #                                                                                                                                                                                                                                                                                                                                                 = 3 = = = = = > > > = = = = = = = = = & = = = = & & & & & & & &                                                                                                                                                                                                                                                                                         ",
"                                                                                                                                                                                                                                                                                        $ $ $ # # # $ $ # # # # # # # # # # # # # # # # # # # # # # # #                                                                                                                                                                                                                                                                                                                                                 3 3 3 3 3 = = > = = = = = = = = = = = = & & = & & & & & & & & &                                                                                                                                                                                                                                                                                         ",
"                                                                                                                                                                                                                                                                                          $ $ $ # # $ $ # # # # # # # # # # # # # # # # # # # # # # #                                                                                                                                                                                                                                                                                                                                                     3 = 3 3 3 = = = = = = = = = = = = = = = & & & & & & & & & &                                                                                                                                                                                                                                                                                           ",
"                                                                                                                                                                                                                                                                                          # # # $ # # $ # # # # # # # # # # # # # # # # # # # # # # #                                                                                                                                                                                                                                                                                                                                                     3 = = = = = = = = = = = = = = = > > = = = & & & & & & & & &                                                                                                                                                                                                                                                                                           ",
"                                                                                                                                                                                                                                                                                            # # $ $ # # # # $ # # # # # # # # # # # # # # # # # # # #                                                                                                                                                                                                                                                                                                                                                     = 3 = = = = = = = = = = = = = = = = = = = > & & & & & & &                                                                                                                                                                                                                                                                                             ",
"                                                                                                                                                                                                                                                                                              # $ $ # # # # # $ # # # # # # # # # # # # # # # # # @                                                                                                                                                                                                                                                                                                                                                         3 3 3 3 = 3 3 = = = = = = = = = = = = = = = = = & & &                                                                                                                                                                                                                                                                                               ",
"                                                                                                                                                                                                                                                                                              # # # # # # # # # $ # # # # # # # # # # # # # # # #                                                                                                                                                                                                                                                                                                                                                             3 3 3 3 3 3 3 = = = = = = = = = = = = = = = = = = =                                                                                                                                                                                                                                                                                               ",
"                                                                                                                                                                                                                                                                                                $ $ $ # $ # # # $ $ # # # # # # # # # # # # # # #                                                                                                                                                                                                                                                                                                                                                             3 3 3 = = = = 3 = = = = = = = = = = = = = = = = >                                                                                                                                                                                                                                                                                                 ",
"                                                                                                                                                                                                                                                                                                  $ $ $ $ $ # # # $ # # # # # # # # # # # # # #                                                                                                                                                                                                                                                                                                                                                                 3 3 3 = = = 3 3 = = = = = = = = = = = = = = =                                                                                                                                                                                                                                                                                                   ",
"                                                                                                                                                                                                                                                                                                    $ $ $ $ # # # # # # # # # # # # # # # # #                                                                                                                                                                                                                                                                                                                                                                     3 3 3 = = = 3 3 = = = = > > = = = = = = >                                                                                                                                                                                                                                                                                                     ",
"                                                                                                                                                                                                                                                                                                      $ $ $ # # # # # # $ # # # # # # # #                                                                                                                                                                                                                                                                                                                                                                             3 3 = 3 3 3 3 = = = = > > = = = = :                                                                                                                                                                                                                                                                                                       ",
"                                                                                                                                                                                                                                                                                                          # # # $ # # # # # # # # # # #                                                                                                                                                                                                                                                                                                                                                                                 2 3 = = = = 3 = = = = = = = =                                                                                                                                                                                                                                                                                                           ",
"                                                                                                                                                                                                                                                                                                              # $ $ # # # # # # #                                                                                                                                                                                                                                                                                                                                                                                             3 = = = 3 = = = : =                                                                                                                                                                                                                                                                                                               ",
"                                                                                                                                                                                                                                                                                                                                                                                                                                                                                                                                                                                                                                                                                                                                                                                                                                                                                                                                                                                                                                                                ",
"                                                                                                                                                                                                                                                                                                                                                                                                                                                                                                                                                                                                                                                                                                                                                                                                                                                                                                                                                                                                                                                                ",
"                                                                                                                                                                                                                                                                                                                                                                                                                                                                                                                                                                                                                                                                                                                                                                                                                                                                                                                                                                                                                                                                ",
"                                                                                                                                                                                                                                                                                                                                                                                                                                                                                                                                                                                                                                                                                                                                                                                                                                                                                                                                                                                                                                                                ",
"                                                                                                                                                                                                                                                                                                                                                                                                                                                                                                                                                                                                                                                                                                                                                                                                                                                                                                                                                                                                                                                                ",
"                                                                                                                                                                                                                                                                                                                                                                                                                                                                                                                                                                                                                                                                                                                                                                                                                                                                                                                                                                                                                                                                ",
"                                                                                                                                                                                                                                                                                                                                                                                                                                                                                                                                                                                                                                                                                                                                                                                                                                                                                                                                                                                                                                                                ",
"                                                                                                                                                                                                                                                                                                                                                                                                                                                                                                                                                                                                                                                                                                                                                                                                                                                                                                                                                                                                                                                                ",
"                                                                                                                                                                                                                                                                                                                                                                                                                                                                                                                                                                                                                                                                                                                                                                                                                                                                                                                                                                                                                                                                ",
"                                                                                                                                                                                                                                                                                                                                                                                                                                                                                                                                                                                                                                                                                                                                                                                                                                                                                                                                                                                                                                                                ",
"                                                                                                                                                                                                                                                                                                                                                                                                                                                                                                                                                                                                                                                                                                                                                                                                                                                                                                                                                                                                                                                                ",
"                                                                                                                                                                                                                                                                                                                                                                                                                                                                                                                                                                                                                                                                                                                                                                                                                                                                                                                                                                                                                                                                ",
"                                                                                                                                                                                                                                                                                                                                                                                                                                                                                                          @.) ) ) ) ) ) ) ) ) ) ) ) ) ) U U U U U U +.                                                                                                                                                                                                                                                                                                                                                                                                                                                                                                          ",
"                                                                                                                                                                                                                                                                                                                                                                                                                                                                         . . . . . . . . . . .)  . . . .) ) ) ) ) ) ) ) ) ) ) ) ) ) ) ) ) ) ) ) U U U U ) U U U U U U U U U U U U U U U                                                                                                                                                                                                                                                                                                                                                                                                                                                                         ",
"                                                                                                                                                                                                                                                                                                                                                                                                                                                    @ 8.;.%.%.%.8. . . . . . . . . . . . . . . .) ) )  . .) ) ) ) ) ) ) ) ) ) ) ) ) ) ) U U ) ) U U U U ) U U U U U U U U U U U U U U U U A A A U U A A A A                                                                                                                                                                                                                                                                                                                                                                                                                                                     ",
"                                                                                                                                                                                                                                                                                                                                                                                                                                    8.8.8.8.8.8.8.8.8.8.8.%.%.%.8.8. . . . . . . . . . . . . . . .) )  . . .) ) ) ) ) ) ) ) ) ) ) ) ) ) ) U ) ) U ) U U ) U U U U U U U U U U U U U U U U U A A U U U A A A A A A A A A A A                                                                                                                                                                                                                                                                                                                                                                                                                                     ",
"                                                                                                                                                                                                                                                                                                                                                                                                                        @ t.t.8.8.8.8.8.8.8.8.8.8.8.8.8.8.8.%.%.8.8.8. . . . . . . . . . . . . . . . . .) ) ) ) ) ) ) ) ) ) ) ) ) ) ) ) ) ) U U U ) ) U ) ) U U U U U U U U U U U U U U U U U A A A U U A A A A A A A A A A A A A A A d A                                                                                                                                                                                                                                                                                                                                                                                                                       ",
"                                                                                                                                                                                                                                                                                                                                                                                                          @ t.# # t.t.t.t.t.t.t.8.8.8.8.8.8.8.8.8.8.8.8.8.8.8.%.8.8.8.8. . . . . . . . . . . . . . . . .) ) )  .) ) ) ) ) ) ) ) ) ) ) ) ) ) ) U ) ) ) ) ) ) U U U U U U U U U U U U U U U U U U A A U U U A A A A A A A A A A A A A A A A d d d d A d                                                                                                                                                                                                                                                                                                                                                                                                           ",
"                                                                                                                                                                                                                                                                                                                                                                                                t.# # # # # # # # # t.t.t.t.t.t.t.8.8.8.8.8.8.8.8.8.8.8.8.8.8.8.%.%.%.8.8. . . . . . . . . . . . . . . .) ) )  . .) ) ) ) ) ) ) ) ) ) ) ) ) ) ) ) ) ) ) ) U U U U U U U U U U U U U U U U U U U U A U A U U A A A A A A A A A A A A A A A A A A d d d d d d d C                                                                                                                                                                                                                                                                                                                                                                                                 ",
"                                                                                                                                                                                                                                                                                                                                                                                      1.# # # # # # # # # # # # # # # t.t.t.t.t.t.t.8.8.8.8.8.8.8.8.8.8.8.8.8.8.8.%.%.8.8.8. . . . . . . . . . . . . . . .)  . . . .) ) ) ) ) ) ) ) ) ) ) ) ) ) ) ) ) ) ) ) U U U ) ) U U U U U U U U U U U U U U U A A U U A A A A A A A A A A A A A A A A A A d d d d d d d d d d d d d                                                                                                                                                                                                                                                                                                                                                                                       ",
"                                                                                                                                                                                                                                                                                                                                                                              # # # # # # # # # # # # # # # # # # # # # t.t.8.8.t.t.t.8.8.8.8.8.8.8.8.8.8.8.8.8.8.8.%.8.%.8.8. . . . . . . . . . . . . . . . .)  . . .) ) ) ) ) ) ) ) ) ) ) ) ) ) ) ) ) ) ) ) U U U ) ) U U U U U U U U U U U U U U U A U U U U A A A A A A A A A A A A A A A A A A d d A d d d d d d d d d d d d                                                                                                                                                                                                                                                                                                                                                                               ",
"                                                                                                                                                                                                                                                                                                                                                                      # # # # # # # # # # # # # # # # # # # # # # # # # # t.t.8.t.t.t.t.8.8.8.8.8.8.8.8.8.8.8.8.8.8.8.%.%.8.8.8. . . . . . . . . . . . . . . .) ) )  . .) ) ) ) ) ) ) ) ) ) ) ) ) ) ) ) ) ) ) ) U U ) ) ) U U U U U U U U U U U U U U U U U U U U A A A A A A A A A A A A A A A A A A d A A d d d d d d d d d d d d d d d b                                                                                                                                                                                                                                                                                                                                                                     ",
"                                                                                                                                                                                                                                                                                                                                                              $ $ # # # # # # # # # # # # # # # # # # # # # # # # # # # # # t.t.8.8.t.t.t.8.8.8.8.8.8.8.8.8.8.8.8.8.8.8.%.%.%.%.8. . . . . . . . . . . . . . . .) ) )  . .) ) ) ) ) ) ) ) ) ) ) ) ) ) ) U U ) ) ) U U U U U U U U U U U U U U U U U U U U A A A A A A A A A A A A A A A A A A A A A A d A A A d d d d d d d d d d d d d d d e d e b                                                                                                                                                                                                                                                                                                                                                             ",
"                                                                                                                                                                                                                                                                                                                                                      $ $ $ $ $ $ $ # # $ # # # # # # # # # # # # # # # # # # # # # # # # # # t.t.8.t.t.t.8.8.8.8.8.8.8.8.8.8.8.8.8.8.8.8.%.%.%.8.8. . . . . . . . . . . . . . . .) ) )  .) ) ) ) ) ) ) ) ) ) ) ) ) ) ) ) U ) ) U ) U U U U U U U U U U U U U U U U U U U U A A A A U A A A A A A A A A A A A A A A A d A d A A d d d d d d d d d d d d d d d d e e e e e                                                                                                                                                                                                                                                                                                                                                       ",
"                                                                                                                                                                                                                                                                                                                                              $ $ $ $ $ $ $ $ $ $ $ $ # $ $ # # # # # # # # # # # # # # # # # # # # # # # # # # t.t.t.t.t.t.t.8.8.8.8.8.8.8.8.8.8.8.8.8.8.8.%.%.8.8.%. . . . . . . . . . . . . . . .) ) )  . .) ) ) ) ) ) ) ) ) ) ) ) ) ) ) U U U ) ) U ) ) U U U U U U U U U U U U U U U U U A A U U U A A A A A A A A A A A A A A A A d d d d A d d d d d d d d d d d d d d d e d e e d e e e e                                                                                                                                                                                                                                                                                                                                               ",
"                                                                                                                                                                                                                                                                                                                                      d.$ $ $ $ $ $ $ $ $ $ $ $ $ $ $ $ $ $ # # # # # # # # # # # # # # # # # # # # # # # # # # # t.t.8.t.t.t.t.8.8.8.8.8.8.8.8.8.8.8.8.8.8.8.%.8.%.%.%. . . . . . . . . . . . . . . .) )  . . .) ) ) ) ) ) ) ) ) ) ) ) ) ) ) U ) ) ) ) ) ) ) ) U U U U U U U U U U U U U U U U A A U U U A A A A A A A A A A A A A A A A d d d A A d d d d d d d d d d d d d d d e e d d d e e e e e c e                                                                                                                                                                                                                                                                                                                                       ",
"                                                                                                                                                                                                                                                                                                                                $ $ $ $ $ $ $ $ $ $ $ $ $ $ $ $ $ $ $ $ $ # # # # $ # # # # # # # # # # # # # # # # # # # # # # # # t.t.8.8.t.t.t.8.8.8.8.8.8.8.8.8.8.8.8.8.8.8.%.%.%.%.8. . . . . . . . . . . . . . . .)  . .)  .) ) ) ) ) ) ) ) ) ) ) ) ) ) ) ) ) ) ) ) U U U U U U U U U U U U U U U U U U U U A A A U U A A A A A A A A A A A A A A A A d d A A A d d d d d d d d d d d d d d d d d e e e e e e e e e e e e                                                                                                                                                                                                                                                                                                                                 ",
"                                                                                                                                                                                                                                                                                                                          d.d.d.$ $ $ $ $ $ $ $ $ $ $ $ $ $ $ $ $ $ $ $ $ $ # # # # $ # # # # # # # # # # # # # # # # # # # # # # # # t.t.t.t.t.t.t.8.8.8.8.8.8.8.8.8.8.8.8.8.8.8.%.%.8.8.8. . . . . . . . . . . . . . . . .) )  . .) ) ) ) ) ) ) ) ) ) ) ) ) ) ) ) ) ) ) ) U U U U U U U U U U U U U U U U U U U U A U U U U A A A A A A A A A A A A A A A A d A A A A d d d d d d d d d d d d d d d d e d e e e e e e e e e e e e c                                                                                                                                                                                                                                                                                                                           ",
"                                                                                                                                                                                                                                                                                                                    d.d.d.d.$ $ d.d.$ $ $ $ $ $ $ $ $ $ $ $ $ $ $ $ $ $ $ $ $ # # # $ $ # # # # # # # # # # # # # # # # # # # # # # # # t.t.t.t.t.t.t.8.8.8.8.8.8.8.8.8.8.8.8.8.8.8.8.8.8.8.%. . . . . . . . . . . . . . . .) )  . . .) ) ) ) ) ) ) ) ) ) ) ) ) ) ) ) ) ) ) ) U ) U ) ) U U U U U U U U U U U U U U U A A A U U A A A A A A A A A A A A A A A A d d A A A d d d d d d d d d d d d d d d d d d d d e e e e e e e e e e e e e                                                                                                                                                                                                                                                                                                                     ",
"                                                                                                                                                                                                                                                                                                              d.d.d.d.d.d.d.d.$ d.d.d.d.$ $ $ $ $ $ $ $ $ $ $ $ $ $ $ # $ $ $ $ # # $ $ $ # # # # # # # # # # # # # # # # # # # # # # # # t.t.t.t.t.t.t.8.8.8.8.8.8.8.8.8.8.8.8.8.8.8.%.%.%.8.8. . . . . . . . . . . . . . . .)  . . . .) ) ) ) ) ) ) ) ) ) ) ) ) ) ) ) ) U U U ) ) ) ) ) U U U U U U U U U U U U U U U A U U U U A A A A A A A A A A A A A A A A d d d A A d d d d d d d d d d d d d d d d d d d d e e e e e e e e e e e e e e e                                                                                                                                                                                                                                                                                                               ",
"                                                                                                                                                                                                                                                                                                        d.d.d.d.d.d.d.d.d.d.d.d.d.d.$ $ $ $ $ $ $ $ $ $ $ $ $ $ $ $ $ $ $ $ $ $ $ # # # # # # # # # # # # # # # # # # # # # # # # # # # # # t.t.8.8.t.t.t.8.8.8.8.8.8.8.8.8.8.8.8.8.8.8.%.%.%.8.8. . . . . . . . . . . . . . . .) ) )  . .) ) ) ) ) ) ) ) ) ) ) ) ) ) ) U U ) ) ) U U U ) ) U U U U U U U U U U U U U U U A A A U U A A A A A A A A A A A A A A A A d d d d d d d d d d d d d d d d d d d d e e d d d e e e e e e e e e e e e e e e e 3                                                                                                                                                                                                                                                                                                         ",
"                                                                                                                                                                                                                                                                                                  b.d.d.d.d.d.d.d.d.d.d.d.d.d.d.d.d.$ $ $ d.$ $ $ $ $ $ $ $ $ $ $ $ $ $ $ $ $ $ $ $ # # # # $ # # # # # # # # # # # # # # # # # # # # # # # # t.t.8.8.t.t.t.8.8.8.8.8.8.8.8.8.8.8.8.8.8.8.%.%.%.8.8. . . . . . . . . . . . . . . .) ) ) ) ) ) ) ) ) ) ) ) ) ) ) ) ) ) ) ) U ) ) ) ) U U U U ) U U U U U U U U U U U U U U U A A A A U A A A A A A A A A A A A A A A A A d d d d d d d d d d d d d d d d d d d e d e d d e e e e e e e e e e e e e e e e e e c                                                                                                                                                                                                                                                                                                   ",
"                                                                                                                                                                                                                                                                                              d.d.d.d.d.d.d.d.d.d.d.d.d.d.d.d.d.d.d.$ $ d.d.d.$ $ $ $ $ $ $ $ $ $ $ $ $ $ $ $ $ $ $ $ # # # # $ # # # # # # # # # # # # # # # # # # # # # # # # t.t.t.t.t.t.t.8.8.8.8.8.8.8.8.8.8.8.8.8.8.8.%.%.8.8.8. . . . . . . . . . . . . . . .) ) )  . .) ) ) ) ) ) ) ) ) ) ) ) ) ) ) U U ) U ) U U U U U U U U U U U U U U U U U U U U A A A A A A A A A A A A A A A A A A A A A A A d A d d d d d d d d d d d d d d d d e e e e d e e e e e e e e e e e e e e e e e e e 3 3                                                                                                                                                                                                                                                                                             ",
"                                                                                                                                                                                                                                                                                        b.b.b.d.d.d.d.d.d.d.d.d.d.d.d.d.d.d.d.d.d.d.d.$ d.d.d.d.$ $ $ $ $ $ $ $ $ $ $ $ $ $ $ $ $ $ $ $ # # # # # # # # # # # # # # # # # # # # # # # # # # # # # t.t.t.t.t.8.8.8.8.8.8.8.8.8.8.8.8.8.8.8.8.8.%.%.%.8.8. . . . . . . . . . . . . . . .) )  . . .) ) ) ) ) ) ) ) ) ) ) ) ) ) ) U ) U ) ) U U U U ) U U U U U U U U U U U U U U U A A A A U A A A A A A A A A A A A A A A A A A A d d d d d d d d d d d d d d d d d e e e d d e e e e e e e e e e e e e e e e e e e 3 3 3                                                                                                                                                                                                                                                                                         ",
"                                                                                                                                                                                                                                                                                  b.b.b.b.b.b.b.d.d.d.b.b.d.d.d.d.d.d.d.d.d.d.d.d.d.d.d.d.d.d.d.d.$ $ $ $ $ $ $ $ $ $ $ $ $ $ $ $ # # $ # # # # # $ # # # # # # # # # # # # # # # # # # # # # # # # t.t.t.8.8.8.t.8.8.8.8.8.8.8.8.8.8.8.8.8.8.8.%.8.8.8.8. . . . . . . . . . . . . . . .) ) )  . .) ) ) ) ) ) ) ) ) ) ) ) ) ) ) ) ) U U U U U U ) ) U U U U U U U U U U U U U U U A U A U U A A A A A A A A A A A A A A A A A A d d d d d d d d d d d d d d d d d d e e d d e e e e e e e e e e e e e e e e e e e e c 3 3 3 3                                                                                                                                                                                                                                                                                   ",
"                                                                                                                                                                                                                                                                              b.b.b.b.b.b.b.b.b.b.d.d.b.b.b.d.d.d.d.d.d.d.d.d.d.d.d.d.d.d.d.d.d.d.d.$ $ $ $ $ $ $ $ $ $ $ $ $ $ $ $ $ $ $ # # # # # $ # # # # # # # # # # # # # # # # # # # # # # # # t.t.t.8.8.t.t.8.8.8.8.8.8.8.8.8.8.8.8.8.8.8.%.%.%.8.8. . . . . . . . . . . . . . . .) )  . . .) ) ) ) ) ) ) ) ) ) ) ) ) ) ) ) U ) ) U U U ) ) ) U U U U U U U U U U U U U U U U U U U U A A A A A A A A A A A A A A A A A A A d d d d d d d d d d d d d d d d d e d e e e e e e e e e e e e e e e e e e e e e e c 3 3 3 3 3                                                                                                                                                                                                                                                                               ",
"                                                                                                                                                                                                                                                                        b.b.b.b.b.b.b.b.b.b.b.b.b.b.b.b.b.b.b.d.d.d.d.d.d.d.d.d.d.d.d.d.d.d.$ $ d.d.d.$ $ $ $ $ $ $ $ $ $ $ $ $ $ $ $ $ $ $ $ # # # $ $ # # # # # # # # # # # # # # # # # # # # # # # # t.t.t.t.t.t.t.8.8.8.8.8.8.8.8.8.8.8.8.8.8.8.%.%.8.8.8. . . . . . . . . . . . . . . . . .)  . .) ) ) ) ) ) ) ) ) ) ) ) ) ) ) ) ) ) ) ) U U U ) U U U U U U U U U U U U U U U U A U A U U A A A A A A A A A A A A A A A A A A A A A d d d d d d d d d d d d d d d d d e e d e e e e e e e e e e e e e e e e e e e c 3 3 3 3 3 3 3                                                                                                                                                                                                                                                                         ",
"                                                                                                                                                                                                                                                                    b.b.b.b.b.b.b.b.b.b.b.b.b.b.b.b.b.d.d.b.b.b.d.d.d.d.d.d.d.d.d.d.d.d.d.d.d.$ d.d.d.d.$ $ $ $ $ $ $ $ $ $ $ $ $ $ $ $ $ $ $ $ # # $ $ # # # # # # # # # # # # # # # # # # # # # # # # # t.t.t.t.t.t.t.8.8.8.8.8.8.8.8.8.8.8.8.8.8.8.%.8.8.8.8. . . . . . . . . . . . . . . .) )  . . .) ) ) ) ) ) ) ) ) ) ) ) ) ) ) U ) ) ) ) U U U U ) U U U U U U U U U U U U U U U A A U U U A A A A A A A A A A A A A A A A A A A A A d d d d d d d d d d d d d d d d e e d d e e e e e e e e e e e e e e e e e e e 3 3 3 3 3 3 3 3 e                                                                                                                                                                                                                                                                     ",
"                                                                                                                                                                                                                                                                b.b.b.b.B.b.b.b.b.b.b.b.b.b.b.b.b.b.b.b.d.d.b.b.b.d.d.d.d.d.d.d.d.d.d.d.d.d.d.d.$ $ d.d.d.$ $ $ $ $ $ $ $ $ $ $ $ $ $ $ $ $ $ $ $ # # # # # # # # # # # # # # # # # # # # # # # # # # # # # t.t.t.t.t.t.8.8.8.8.8.8.8.8.8.8.8.8.8.8.8.8.8.%.%.8.8. . . . . . . . . . . . . . . .) ) ) )  .) ) ) ) ) ) ) ) ) ) ) ) ) ) ) ) ) U U ) U U U U U U U U U U U U U U U U U U U U A A A U U A A A A A A A A A A A A A A A A d d d d d d d d d d d d d d d d d d d d e e d d d e e e e e e e e e e e e e e e e e e e 3 3 3 3 3 3 3 3 3 3                                                                                                                                                                                                                                                                 ",
"                                                                                                                                                                                                                                                          b.B.B.B.b.b.b.B.B.b.b.b.b.b.b.b.b.b.b.b.b.b.b.b.d.d.d.b.d.d.d.d.d.d.d.d.d.d.d.d.d.d.d.d.$ d.d.d.d.$ $ $ $ $ $ $ $ $ $ $ $ $ $ $ $ $ $ $ $ # # # # # # # # # # # # # # # # # # # # # # # # # # # # # t.t.t.t.t.8.8.8.8.8.8.8.8.8.8.8.8.8.8.8.8.8.8.%.%.%.%. . . . . . . . . . . . . . . .) ) )  . .) ) ) ) ) ) ) ) ) ) ) ) ) ) ) ) U U ) ) U U U U U U U U U U U U U U U U U U U U A A U U U A A A A A A A A A A A A A A A A d d d d d d d d d d d d d d d d d d d d e d d d d e e e e e e e e e e e e e e e e e e e 3 3 3 3 3 3 3 3 3 3 3 e                                                                                                                                                                                                                                                           ",
"                                                                                                                                                                                                                                                      B.B.B.B.B.B.B.b.b.B.B.B.b.b.b.b.b.b.b.b.b.b.b.b.b.b.b.d.d.d.d.b.d.d.d.d.d.d.d.d.d.d.d.d.d.d.d.$ $ $ $ d.$ $ $ $ $ $ $ $ $ $ $ $ $ $ $ $ $ $ $ $ # $ $ # # # # # # # # # # # # # # # # # # # # # # # # # # t.t.t.t.t.t.t.8.8.8.8.8.8.8.8.8.8.8.8.8.8.8.%.%.%.%.%. . . . . . . . . . . . . . . .) )  . .) ) ) ) ) ) ) ) ) ) ) ) ) ) ) ) U U ) ) ) U ) ) U U U U U U U U U U U U U U U U U A A U A A A A A A A A A A A A A A A A A A A A d A A d d d d d d d d d d d d d d d e e d d d e e e e e e e e e e e e e e e e e e e c 3 3 3 3 3 3 3 3 3 3 3 3                                                                                                                                                                                                                                                       ",
"                                                                                                                                                                                                                                                  B.B.B.B.B.B.B.B.B.B.b.b.b.b.B.b.b.b.b.b.b.b.b.b.b.b.b.b.b.b.d.d.b.b.b.d.d.d.d.d.d.d.d.d.d.d.d.d.d.d.$ $ $ $ d.$ $ $ $ $ $ $ $ $ $ $ $ $ $ $ $ $ $ $ $ $ $ $ # # # # # # # # # # # # # # # # # # # # # # # # # # t.t.t.t.8.8.t.8.8.8.8.8.8.8.8.8.8.8.8.8.8.8.%.%.%.8.8. . . . . . . . . . . . . . . .)  . . .) ) ) ) ) ) ) ) ) ) ) ) ) ) ) ) U ) ) ) ) ) ) ) ) U U U U U U U U U U U U U U U U A A A A U A A A A A A A A A A A A A A A A A A A A d d d d d d d d d d d d d d d d e e e d d e e e e e e e e e e e e e e e e e e e c 3 3 3 3 3 3 3 3 3 3 3 3 2                                                                                                                                                                                                                                                   ",
"                                                                                                                                                                                                                                              B.B.B.B.B.B.B.B.B.B.B.B.B.b.b.B.B.B.b.b.b.b.b.b.b.b.b.b.b.b.b.b.b.d.b.b.b.d.d.d.d.d.d.d.d.d.d.d.d.d.d.d.d.d.d.d.d.d.$ $ $ $ $ $ $ $ $ $ $ $ $ $ $ # $ $ $ $ # # # # $ # # # # # # # # # # # # # # # # # # # # # # # # t.t.t.t.t.t.t.8.8.8.8.8.8.8.8.8.8.8.8.8.8.8.8.8.8.8.8. . . . . . . . . . . . . . . . . .) )  .) ) ) ) ) ) ) ) ) ) ) ) ) ) ) ) ) ) ) ) U U U U U U U U U U U U U U U U U U U U A A A U U A A A A A A A A A A A A A A A A A A d d d d d d d d d d d d d d d d d d e e e e d e e e e e e e e e e e e e e e e e e e 3 3 3 3 3 3 3 3 3 3 3 3 3 3 3                                                                                                                                                                                                                                               ",
"                                                                                                                                                                                                                                          B.B.B.B.B.B.B.B.B.B.B.B.B.B.B.B.b.b.b.B.B.b.b.b.b.b.b.b.b.b.b.b.b.b.b.b.b.b.b.d.d.d.d.d.d.d.d.d.d.d.d.d.d.d.d.d.d.d.d.d.d.$ $ $ $ $ $ $ $ $ $ $ $ $ $ $ $ $ $ $ $ # # $ # $ # # # # # # # # # # # # # # # # # # # # # # # # t.t.t.8.t.t.t.8.8.8.8.8.8.8.8.8.8.8.8.8.8.8.8.8.8.8.8. . . . . . . . . . . . . . . . .) )  . .) ) ) ) ) ) ) ) ) ) ) ) ) ) ) ) ) ) ) ) U U U U U U U U U U U U U U U U U U U U A A U U A A A A A A A A A A A A A A A A A A d d d d d d d d d d d d d d d d d d d d e e d d e e e e e e e e e e e e e e e e e e e 3 3 3 3 3 3 3 3 3 3 3 3 3 3 3 3                                                                                                                                                                                                                                           ",
"                                                                                                                                                                                                                                      C.B.B.B.B.B.B.B.B.B.B.B.B.B.B.B.B.B.B.b.b.B.B.B.b.b.b.b.b.b.b.b.b.b.b.b.b.b.b.d.d.d.b.b.d.d.d.d.d.d.d.d.d.d.d.d.d.d.d.d.d.d.d.d.$ $ $ $ $ $ $ $ $ $ $ $ $ $ $ $ $ $ $ $ # $ $ # # # # # # # # # # # # # # # # # # # # # # # # # # t.t.t.t.t.t.t.8.# 8.8.# # 8.@ 8.# @                                          .)  . .) )  . . .) ) ) ) ) ) ) ) ) ) ) ) ) ) ) ) ) ) ) ) U ) ) ) ) U U U U U U U U U U U U U U U U U U A A A A A A A A A A A A A A A A A A A A A A A d d d d d d d d d d d d d d d e e e d d e e e e e e e e e e e e e e e e e e e 3 3 3 3 3 3 3 3 3 3 3 3 3 3 3 3 e                                                                                                                                                                                                                                       ",
"                                                                                                                                                                                                                                  C.C.B.B.B.B.B.B.B.B.B.B.B.B.B.B.B.B.B.B.B.B.b.b.B.B.B.b.b.b.b.b.b.b.b.b.b.b.b.b.b.b.d.d.b.b.b.d.d.d.d.d.d.d.d.d.d.d.d.d.d.d.d.d.d.d.d.$ $ $ $ $ $ $ $ $ $ $ $ $ $ $ $ $ $ $ $ $ # # # # # # # # # # # # # # # # # # # # # # # # # @ # 2.                                                                                                            ) ) ) ) ) ) ) ) ) ) U U U ) ) ) ) ) U U U U U U U U U U U U U U U U U A A U A A A A A A A A A A A A A A A A A A A A A d d d d d d d d d d d d d d d e e d d d e e e e e e e e e e e e e e e e e e e 3 3 3 3 3 3 3 3 3 3 3 3 3 3 3 3 3 =                                                                                                                                                                                                                                   ",
"                                                                                                                                                                                                                              C.C.C.C.C.C.C.C.C.B.B.B.B.B.B.B.B.B.B.B.B.B.B.B.B.b.b.B.B.B.b.b.b.b.b.b.b.b.b.b.b.b.b.b.b.d.d.d.d.b.d.d.d.d.d.d.d.d.d.d.d.d.d.d.d.$ $ $ d.d.$ $ $ $ $ $ $ $ $ $ $ $ $ $ $ # $ $ $ $ # # # # # # # # # # # # # # # # # # #                                                                                                                                                 U ) ) ) ) U U U U U U U U U U U U U U U U U U U U A A A U U A A A A A A A A A A A A A A A A d d d d A d d d d d d d d d d d d d d d e e d d e e e e e e e e e e e e e e e e e e e e 3 3 3 3 3 3 3 3 3 3 3 3 3 3 3 3 = = :                                                                                                                                                                                                                               ",
"                                                                                                                                                                                                                          C.C.C.C.C.C.C.C.C.C.C.C.C.B.B.B.B.B.B.B.B.B.B.B.B.B.B.B.B.b.b.b.b.b.b.b.b.b.b.b.b.b.b.b.b.b.b.b.d.d.d.b.b.d.d.d.d.d.d.d.d.d.d.d.d.d.d.d.$ d.d.$ d.$ $ $ $ $ $ $ $ $ $ $ $ $ $ $ # $ $ $ $ # # # # # # # # # #                                                                                                                                                                                 ) ) U U U U U U U U U U U U U U U U A A U U U A A A A A A A A A A A A A A A A d d d A A d d d d d d d d d d d d d d d e d d e e e e e e e e e e e e e e e e e e e e e 3 3 3 3 3 3 3 3 3 3 3 3 3 3 3 3 = = = =                                                                                                                                                                                                                           ",
"                                                                                                                                                                                                                      C.C.C.C.C.C.C.C.C.C.C.C.C.C.C.B.B.B.B.B.B.B.B.B.B.B.B.B.B.B.B.b.b.b.B.B.b.b.b.b.b.b.b.b.b.b.b.b.b.b.b.d.d.b.b.b.d.d.d.d.d.d.d.d.d.d.d.d.d.d.d.$ $ $ d.d.$ $ $ $ $ $ $ $ $ $ $ $ $ $ $ # # $ $ $ # # #                                                                                                                                                                                                         U U U U U U U U U U U U U A A A U U A A A A A A A A A A A A A A A A d d d A A d d d d d d d d d d d d d d d d d d e d e e e e e e e e e e e e e e e e e e e c 3 3 3 3 3 3 3 3 3 3 3 3 3 3 3 = = = = 2                                                                                                                                                                                                                       ",
"                                                                                                                                                                                                                  C.C.C.C.C.C.C.C.C.C.C.C.C.C.C.C.B.B.B.B.B.B.B.B.B.B.B.B.B.B.B.B.B.B.b.B.B.B.B.b.b.b.b.b.b.b.b.b.b.b.b.b.b.b.d.d.b.b.b.d.d.d.d.d.d.d.d.d.d.d.d.d.d.d.$ d.d.d.d.$ $ $ $ $ $ $ $ $ $ $ $ $ $ $ # p.                                                                                                                                                                                                                            U U U U U U U U U A A U U U A A A A A A A A A A A A A A A A d A A A A d d d d d d d d d d d d d d d d d e d d e e e e e e e e e e e e e e e e e e e c 3 3 3 3 3 3 3 3 3 3 3 3 3 3 3 = = = = 3 >                                                                                                                                                                                                                   ",
"                                                                                                                                                                                                              C.C.C.C.C.C.C.C.C.C.C.C.C.C.C.C.C.C.C.B.B.C.B.B.B.B.B.B.B.B.B.B.B.B.B.B.B.B.B.B.b.B.b.b.b.b.b.b.b.b.b.b.b.b.b.b.b.d.b.b.b.b.d.d.d.d.d.d.d.d.d.d.d.d.d.d.d.$ $ d.d.d.$ $ $ $ $ $ $ $ $ $                                                                                                                                                                                                                                                     U U U U A U A U U A A A A A A A A A A A A A A A A d d A A A d d d d d d d d d d d d d d d e e d d d e e e e e e e e e e e e e e e e e e e 3 3 3 3 3 3 3 3 3 3 3 3 3 3 3 3 = = = = 3 = =                                                                                                                                                                                                               ",
"                                                                                                                                                                                                          C.Z.C.C.C.C.C.C.C.C.C.C.C.C.C.C.C.C.C.C.C.B.C.C.C.B.B.B.B.B.B.B.B.B.B.B.B.B.B.B.B.b.b.B.B.b.b.b.b.b.b.b.b.b.b.b.b.b.b.b.b.d.d.b.b.d.d.d.d.d.d.d.d.d.d.d.d.d.d.d.$ d.d.d.d.$ $ $ $ $                                                                                                                                                                                                                                                                     U A A U U U A A A A A A A A A A A A A A A A d A A A A d d d d d d d d d d d d d d d e d d d d e e e e e e e e e e e e e e e e e e e 3 3 3 3 3 3 3 3 3 3 3 3 3 3 3 3 3 = = 3 3 = = >                                                                                                                                                                                                           ",
"                                                                                                                                                                                                        Z.Z.C.C.C.Z.Z.C.C.C.C.C.C.C.C.C.C.C.C.C.C.C.C.C.C.C.C.B.B.B.B.B.B.B.B.B.B.B.B.B.B.B.b.b.B.B.B.b.b.b.b.b.b.b.b.b.b.b.b.b.b.b.d.d.b.b.b.d.d.d.d.d.d.d.d.d.d.d.d.d.d.d.d.d.d.d.d.                                                                                                                                                                                                                                                                                    U A U A A A A A A A A A A A A A A A A d d A A A d d d d d d d d d d d d d d d e e d d d e e e e e e e e e e e e e e e e e e e 3 3 3 3 3 3 3 3 3 3 3 3 3 3 3 3 = = = 3 = = = =                                                                                                                                                                                                         ",
"                                                                                                                                                                                                    Z.Z.Z.Z.Z.C.C.Z.Z.Z.C.C.C.C.C.C.C.C.C.C.C.C.C.C.C.C.C.C.C.C.B.B.B.B.B.B.B.B.B.B.B.B.B.B.B.b.B.B.B.B.b.b.b.b.b.b.b.b.b.b.b.b.b.b.b.d.b.b.b.b.d.d.d.d.d.d.d.d.d.d.d.d.d.d.d.                                                                                                                                                                                                                                                                                                    A A A A A A A A A A A A A A A A d d d A A d d d d d d d d d d d d d d d e e e d d e e e e e e e e e e e e e e e e e e e 3 3 3 3 3 3 3 3 3 3 3 3 3 3 3 3 = 3 3 = = = = = =                                                                                                                                                                                                     ",
"                                                                                                                                                                                                Z.Z.Z.Z.Z.Z.C.C.C.C.C.C.Z.C.C.C.C.C.C.C.C.C.C.C.C.C.C.C.C.C.C.C.C.B.B.B.B.B.B.B.B.B.B.B.B.B.B.B.b.b.b.b.B.b.b.b.b.b.b.b.b.b.b.b.b.b.b.b.d.d.d.b.b.d.d.d.d.d.d.d.d.d.d.                                                                                                                                                                                                                                                                                                                    A A A A A A A A A A A A A d d d d d d d d d d d d d d d d d d d d e e e e d e e e e e e e e e e e e e e e e e e e 3 3 3 3 3 3 3 3 3 3 3 3 3 3 3 3 = = 3 3 3 = = = = >                                                                                                                                                                                                 ",
"                                                                                                                                                                                              Z.Z.Z.Z.Z.Z.Z.C.C.C.C.C.C.Z.Z.C.C.C.C.C.C.C.C.C.C.C.C.C.C.C.C.C.C.C.C.B.B.B.B.B.B.B.B.B.B.B.B.B.B.B.b.b.b.B.B.b.b.b.b.b.b.b.b.b.b.b.b.b.b.b.d.d.d.b.d.d.d.d.d.d.                                                                                                                                                                                                                                                                                                                                    A A A A A A A A A A d d d d d d d d d d d d d d d d d d d d e e e d d e e e e e e e e e e e e e e e e e e e 3 3 3 3 3 3 3 3 3 3 3 3 3 3 3 3 = = 3 3 3 = = = = =                                                                                                                                                                                               ",
"                                                                                                                                                                                          Z.Z.Z.Z.Z.Z.Z.Z.Z.C.C.C.Z.Z.C.Z.Z.C.C.C.C.C.C.C.C.C.C.C.C.C.C.C.C.C.C.C.C.C.B.B.B.B.B.B.B.B.B.B.B.B.B.B.B.b.b.B.B.B.b.b.b.b.b.b.b.b.b.b.b.b.b.b.b.d.d.d.b.b.d.                                                                                                                                                                                                                                                                                                                                                A A A A A A A A A A d A A d d d d d d d d d d d d d d d e e e d d e e e e e e e e e e e e e e e e e e e c 3 3 3 3 3 3 3 3 3 3 3 3 3 3 3 = = 3 3 = = = = = = =                                                                                                                                                                                           ",
"                                                                                                                                                                                      Z.Z.Z.Z.Z.Z.Z.Z.Z.Z.Z.C.C.Z.Z.Z.Z.Z.Z.C.C.C.C.C.C.C.C.C.C.C.C.C.C.C.C.C.C.C.C.C.C.B.B.B.B.B.B.B.B.B.B.B.B.B.B.B.b.b.b.b.B.b.b.b.b.b.b.b.b.b.b.b.b.b.b.b.b.d.                                                                                                                                                                                                                                                                                                                                                            A A A A A A A A A A A d d d d d d d d d d d d d d d e d d d d e e e e e e e e e e e e e e e e e e e c 3 3 3 3 3 3 3 3 3 3 3 3 3 3 3 = 3 3 3 3 = = = = = = =                                                                                                                                                                                       ",
"                                                                                                                                                                                    Z.Z.Z.Z.Z.Z.Z.Z.Z.Z.Z.Z.Z.C.Z.Z.Z.Z.C.C.C.C.Z.C.C.C.C.C.C.C.C.C.C.C.C.C.C.C.B.B.C.C.C.B.B.B.B.B.B.B.B.B.B.B.B.B.B.B.b.b.B.B.b.b.b.b.b.b.b.b.b.b.b.b.d.                                                                                                                                                                                                                                                                                                                                                                            A A A A A d d d d d d d d d d d d d d d d d d d d d d d e e e e e e e e e e e e e e e e e e e c 3 3 3 3 3 3 3 3 3 3 3 3 3 3 3 = = 3 3 3 = = = = = = =                                                                                                                                                                                     ",
"                                                                                                                                                                                Z.Z.Z.Z.Z.Z.Z.Z.Z.Z.Z.Z.Z.Z.Z.C.Z.Z.Z.Z.C.C.C.C.Z.Z.C.C.C.C.C.C.C.C.C.C.C.C.C.C.C.B.C.C.C.C.B.B.B.B.B.B.B.B.B.B.B.B.B.B.B.b.b.b.b.b.b.b.b.b.b.b.b.b.                                                                                                                                                                                8.8.8.t.t.;.;.8.8.8.8.8.                                                                                                                                                                                A A d d d d d d d d d d d d d d d d d d d d d d d d e e e e e e e e e e e e e e e e e e e c 3 3 3 3 3 3 3 3 3 3 3 3 3 3 3 = 3 = 3 3 = = = = = = = =                                                                                                                                                                                 ",
"                                                                                                                                                                              Z.Z.Z.Z.Z.Z.Z.Z.Z.Z.Z.Z.Z.Z.Z.Z.Z.C.C.Z.Z.Z.C.C.Z.C.Z.Z.C.C.C.C.C.C.C.C.C.C.C.C.C.C.C.C.C.C.C.C.B.B.B.B.B.B.B.B.B.B.B.B.B.B.B.b.b.b.B.B.b.b.b.B.b.                                                                                                                                                                  @ @ # t.t.t.t.t.t.t.8.8.8.8.8.8.8.8.8.8.8.8.8.8.8.8.8.%.&.+                                                                                                                                                                   A A A A A d d d d d d d d d d d d d d d e e e e d e e e e e e e e e e e e e e e e e e e 3 3 3 3 3 3 3 3 3 3 3 3 3 3 3 3 = = = = 3 = = = = = = = =                                                                                                                                                                               ",
"                                                                                                                                                                          Z.Z.Z.Z.Z.Z.Z.Z.Z.Z.Z.Z.Z.Z.Z.Z.Z.Z.Z.Z.C.Z.Z.Z.Z.Z.Z.C.Z.Z.Z.C.C.C.C.C.C.C.C.C.C.C.C.C.C.C.C.C.C.C.C.B.B.B.B.B.B.B.B.B.B.B.B.B.B.B.b.b.b.B.B.B.                                                                                                                                                            # # # # # # # # # # t.t.t.t.t.t.t.8.8.8.8.8.8.8.8.8.8.8.8.8.8.8.8.%.%.8.8. . . . .;.                                                                                                                                                            A A A d d d d d d d d d d d d d d d e e e d d e e e e e e e e e e e e e e e e e e e 3 3 3 3 3 3 3 3 3 3 3 3 3 3 3 3 = = = 3 3 = = = = = = = = =                                                                                                                                                                           ",
"                                                                                                                                                                        Z.Z.Z.Z.Z.Z.Z.Z.Z.Z.Z.Z.Z.Z.Z.Z.Z.Z.Z.Z.Z.Z.C.C.C.C.Z.Z.C.C.Z.C.C.C.C.C.C.C.C.C.C.C.C.C.C.C.C.C.C.C.C.C.B.B.B.B.B.B.B.B.B.B.B.B.B.B.B.B.b.B.                                                                                                                                                          # # # # # # # # # # # # # # # t.t.t.t.8.8.8.8.8.8.8.8.8.8.8.8.8.8.8.8.8.8.%.%.%.%.8. . . . . . .%. .                                                                                                                                                          d d d d d d d d d d d d d d d d e e e e e e e e e e e e e e e e e e e e e e e e 3 3 3 3 3 3 3 3 3 3 3 3 3 3 3 3 = = 3 3 3 = = = = = = = = =                                                                                                                                                                         ",
"                                                                                                                                                                    Z.Z.Z.Z.Z.Z.Z.Z.Z.Z.Z.Z.Z.Z.Z.Z.Z.Z.Z.Z.Z.Z.Z.Z.Z.C.C.C.Z.Z.Z.Z.C.C.C.C.C.C.C.C.C.C.C.C.C.C.C.C.C.C.C.C.C.C.C.C.B.B.B.B.B.B.B.B.B.B.B.B.B.                                                                                                                                                          # # # # # # # # # # # # # # # # # # # t.t.t.8.8.8.t.8.8.8.8.8.8.8.8.8.8.8.8.8.8.8.%.%.%.8.8. . . . . . . . . . .                                                                                                                                                          b d d d d d d d d d d d d d e e e e e e e e e e e e e e e e e e e e e e e e 3 3 3 3 3 3 3 3 3 3 3 3 3 3 3 3 = 3 3 3 3 = = = = = = = = = =                                                                                                                                                                     ",
"                                                                                                                                                                  Z.Z.Z.Z.Z.Z.Z.Z.Z.Z.Z.Z.Z.Z.Z.Z.Z.Z.Z.Z.Z.Z.Z.Z.Z.Z.Z.C.C.Z.Z.Z.Z.C.C.Z.Z.Z.C.C.C.C.C.C.C.C.C.C.C.C.C.C.C.C.C.C.C.B.B.B.B.B.B.B.B.B.B.B.                                                                                                                                                        # # # # # # # # # # # # # # # # # # # # # # # t.t.t.8.t.t.t.8.8.8.8.8.8.8.8.8.8.8.8.8.8.8.%.%.8.8.8. . . . . . . . . . . . .                                                                                                                                                        d d d d d d d d d d d d d d d e d d e e e e e e e e e e e e e e e e e e e c 3 3 3 3 3 3 3 3 3 3 3 3 3 3 3 = = 3 3 3 = = = = = = = = = =                                                                                                                                                                   ",
"                                                                                                                                                              Z.Z.Z.Z.Z.Z.Z.Z.Z.Z.Z.Z.Z.Z.Z.Z.Z.Z.Z.Z.Z.Z.Z.Z.Z.Z.Z.Z.Z.Z.C.Z.Z.Z.Z.Z.C.Z.Z.Z.Z.C.C.C.C.C.C.C.C.C.C.C.C.C.C.C.C.C.B.B.B.B.B.B.B.B.B.                                                                                                                                                        # # # # # # # # # # # # # # # # # # # # # # # # # # # t.t.t.t.t.t.t.8.8.8.8.8.8.8.8.8.8.8.8.8.8.8.%.%.8.8.8. . . . . . . . . . . . . . .                                                                                                                                                        d d d d d d d d d d d d d d d d e e e e e e e e e e e e e e e e e e e c 3 3 3 3 3 3 3 3 3 3 3 3 3 3 3 = = = 3 3 = = = = = = = = = = =                                                                                                                                                               ",
"                                                                                                                                                            Z.Z.Z.Z.Z.Z.Z.Z.Z.Z.Z.Z.Z.Z.Z.Z.Z.Z.Z.Z.Z.Z.Z.Z.Z.Z.Z.Z.Z.Z.Z.Z.C.C.Z.Z.Z.Z.Z.C.C.C.Z.C.C.C.C.C.C.C.C.C.C.C.C.C.C.C.C.C.B.B.B.B.B.B.                                                                                                                                                      $ # # # # # # # # # # # # # # # # # # # # # # # # # # # # # # t.t.t.t.t.t.t.8.8.8.8.8.8.8.8.8.8.8.8.8.8.8.%.%.8.8.8. . . . . . . . . . . . . . . .)                                                                                                                                                       d d d d d d d d d d e e e e d e e e e e e e e e e e e e e e e e e e c 3 3 3 3 3 3 3 3 3 3 3 3 3 3 3 = = = = 3 = = = = = = = = = = =                                                                                                                                                             ",
"                                                                                                                                                        Z.Z.Z.Z.Z.Z.Z.Z.Z.Z.Z.Z.Z.Z.Z.Z.Z.Z.Z.Z.Z.Z.Z.Z.Z.Z.Z.Z.Z.Z.Z.Z.Z.Z.Z.C.Z.Z.Z.Z.Z.Z.C.C.Z.Z.C.C.C.C.Z.C.C.C.C.C.C.C.C.C.C.C.B.C.C.C.                                                                                                                                                      $ # $ $ # # # # # # # # # # # # # # # # # # # # # # # # # # # # # # t.t.t.8.t.t.t.8.8.8.8.8.8.8.8.8.8.8.8.8.8.8.8.%.%.%.%. . . . . . . . . . . . . . . . . .                                                                                                                                                      d d d d d d d d d e e e d d e e e e e e e e e e e e e e e e e e e c 3 3 3 3 3 3 3 3 3 3 3 3 3 3 3 3 = = 3 3 = = = = = = = = = = = =                                                                                                                                                         ",
"                                                                                                                                                      A.A.Z.Z.Z.Z.A.Z.Z.Z.Z.Z.Z.Z.Z.Z.Z.Z.Z.Z.Z.Z.Z.Z.Z.Z.Z.Z.Z.Z.Z.Z.Z.Z.Z.Z.Z.Z.C.Z.Z.Z.C.C.C.Z.Z.Z.C.C.C.C.C.C.C.C.C.C.C.C.C.C.C.C.                                                                                                                                                        $ $ $ $ $ $ $ $ # # # # # # # # # # # # # # # # # # # # # # # # # # # # # t.t.8.8.t.t.t.8.8.8.8.8.8.8.8.8.8.8.8.8.8.8.%.%.%.8.8. . . . . . . . . . . . . . . . . .)                                                                                                                                                         d d d d d d d e e e d d e e e e e e e e e e e e e e e e e e e c 3 3 3 3 3 3 3 3 3 3 3 3 3 3 3 = = = 3 3 = = = = > > = = = = = =                                                                                                                                                       ",
"                                                                                                                                                    A.A.Z.A.Z.Z.Z.A.A.Z.Z.Z.Z.Z.Z.Z.Z.Z.Z.Z.Z.Z.Z.Z.Z.Z.Z.Z.Z.Z.Z.Z.Z.Z.Z.Z.Z.Z.Z.C.Z.Z.Z.C.C.C.Z.Z.Z.Z.C.C.C.C.C.C.C.C.C.C.C.C.C.                                                                                                                                                        $ $ $ $ $ $ $ $ $ $ $ # # # # $ # # # # # # # # # # # # # # # # # # # # # # # # t.t.8.t.t.t.t.8.8.8.8.8.8.8.8.8.8.8.8.8.8.8.%.%.8.8.8. . . . . . . . . . . . . . . . . . . . .                                                                                                                                                      d d d d d d e d d d d e e e e e e e e e e e e e e e e e e e c 3 3 3 3 3 3 3 3 3 3 3 3 3 3 3 = = 3 3 e = = = = > = = = = = = = :                                                                                                                                                   ",
"                                                                                                                                                A.A.A.A.A.A.A.A.Z.Z.Z.Z.Z.Z.Z.Z.Z.Z.Z.Z.Z.Z.Z.Z.Z.Z.Z.Z.Z.Z.Z.Z.Z.Z.Z.Z.Z.Z.Z.Z.Z.Z.C.C.C.C.Z.Z.Z.C.C.C.C.C.C.C.C.C.C.C.C.C.C.                                                                                                                                                        $ $ $ $ $ $ $ $ $ $ $ $ $ $ # # # # # # # # # # # # # # # # # # # # # # # # # # # # # t.t.8.8.t.t.t.8.8.8.8.8.8.8.8.8.8.8.8.8.8.8.%.%.%.%.8. . . . . . . . . . . . . . . .) ) )  .%.                                                                                                                                                        d d d d d e e d d d e e e e e e e e e e e e e e e e e e e 3 3 3 3 3 3 3 3 3 3 3 3 3 3 3 3 = = = = 3 = = = = = = = = = > > > =                                                                                                                                                 ",
"                                                                                                                                              A.A.A.A.A.A.A.A.A.Z.Z.Z.A.A.Z.Z.Z.Z.Z.Z.Z.Z.Z.Z.Z.Z.Z.Z.Z.Z.Z.Z.Z.Z.Z.Z.Z.Z.Z.Z.Z.Z.Z.Z.C.C.C.Z.Z.Z.C.C.C.C.C.C.C.C.C.C.C.C.                                                                                                                                                        $ $ $ $ $ $ $ $ $ $ $ $ $ $ $ $ $ # # $ # # # # # # # # # # # # # # # # # # # # # # # # # # t.t.8.t.t.t.8.8.8.8.8.8.8.8.8.8.8.8.8.8.8.8.%.%.%.8.8. . . . . . . . . . . . . . . .) ) )  .) )                                                                                                                                                         d d d d e d d d d e e e e e e e e e e e e e e e e e e e 3 3 3 3 3 3 3 3 3 3 3 3 3 3 3 3 = = = 3 3 = = = = = = = = = = = = =                                                                                                                                               ",
"                                                                                                                                            A.A.A.A.A.A.Z.A.Z.Z.Z.Z.A.A.A.A.Z.Z.Z.Z.Z.Z.Z.Z.Z.Z.Z.Z.Z.Z.Z.Z.Z.Z.Z.Z.Z.Z.Z.Z.Z.Z.Z.Z.Z.Z.C.C.Z.Z.Z.Z.C.C.C.C.C.C.C.C.C.                                                                                                                                                        $ $ $ $ $ $ $ $ $ $ $ $ $ $ $ $ $ $ $ $ # $ $ # # # # # # # # # # # # # # # # # # # # # # # # # # t.t.t.t.t.t.t.8.8.8.8.8.8.8.8.8.8.8.8.8.8.8.%.%.8.8.8. . . . . . . . . . . . . . . .) ) )  . .) )                                                                                                                                                         e d d e e d d d e e e e e e e e e e e e e e e e e e e c 3 3 3 3 3 3 3 3 3 3 3 3 3 3 3 = = 3 3 3 = = = = = = = = = = = = = =                                                                                                                                           ",
"                                                                                                                                        A.A.A.A.A.A.A.A.A.Z.Z.Z.Z.Z.A.A.A.A.Z.Z.Z.Z.Z.Z.Z.Z.Z.Z.Z.Z.Z.Z.Z.Z.Z.Z.Z.Z.Z.Z.Z.Z.Z.Z.Z.Z.Z.Z.Z.C.Z.Z.Z.Z.C.C.C.C.C.C.C.                                                                                                                                                        $ d.$ $ $ $ $ $ $ $ $ $ $ $ $ $ $ $ $ $ $ $ $ $ $ # # # # # # # # # # # # # # # # # # # # # # # # # # # t.t.8.t.t.t.t.8.8.8.8.8.8.8.8.8.8.8.8.8.8.8.%.%.%.8.8. . . . . . . . . . . . . . . .) )  . . .) ) )                                                                                                                                                         d d e e e e e e e e e e e e e e e e e e e e e e e e c 3 3 3 3 3 3 3 3 3 3 3 3 3 3 3 = 3 3 3 3 = = = = = = = = = = = = = =                                                                                                                                         ",
"                                                                                                                                      A.A.A.A.A.A.A.A.A.A.A.Z.Z.A.A.A.A.Z.Z.Z.Z.Z.Z.Z.Z.Z.Z.Z.Z.Z.Z.Z.Z.Z.Z.Z.Z.Z.Z.Z.Z.Z.Z.Z.Z.Z.Z.Z.Z.Z.Z.Z.Z.Z.Z.C.C.C.C.Z.                                                                                                                                                          $ $ $ $ d.$ $ $ $ $ $ $ $ $ $ $ $ $ $ $ $ $ $ $ $ # # # # $ # # # # # # # # # # # # # # # # # # # # # # # # t.t.8.8.t.t.t.8.8.8.8.8.8.8.8.8.8.8.8.8.8.8.%.8.8.8.8. . . . . . . . . . . . . . . .)  . . . .) ) )                                                                                                                                                           d e e e e d e e e e e e e e e e e e e e e e e e e 3 3 3 3 3 3 3 3 3 3 3 3 3 3 3 3 3 3 3 3 3 = = = = = = = = = = = = = =                                                                                                                                       ",
"                                                                                                                                    A.A.A.A.A.A.A.A.A.A.A.A.A.Z.A.A.A.A.Z.Z.Z.Z.A.Z.Z.Z.Z.Z.Z.Z.Z.Z.Z.Z.Z.Z.Z.Z.Z.Z.Z.Z.Z.Z.Z.Z.Z.Z.Z.Z.Z.Z.Z.Z.Z.Z.C.C.Z.                                                                                                                                                          d.d.d.$ d.$ d.d.$ $ $ $ $ $ $ $ $ $ $ $ $ $ $ $ $ $ $ $ # # # # $ # # # # # # # # # # # # # # # # # # # # # # # # t.t.t.t.t.t.t.8.8.8.8.8.8.8.8.8.8.8.8.8.8.8.8.%.%.8.8. . . . . . . . . . . . . . . . .) )  . .) ) ) @.                                                                                                                                                          d e e d d e e e e e e e e e e e e e e e e e e e 3 3 3 3 3 3 3 3 3 3 3 3 3 3 3 3 3 3 = 3 3 = = = = = = = = = = = = = &                                                                                                                                     ",
"                                                                                                                                A.A.A.A.A.A.A.A.A.A.A.A.A.A.A.A.A.A.A.A.A.Z.A.Z.A.A.Z.Z.Z.Z.Z.Z.Z.Z.Z.Z.Z.Z.Z.Z.Z.Z.Z.Z.Z.Z.Z.Z.Z.Z.Z.Z.Z.Z.Z.Z.Z.Z.Z.                                                                                                                                                            d.d.d.d.d.d.d.d.d.d.$ $ $ $ $ $ $ $ $ $ $ $ $ $ $ $ $ $ $ $ # # # $ $ # # # # # # # # # # # # # # # # # # # # # # # # t.t.t.t.t.t.t.8.8.8.8.8.8.8.8.8.8.8.8.8.8.8.%.%.8.8.%. . . . . . . . . . . . . . . .) )  . . .) ) ) )                                                                                                                                                             e e d d e e e e e e e e e e e e e e e e e e e 3 3 3 3 3 3 3 3 3 3 3 3 3 3 3 3 = = = = 3 = = = = > > = = = = = = = = =                                                                                                                                 ",
"                                                                                                                              A.A.A.A.A.A.A.A.A.A.A.A.A.A.A.A.A.A.A.A.A.A.A.A.A.A.A.A.Z.Z.Z.Z.Z.Z.Z.Z.Z.Z.Z.Z.Z.Z.Z.Z.Z.Z.Z.Z.Z.Z.Z.Z.Z.Z.Z.Z.Z.Z.                                                                                                                                                            d.d.d.d.d.d.d.d.d.d.d.d.d.$ $ $ $ $ $ $ $ $ $ $ $ $ $ $ # $ $ $ $ # # $ $ # # # # # # # # # # # # # # # # # # # # # # # # # t.t.t.t.t.t.t.8.8.8.8.8.8.8.8.8.8.8.8.8.8.8.%.%.%.%.8. . . . . . . . . . . . . . . .)  . . . .) ) ) ) )                                                                                                                                                             e d d e e e e e e e e e e e e e e e e e e e 3 3 3 3 3 3 3 3 3 3 3 3 3 3 3 3 = = = 3 3 = = = = > = = = = = = = = = &                                                                                                                               ",
"                                                                                                                            A.A.A.A.A.A.A.A.A.A.A.A.A.A.A.A.A.A.A.A.Z.Z.Z.Z.Z.Z.Z.Z.A.A.Z.Z.Z.Z.Z.Z.Z.Z.Z.Z.Z.Z.Z.Z.Z.Z.Z.Z.Z.Z.Z.Z.Z.Z.Z.Z.Z.                                                                                                                                                              d.d.d.d.d.d.d.d.d.d.$ $ $ d.d.$ $ $ $ $ $ $ $ $ $ $ $ $ $ $ $ $ $ $ # # # # # # # # # # # # # # # # # # # # # # # # # # # # # # t.t.8.8.t.t.t.8.8.8.8.8.8.8.8.8.8.8.8.8.8.8.%.%.%.8.8. . . . . . . . . . . . . . . .) ) )  . .) ) ) ) )                                                                                                                                                               d e e e e e e e e e e e e e e e e e e e e 3 3 3 3 3 3 3 3 3 3 3 3 3 3 3 3 = = = 3 3 = = = = = = = = = = = = = = =                                                                                                                             ",
"                                                                                                                          A.A.A.A.A.A.A.A.A.A.A.A.A.A.A.A.A.A.A.A.A.A.Z.Z.Z.A.Z.Z.Z.A.A.A.Z.Z.Z.Z.Z.Z.Z.Z.Z.Z.Z.Z.Z.Z.Z.Z.Z.Z.Z.Z.Z.Z.Z.Z.Z.                                                                                                                                                              d.d.d.d.d.d.d.d.d.d.d.d.$ d.d.$ d.$ $ $ $ $ $ $ $ $ $ $ $ $ $ $ $ $ $ # # # # # # $ # # # # # # # # # # # # # # # # # # # # # # # # t.t.8.8.t.t.t.8.8.8.8.8.8.8.8.8.8.8.8.8.8.8.%.%.%.8.8. . . . . . . . . . . . . . . .) ) ) ) ) ) ) ) ) )                                                                                                                                                                 e e e e e e e e e e e e e e e e e e e e 3 3 3 3 3 3 3 3 3 3 3 3 3 3 3 3 = = 3 3 3 = = = = = = > > = = = = = = =                                                                                                                           ",
"                                                                                                                        A.A.A.A.A.A.A.A.A.A.A.A.A.A.A.A.A.A.A.A.A.A.A.A.A.A.A.A.Z.Z.Z.Z.A.Z.Z.Z.Z.Z.Z.Z.Z.Z.Z.Z.Z.Z.Z.Z.Z.Z.Z.Z.Z.Z.Z.Z.                                                                                                                                                              b.d.d.d.d.d.d.d.d.d.d.d.d.d.d.$ $ $ d.d.$ $ $ $ $ $ $ $ $ $ $ $ $ $ $ $ $ $ # $ # # $ $ $ # # # # # # # # # # # # # # # # # # # # # # # # t.t.t.t.t.t.t.8.8.8.8.8.8.8.8.8.8.8.8.8.8.8.%.%.8.8.8. . . . . . . . . . . . . . . .) ) )  . .) ) ) ) ) @.                                                                                                                                                              d e e e e e e e e e e e e e e e e e e e c 3 3 3 3 3 3 3 3 3 3 3 3 3 3 3 = = 3 3 3 = = = = = = = > = = = > > = = :                                                                                                                       ",
"                                                                                                                    A.A.A.A.A.A.A.A.A.A.A.A.A.A.A.A.A.A.A.A.A.A.A.A.A.A.A.A.A.A.Z.Z.Z.Z.A.A.Z.Z.Z.Z.Z.Z.Z.Z.Z.Z.Z.Z.Z.Z.Z.Z.Z.Z.Z.Z.                                                                                                                                                                b.b.d.d.d.d.d.d.d.d.d.d.d.d.d.d.d.$ d.d.d.d.d.$ $ $ $ $ $ $ $ $ $ $ $ $ $ $ $ $ $ $ # # $ $ # # # # # # # # # # # # # # # # # # # # # # # # # t.t.t.t.t.8.t.8.8.8.8.8.8.8.8.8.8.8.8.8.8.8.%.%.%.8.8. . . . . . . . . . . . . . . .) )  . . .) ) ) ) ) )                                                                                                                                                                 e e e e e e e e e e e e e e e e e e e c 3 3 3 3 3 3 3 3 3 3 3 3 3 3 3 = 3 3 3 3 = = = = = = > = = = > = = = = &                                                                                                                     ",
"                                                                                                                  A.A.A.A.A.A.A.A.A.A.A.A.A.A.A.A.A.A.A.A.A.A.A.A.A.A.A.A.A.A.A.A.A.A.Z.Z.Z.Z.Z.Z.Z.Z.Z.Z.Z.Z.Z.Z.Z.Z.Z.Z.Z.Z.Z.                                                                                                                                                                  d.d.d.b.d.d.d.d.d.d.d.d.d.d.d.d.d.d.d.$ $ d.d.d.$ $ $ $ $ $ $ $ $ $ $ $ $ $ $ $ $ $ $ $ # # # # $ # # # # # # # # # # # # # # # # # # # # # # # # t.t.8.8.8.t.t.8.8.8.8.8.8.8.8.8.8.8.8.8.8.8.%.8.8.8.8. . . . . . . . . . . . . . . .) ) )  . .) ) ) ) ) )                                                                                                                                                                   e e e e e e e e e e e e e e e e e e c 3 3 3 3 3 3 3 3 3 3 3 3 3 3 3 = = = = = = = = = = > = = = = = = = = = &                                                                                                                   ",
"                                                                                                                F.A.A.A.A.A.A.A.A.A.A.A.A.A.A.A.A.A.A.A.A.A.A.A.A.A.A.A.A.A.A.Z.A.A.Z.Z.Z.Z.Z.A.A.Z.Z.Z.Z.Z.Z.Z.Z.Z.Z.Z.Z.Z.Z.                                                                                                                                                                  b.d.d.d.b.b.d.d.d.d.d.d.d.d.d.d.d.d.d.d.d.$ d.d.d.d.$ $ $ $ $ $ $ $ $ $ $ $ $ $ $ $ $ $ $ $ # # # # $ # # # # # # # # # # # # # # # # # # # # # # # # t.t.8.8.8.t.t.8.8.8.8.8.8.8.8.8.8.8.8.8.8.8.%.%.%.8.8. . . . . . . . . . . . . . . .) )  . . .) ) ) ) ) )                                                                                                                                                                   e e e e e e e e e e e e e e e e e e c 3 3 3 3 3 3 3 3 3 3 3 3 3 3 3 = = 3 = = = = = > > = = = = = = = = = = &                                                                                                                 ",
"                                                                                                              F.F.F.A.A.A.A.A.A.A.A.A.A.A.A.A.A.A.A.A.A.A.A.A.A.A.A.A.A.A.A.A.A.A.A.A.A.Z.Z.A.A.A.A.Z.Z.Z.Z.Z.Z.Z.Z.Z.Z.Z.                                                                                                                                                                    b.b.b.d.d.b.b.b.d.d.d.d.d.d.d.d.d.d.d.d.d.d.d.d.d.d.d.d.$ $ $ $ $ $ $ $ $ $ $ $ $ $ $ $ $ $ $ $ # # # $ $ # # # # # # # # # # # # # # # # # # # # # # # # t.t.t.t.t.t.t.8.8.8.8.8.8.8.8.8.8.8.8.8.8.8.%.%.8.8.8. . . . . . . . . . . . . . . . . . . . .) ) ) ) ) )                                                                                                                                                                     e e e e e e e e e e e e e e e e e c 3 3 3 3 3 3 3 3 3 3 3 3 3 3 3 3 3 = 3 3 = > > = = = = = = = = = = = = &                                                                                                               ",
"                                                                                                            F.F.F.F.F.A.A.A.A.A.A.A.A.A.A.A.A.A.A.A.A.A.A.A.A.A.A.A.A.A.A.A.A.A.A.A.A.A.A.A.Z.A.A.A.A.Z.Z.Z.Z.Z.Z.Z.Z.                                                                                                                                                                      b.b.b.b.b.d.b.b.b.b.d.d.d.d.d.d.d.d.d.d.d.d.d.d.d.d.d.d.d.d.$ $ $ $ $ $ $ $ $ $ $ $ $ $ $ $ $ $ $ $ # # $ $ # # # # # # # # # # # # # # # # # # # # # # # # # t.t.8.t.t.t.t.8.8.8.8.8.8.8.8.8.8.8.8.8.8.8.%.8.8.8.8. . . . . . . . . . . . . . . .) )  . . .) ) ) ) ) ) )                                                                                                                                                                     e e e e e e e e e e e e e e e e c 3 3 3 3 3 3 3 3 3 3 3 3 3 3 3 3 3 3 3 3 = = = = = = = = = = = = = = = &                                                                                                             ",
"                                                                                                          F.F.A.A.F.F.F.A.A.A.A.A.A.A.A.A.A.A.A.A.A.A.A.A.A.A.A.A.A.A.A.A.A.A.A.A.A.Z.Z.A.A.A.A.Z.Z.Z.A.Z.Z.Z.Z.Z.Z.                                                                                                                                                                    b.b.b.b.b.b.b.b.d.d.d.d.b.d.d.d.d.d.d.d.d.d.d.d.d.d.d.d.$ $ d.d.d.$ $ $ $ $ $ $ $ $ $ $ $ $ $ $ $ $ $ $ $ # # # # # # # # # # # # # # # # # # # # # # # # # # # # # t.t.t.t.t.t.t.8.8.8.8.8.8.8.8.8.8.8.8.8.8.8.%.%.%.8.8. . . . . . . . . . . . . . . .) ) )  . .) ) ) ) ) ) )                                                                                                                                                                     e e e e e e e e e e e e e e e e 3 3 3 3 3 3 3 3 3 3 3 3 3 3 3 3 = = = = = = = = = = = = = = = = = = = = &                                                                                                           ",
"                                                                                                        F.F.F.A.A.A.F.F.A.A.A.A.A.A.A.A.A.A.A.A.A.A.A.A.A.A.A.A.A.A.A.A.A.A.A.A.A.A.A.Z.A.A.A.A.Z.Z.Z.Z.A.Z.Z.Z.                                                                                                                                                                      b.b.b.b.b.b.b.b.b.b.d.d.d.b.b.d.d.d.d.d.d.d.d.d.d.d.d.d.d.d.$ d.d.d.d.$ $ $ $ $ $ $ $ $ $ $ $ $ $ $ $ $ $ $ $ # # # # $ # # # # # # # # # # # # # # # # # # # # # # # # t.t.t.t.t.t.t.8.8.8.8.8.8.8.8.8.8.8.8.8.8.8.%.%.%.8.%. . . . . . . . . . . . . . . .) ) ) ) ) ) ) ) ) ) ) @.                                                                                                                                                                      e e e e e e e e e e e e e e e 3 3 3 3 3 3 3 3 3 3 3 3 3 3 3 3 = = = = = = = = = = = = = = = > > = = = &                                                                                                         ",
"                                                                                                    F.F.F.F.A.F.F.A.A.A.A.F.A.A.A.A.A.A.A.A.A.A.A.A.A.A.A.A.A.A.A.A.A.A.A.A.A.A.A.A.A.A.A.A.Z.Z.Z.Z.Z.Z.A.A.Z.                                                                                                                                                                      b.b.b.b.b.b.b.b.b.b.b.b.d.d.b.b.d.d.d.d.d.d.d.d.d.d.d.d.d.d.d.d.$ $ $ $ d.$ $ $ $ $ $ $ $ $ $ $ $ $ $ $ $ $ $ # # # # # $ $ # # # # # # # # # # # # # # # # # # # # # # # # t.t.t.8.t.t.t.8.8.8.8.8.8.8.8.8.8.8.8.8.8.8.%.%.%.8.8. . . . . . . . . . . . . . . .) ) )  . .) ) ) ) ) ) @.                                                                                                                                                                      e e e e e e e e e e e e e e e 3 3 3 3 3 3 3 3 3 3 3 3 3 3 3 3 3 3 = 3 3 = = = = = = = = = > > = = > > & &                                                                                                     ",
"                                                                                                  F.F.F.F.F.F.F.F.A.A.A.A.A.A.A.A.A.A.A.A.A.A.A.A.A.A.A.A.A.A.A.A.A.A.A.A.A.A.A.A.A.A.A.A.Z.Z.Z.Z.Z.Z.Z.Z.                                                                                                                                                                        b.b.b.b.b.b.b.b.b.b.b.b.b.b.d.d.d.d.d.d.d.d.d.d.d.d.d.d.d.d.d.d.d.d.$ $ $ $ d.$ $ $ $ $ $ $ $ $ $ $ $ $ $ $ $ $ # # # # $ $ $ # # # # # # # # # # # # # # # # # # # # # # # # # t.t.8.t.t.t.8.8.8.8.8.8.8.8.8.8.8.8.8.8.8.8.%.%.8.8.8. . . . . . . . . . . . . . . .) )  . . .) ) ) ) ) ) )                                                                                                                                                                         e e e e e e e e e e e e e e 3 3 3 3 3 3 3 3 3 3 3 3 3 3 3 3 3 3 3 3 3 = = = = = = = = = = = = = > = & &                                                                                                   ",
"                                                                                                F.F.F.F.F.F.F.F.F.F.A.A.A.A.A.A.A.A.A.A.A.A.A.A.A.A.A.A.A.A.A.A.A.A.A.A.A.A.A.A.A.A.A.A.A.A.Z.Z.A.A.A.Z.                                                                                                                                                                        b.b.b.b.b.b.b.b.b.b.b.b.b.b.b.b.d.d.b.b.b.d.d.d.d.d.d.d.d.d.d.d.d.d.d.d.d.d.d.d.d.$ $ $ $ $ $ $ $ $ $ $ $ $ $ $ # # $ $ $ # # # # # # # # # # # # # # # # # # # # # # # # # # # # # t.t.t.t.8.8.t.8.8.8.8.8.8.8.8.8.8.8.8.8.8.8.%.8.8.%.%. . . . . . . . . . . . . . . .) ) ) )  .) ) ) ) ) )                                                                                                                                                                           c e e e e e e e e e e e e e c 3 3 3 3 3 3 3 3 3 3 3 3 3 3 3 = = = = 3 = = = = = = = = = = = = = = = & &                                                                                                 ",
"                                                                                              F.F.F.F.F.F.F.F.F.F.F.A.A.A.A.A.A.F.A.A.A.A.A.A.A.A.A.A.A.A.A.A.A.A.A.A.A.A.A.A.A.A.A.A.A.A.A.A.Z.A.A.                                                                                                                                                                            b.b.b.b.b.b.b.b.b.b.b.b.b.b.b.b.b.d.b.b.b.b.d.d.d.d.d.d.d.d.d.d.d.d.d.d.d.d.d.d.d.d.$ $ $ $ $ $ $ $ $ $ $ $ $ $ $ # $ $ $ $ # # # # #                     # # # # # # # # # # # # # # t.t.t.8.8.t.t.8.8.8.8.8.8.8.8.8.8.8.8.8.8.8.8.%.%.%.%. . . . . . . . . . . . . . . .) ) )  . .) ) ) ) ) )                                                                                                                                                                             e e e e e e e e e e e e e c 3 3 3 3 3 3 3 3 3 3 3 3 3 3 3 = = = 3 3 = = = = = = = = = = = = = = = & &                                                                                               ",
"                                                                                            F.F.F.F.F.F.F.F.F.F.F.F.F.F.F.A.A.A.F.F.A.A.A.A.A.A.A.A.A.A.A.A.A.A.A.A.A.A.A.A.A.A.A.A.A.A.A.A.A.A.A.                                                                                                                                                                            b.b.b.B.b.b.b.b.b.b.b.b.b.b.b.b.b.b.b.b.b.b.d.d.d.d.d.d.d.d.d.d.d.d.d.d.d.d.d.d.d.d.d.d.$ $ $ $ $ $ $ $ $ $ $ $ $ $ $ $                                                     # # # # # # # t.t.8.8.t.t.t.8.8.8.8.8.8.8.8.8.8.8.8.8.8.8.%.%.%.8.8. . . . . . . . . . . . . . . .) )  . . .) ) ) ) ) )                                                                                                                                                                             e e e e e e e e e e e e e c 3 3 3 3 3 3 3 3 3 3 3 3 3 3 3 = = = 3 3 > = = = = = = = = = = = > = = & &                                                                                             ",
"                                                                                          F.F.F.F.F.F.F.F.F.F.F.F.F.F.F.F.F.A.F.F.F.F.A.A.A.A.A.A.A.A.A.A.A.A.A.A.A.A.A.A.A.A.A.A.A.A.A.A.A.A.                                                                                                                                                                              B.b.b.b.B.B.b.b.b.b.b.b.b.b.b.b.b.b.b.b.b.d.d.d.b.b.d.d.d.d.d.d.d.d.d.d.d.d.d.d.d.d.d.d.d.d.$ $ $ $ $ $ $ $ $ $ $                                                                     t.# # # t.t.8.t.t.t.t.8.8.8.8.8.8.8.8.8.8.8.8.8.8.8.%.8.8.8.8. . . . . . . . . . . . . . . .)  . . . .) ) ) ) ) )                                                                                                                                                                               e e e e e e e e e e e e c 3 3 3 3 3 3 3 3 3 3 3 3 3 3 3 = 3 3 3 e = = = > > > = = = = > > = = = & &                                                                                           ",
"                                                                                        F.F.F.F.F.F.F.F.F.F.F.F.F.F.A.A.F.F.F.F.A.A.A.F.A.A.A.A.A.A.A.A.A.A.A.A.A.A.A.A.A.A.A.A.A.A.A.A.A.A.                                                                                                                                                                              B.B.B.b.b.B.B.B.b.b.b.b.b.b.b.b.b.b.b.b.b.b.b.d.d.d.b.b.d.d.d.d.d.d.d.d.d.d.d.d.d.d.d.$ $ $ d.d.$ $ $ $ $ $ $                                                                                 @ @ t.t.8.t.t.t.t.8.8.8.8.8.8.8.8.8.8.8.8.8.8.8.%.%.%.%.8. . . . . . . . . . . . . . . .) ) )  . .) ) ) ) ) @.                                                                                                                                                                              e e e e e e e e e e e e 3 3 3 3 3 3 3 3 3 3 3 3 3 3 3 3 = = 3 3 3 = = = = = = = = = = > > = = = & &                                                                                         ",
"                                                                                      F.F.F.F.F.F.F.F.F.F.F.F.F.F.F.F.A.F.F.F.F.A.A.A.F.F.A.A.A.A.A.A.A.A.A.A.A.A.A.A.A.A.A.A.A.A.A.A.A.A.                                                                                                                                                                              b.B.B.B.B.b.b.B.B.B.b.b.b.b.b.b.b.b.b.b.b.b.b.b.b.d.d.b.b.b.d.d.d.d.d.d.d.d.d.d.d.d.d.d.d.$ $ d.$ d.$ $ $                                                                                             2.t.t.8.8.t.t.8.8.8.8.8.8.8.8.8.8.8.8.8.8.8.%.%.%.8.8. . . . . . . . . . . . . . . .) )  . . .) ) ) ) ) )                                                                                                                                                                               e e e e e e e e e e e e 3 3 3 3 3 3 3 3 3 3 3 3 3 3 3 3 3 3 3 = 3 = = = = = = = = = = = = = = = & &                                                                                       ",
"                                                                                    F.F.F.F.F.F.F.F.F.F.F.F.F.F.F.F.F.F.A.F.A.A.A.A.F.F.F.F.A.A.A.A.A.A.A.A.A.A.A.A.A.A.A.A.A.A.A.A.A.                                                                                                                                                                                B.B.B.B.B.B.B.B.B.B.b.b.b.b.b.b.b.b.b.b.b.b.b.b.b.b.b.d.d.b.b.b.d.d.d.d.d.d.d.d.d.d.d.d.d.d.d.$ $ $ d.                                                                                                        8.8.8.t.t.8.8.8.8.8.8.8.8.8.8.8.8.8.8.8.%.%.%.8.8. . . . . . . . . . . . . . . . . . .) ) ) ) ) ) ) )                                                                                                                                                                                 e e e e e e e e e e e 3 3 3 3 3 3 3 3 3 3 3 3 3 3 3 3 = = = = 3 = = = = = = = = = = = = = = = & &                                                                                     ",
"                                                                                  F.F.F.F.F.F.F.F.F.F.F.F.F.F.F.F.F.F.F.F.A.A.A.A.A.F.F.F.F.A.A.A.A.A.A.A.A.A.A.A.A.A.A.A.A.A.A.A.A.                                                                                                                                                                                  B.B.B.B.B.B.B.B.b.b.b.B.B.b.b.b.b.b.b.b.b.b.b.b.b.b.b.b.d.d.b.b.b.d.d.d.d.d.d.d.d.d.d.d.d.d.d.d.$                                                                                                                 8.t.t.t.8.8.8.8.8.8.8.8.8.8.8.8.8.8.8.%.%.8.8.8. . . . . . . . . . . . . . . . .) ) )  .) ) ) ) )                                                                                                                                                                                   e e e e e e e e e e e 3 3 3 3 3 3 3 3 3 3 3 3 3 3 3 3 = = = 3 3 = = = = = = = = = = = = = = = & =                                                                                   ",
"                                                                                F.F.F.F.F.F.F.F.F.F.F.F.F.F.F.F.F.F.F.F.F.F.A.A.A.F.F.F.A.A.A.A.A.A.A.A.A.A.A.A.A.A.A.A.A.A.A.A.A.                                                                                                                                                                                  B.B.B.B.B.B.B.B.B.B.b.b.b.B.B.b.b.b.b.b.b.b.b.b.b.b.b.b.b.b.d.b.b.b.b.d.d.d.d.d.d.d.d.d.d.d.d.d.                                                                                                                        t.t.t.8.8.8.8.8.8.8.8.8.8.8.8.8.8.8.%.%.8.8.8. . . . . . . . . . . . . . . .) ) )  . .) ) ) ) )                                                                                                                                                                                   e e e e e e e e e e e 3 3 3 3 3 3 3 3 3 3 3 3 3 3 3 3 = = = = 3 = = = = = = = = = = = = = = = = &                                                                                 ",
"                                                                              F.F.F.F.F.F.F.F.F.F.F.F.F.F.F.F.F.F.F.F.F.F.F.F.A.F.F.F.F.A.A.A.A.F.A.A.A.A.A.A.A.A.A.A.A.A.A.A.                                                                                                                                                                                    B.B.B.B.B.B.B.B.B.B.B.B.b.b.B.B.B.b.b.b.b.b.b.b.b.b.b.b.b.b.b.b.b.d.d.b.b.d.d.d.d.d.d.d.d.d.d.                                                                                                                                t.t.8.8.8.8.8.8.8.8.8.8.8.8.8.8.8.8.8.%.%.%. . . . . . . . . . . . . . . .) )  . . .) ) ) ) )                                                                                                                                                                                     e e e e e e e e e e 3 3 3 3 3 3 3 3 3 3 3 3 3 3 3 3 3 = = 3 3 = = = = = = = = = = = = = = = & &                                                                               ",
"                                                                            S.F.F.F.F.F.F.F.F.F.F.F.F.F.F.F.F.F.F.F.F.F.F.F.F.F.F.F.F.F.F.A.F.F.F.F.A.A.A.A.A.A.A.A.A.A.A.A.                                                                                                                                                                                    B.B.B.B.B.B.B.B.B.B.B.B.B.B.b.b.B.B.B.b.b.b.b.b.b.b.b.b.b.b.b.b.b.b.d.d.b.b.b.d.d.d.d.d.d.d.                                                                                                                                        t.8.8.8.8.8.8.8.8.8.8.8.8.8.8.8.%.%.%.8.8. . . . . . . . . . . . . . . . .)  . . .) ) ) ) )                                                                                                                                                                                     c e e e e e e e e e c 3 3 3 3 3 3 3 3 3 3 3 3 3 3 3 = = = 3 3 = = = = > > = = = = = = = = = & &                                                                             ",
"                                                                          F.F.F.F.F.F.F.F.F.F.F.F.F.F.F.F.F.F.F.F.F.F.F.F.F.F.F.F.F.F.F.F.F.F.F.F.F.F.A.A.A.A.A.A.A.A.A.A.                                                                                                                                                                                      B.B.B.B.B.B.B.B.B.B.B.B.B.B.B.b.B.B.B.B.b.b.b.b.b.b.b.b.b.b.b.b.b.b.b.d.b.b.b.b.d.d.d.d.d.                                                                                                                                            # 8.8.8.8.8.8.8.8.8.8.8.8.8.8.8.%.%.%.8.8. . . . . . . . . . . . . . . .) )  . . .) ) ) )                                                                                                                                                                                       e e e e e e e e e e c 3 3 3 3 3 3 3 3 3 3 3 3 3 3 3 = 3 3 3 3 = = = = > > = = = = = = = = = & &                                                                           ",
"                                                                        F.F.F.F.F.F.F.F.F.F.F.F.F.F.F.F.F.F.F.F.F.F.F.F.F.F.F.F.F.F.A.A.A.A.A.A.A.A.A.F.A.A.A.A.A.A.A.                                                                                                                                                                                        B.B.B.B.B.B.B.B.B.B.B.B.B.B.B.B.B.b.b.b.b.B.b.b.b.b.b.b.b.b.b.b.b.b.b.b.b.d.d.d.d.b.d.d.                                                                                                                                                    8.8.8.8.8.8.8.8.8.8.8.8.8.8.8.%.%.%.%.8. . . . . . . . . . . . . . . .) ) )  . .) ) ) )                                                                                                                                                                                         e e e e e e e e e 3 3 3 3 3 3 3 3 3 3 3 3 3 3 3 3 = = = = 3 = = = = = = > > > = = = > = = & &                                                                         ",
"                                                                      S.F.F.F.F.F.F.F.F.F.F.F.F.F.F.F.F.F.F.F.F.F.F.F.F.F.F.F.F.F.F.F.A.A.A.F.A.A.A.F.F.F.A.A.A.A.A.                                                                                                                                                                                        C.B.B.B.B.B.B.B.B.B.B.B.B.B.B.B.B.B.B.b.b.B.B.B.b.b.b.b.b.b.b.b.b.b.b.b.b.b.b.d.d.d.d.b.                                                                                                                                                        8.8.8.8.8.8.8.8.8.8.8.8.8.8.8.%.%.%.8.8. . . . . . . . . . . . . . . .) ) ) ) ) ) ) ) )                                                                                                                                                                                         e e e e e e e e e 3 3 3 3 3 3 3 3 3 3 3 3 3 3 3 3 = = = 3 3 = = = = = = = > = = > > = = = & &                                                                       ",
"                                                                      F.F.F.F.F.F.F.F.F.F.F.F.F.F.F.F.F.F.F.F.F.F.F.F.F.F.F.F.F.F.F.F.F.F.F.F.F.A.A.A.A.F.F.A.A.A.                                                                                                                                                                                          B.B.B.C.C.B.B.B.B.B.B.B.B.B.B.B.B.B.B.B.B.B.B.B.b.b.b.b.b.b.b.b.b.b.b.b.b.b.b.b.d.d.d.                                                                                                                                                            8.8.8.8.8.8.8.8.8.8.8.8.8.8.8.%.%.8.8.8. . . . . . . . . . . . . . . .) ) )  . .) ) )                                                                                                                                                                                           e e e e e e e e e 3 3 3 3 3 3 3 3 3 3 3 3 3 3 3 3 = = 3 3 3 = = = = = = = = = = = = = = = &                                                                       ",
"                                                                    F.F.F.F.F.F.F.F.F.F.F.F.F.F.F.F.F.F.F.F.F.F.F.F.F.F.F.F.F.F.F.F.F.F.F.F.F.F.A.A.A.A.F.F.F.A.                                                                                                                                                                                          C.C.B.C.C.C.C.B.B.B.B.B.B.B.B.B.B.B.B.B.B.B.B.B.b.b.B.b.b.b.b.b.b.b.b.b.b.b.b.b.b.b.                                                                                                                                                                    8.8.8.8.8.8.8.8.8.8.8.8.8.8.%.%.%.8.8. . . . . . . . . . . . . . . .) )  . . .) ) @.                                                                                                                                                                                          e e e e e e e e e 3 3 3 3 3 3 3 3 3 3 3 3 3 3 3 3 = 3 3 3 3 = = = = = = = = = = = = = = = &                                                                     ",
"                                                                  S.F.F.F.F.F.F.F.F.F.F.F.F.F.F.F.F.F.F.F.F.F.F.F.F.F.F.F.F.F.F.F.F.F.F.F.F.F.F.F.F.F.A.A.A.A.                                                                                                                                                                                          C.C.C.C.B.B.C.C.C.B.B.B.B.B.B.B.B.B.B.B.B.B.B.B.b.b.b.B.B.b.b.b.b.b.b.b.b.b.b.b.b.b.                                                                                                                                                                        8.8.8.8.8.8.8.8.8.8.8.8.8.8.%.8.8.8.8. . . . . . . . . . . . . . . .) ) ) )  .) ) @.                                                                                                                                                                                          e e e e e e e e e 3 3 3 3 3 3 3 3 3 3 3 3 3 3 3 3 3 3 3 3 3 = = = = = = = = = = = = = = = &                                                                   ",
"                                                                S.S.F.F.F.F.F.F.S.F.F.F.F.F.F.F.F.F.F.F.F.F.F.F.F.F.F.F.F.F.F.F.F.F.F.F.F.F.F.A.F.F.F.A.A.A.                                                                                                                                                                                            C.C.C.C.C.B.C.C.C.C.B.B.B.B.B.B.B.B.B.B.B.B.B.B.B.b.b.B.B.B.b.b.b.b.b.b.b.b.b.b.d.                                                                                                                                                                            8.8.8.8.8.8.8.8.8.8.8.8.8.8.8.%.%.8.8. . . . . . . . . . . . . . . .) ) )  . .) )                                                                                                                                                                                               e e e e e e e e 3 3 3 3 3 3 3 3 3 3 3 3 3 3 3 3 3 3 = 3 3 = = = = = = = > = = = = = = = &                                                                 ",
"                                                              S.S.S.S.S.F.S.F.F.S.S.F.F.F.F.F.F.F.F.F.F.F.F.F.F.F.F.F.F.F.F.F.F.F.F.F.F.F.F.F.F.F.F.F.F.                                                                                                                                                                                              C.C.C.C.C.C.C.C.C.C.C.C.B.B.B.B.B.B.B.B.B.B.B.B.B.B.B.B.b.B.B.B.b.b.b.b.b.b.b.b.b.                                                                                                                                                                                8.8.8.8.8.8.8.8.8.8.8.8.8.8.%.%.8.8.%. . . . . . . . . . . . . . . .) )  . . .) )                                                                                                                                                                                               e e e e e e e e c 3 3 3 3 3 3 3 3 3 3 3 3 3 3 3 = = = = = > > = = = = > = = = = = = = = &                                                               ",
"                                                            S.S.S.S.S.S.S.S.F.F.S.S.S.F.F.F.F.F.F.F.F.F.F.F.F.F.F.F.F.F.F.F.F.F.F.F.F.F.F.F.F.F.F.F.F.                                                                                                                                                                                                C.C.C.C.C.C.C.C.C.C.C.C.C.B.B.B.B.B.B.B.B.B.B.B.B.B.B.B.b.b.B.B.B.b.b.b.b.b.b.b.                                                                                                                                                                                    8.8.8.8.8.8.8.8.8.8.8.8.8.8.%.%.%.%.8. . . . . . . . . . . . . . . .) )  . . .)                                                                                                                                                                                                 e e e e e e e e c 3 3 3 3 3 3 3 3 3 3 3 3 3 3 3 = = = = = > = = = = > = = = = = = = = = &                                                             ",
"                                                          S.S.S.S.F.F.F.F.F.S.F.F.F.F.S.F.F.F.F.F.F.F.F.F.F.F.F.F.F.F.F.F.F.F.F.F.F.F.F.F.F.F.F.F.F.                                                                                                                                                                                                C.C.C.C.C.C.C.C.C.C.C.C.C.C.B.B.B.B.B.B.B.B.B.B.B.B.B.B.B.B.b.b.b.B.B.b.b.b.b.b.                                                                                                                                                                                        8.8.8.8.8.8.8.8.8.8.8.8.8.8.%.%.%.8.8. . . . . . . . . . . . . . . .)  . .)  .)                                                                                                                                                                                                 e e e e e e e e 3 3 3 3 3 3 3 3 3 3 3 3 3 3 3 3 = = = 3 3 = = = = = = = = = = = = = = = =                                                           ",
"                                                        S.S.S.S.S.S.F.F.F.F.S.S.F.F.F.S.S.F.F.F.F.F.F.F.F.F.F.F.F.F.F.F.F.F.F.F.F.F.F.F.F.F.F.F.F.                                                                                                                                                                                                  C.C.C.C.C.C.C.C.C.C.C.C.C.C.C.C.B.B.B.B.B.B.B.B.B.B.B.B.B.B.B.b.b.b.b.b.b.b.b.                                                                                                                                                                                            8.8.8.8.8.8.8.8.8.8.8.8.8.8.%.%.%.8.8. . . . . . . . . . . . . . . . .) )  . .                                                                                                                                                                                                  e e e e e e e e 3 3 3 3 3 3 3 3 3 3 3 3 3 3 3 3 = = 3 3 3 = = = = = = = = = = = = > = = &                                                         ",
"                                                        S.S.S.S.S.S.S.S.S.S.S.S.F.F.S.S.S.S.F.F.F.F.F.F.F.F.F.F.F.F.F.F.F.F.F.F.F.F.F.F.F.F.F.F.                                                                                                                                                                                                  C.C.C.C.C.C.C.C.C.C.C.C.C.C.C.C.C.B.B.B.B.B.B.B.B.B.B.B.B.B.B.B.B.b.b.b.B.B.b.                                                                                                                                                                                                # 8.8.8.8.8.8.8.8.8.8.8.8.8.%.%.%.8.8. . . . . . . . . . . . . . . .) )  . .)                                                                                                                                                                                                   e e e e e e e e c 3 3 3 3 3 3 3 3 3 3 3 3 3 3 3 = = 3 3 3 = = = = > > = = = = > = > = =                                                         ",
"                                                      S.S.S.S.S.S.S.S.S.S.S.S.S.F.F.S.S.S.S.F.F.F.F.F.F.F.F.F.F.F.F.F.F.F.F.F.F.F.F.F.F.F.F.F.                                                                                                                                                                                                    C.C.C.C.C.C.C.C.C.C.C.C.C.C.C.C.B.B.B.B.B.B.B.B.B.B.B.B.B.B.B.B.B.B.b.B.B.b.                                                                                                                                                                                                    8.8.8.8.8.8.8.8.8.8.8.8.8.8.%.%.8.8.8. . . . . . . . . . . . . . . .) ) ) )                                                                                                                                                                                                     e e e e e e e e c 3 3 3 3 3 3 3 3 3 3 3 3 3 3 3 = 3 3 3 3 = = > > = = = = > > = = = = =                                                       ",
"                                                    S.S.S.S.S.S.S.S.S.S.S.F.F.F.S.S.F.S.F.F.F.F.F.F.F.F.F.F.F.F.F.F.F.F.F.F.F.F.F.F.F.F.F.F.                                                                                                                                                                                                    C.C.C.C.C.C.C.C.C.C.C.C.C.C.C.C.C.C.B.B.C.B.B.B.B.B.B.B.B.B.B.B.B.B.B.B.b.b.                                                                                                                                                                                                        8.8.8.8.8.8.8.8.8.8.8.8.8.8.%.%.8.8.8. . . . . . . . . . . . . . . .) ) ) %.                                                                                                                                                                                                    e e e e e e e e c 3 3 3 3 3 3 3 3 3 3 3 3 3 3 3 = = = = = = = = = = = = = = = = = = = =                                                     ",
"                                                  G.S.S.S.S.S.S.S.S.S.S.S.S.F.F.S.S.S.S.F.F.F.F.S.F.F.F.F.F.F.F.F.F.F.F.F.F.F.F.F.F.F.F.F.                                                                                                                                                                                                      Z.Z.C.C.C.C.C.C.C.C.C.C.C.C.C.C.C.C.B.C.C.C.B.B.B.B.B.B.B.B.B.B.B.B.B.B.B.                                                                                                                                                                                                            8.8.8.8.8.8.8.8.8.8.8.8.8.8.8.8.%.%.%. . . . . . . . . . . . . . . .) ) )                                                                                                                                                                                                       e e e e e e e e c 3 3 3 3 3 3 3 3 3 3 3 3 3 3 3 = = = = = = = = = = = = = = = = = = = =                                                   ",
"                                                S.S.S.S.S.S.S.S.S.S.S.S.S.S.S.F.S.S.S.S.F.F.S.S.S.S.F.F.F.F.F.F.F.F.F.F.F.F.F.F.F.F.F.F.                                                                                                                                                                                                      C.Z.Z.Z.C.C.C.C.C.C.C.C.C.C.C.C.C.C.C.C.C.C.C.C.B.B.B.B.B.B.B.B.B.B.B.B.B.                                                                                                                                                                                                                8.8.8.8.8.8.8.8.8.8.8.8.8.8.%.%.%.8.8. . . . . . . . . . . . . . . .) )  .                                                                                                                                                                                                      c e e e e e e e c 3 3 3 3 3 3 3 3 3 3 3 3 3 3 3 3 3 3 3 3 = = = > > = = = = = = = = = &                                                 ",
"                                              G.G.S.S.S.S.S.S.S.S.S.S.S.S.S.S.S.S.S.S.S.S.S.S.S.S.S.S.F.F.F.F.F.F.F.F.F.F.F.F.F.F.F.F.                                                                                                                                                                                                        C.Z.Z.Z.Z.C.C.C.C.C.C.C.C.C.C.C.C.C.C.C.C.C.C.C.C.B.B.B.B.B.B.B.B.B.B.B.B.                                                                                                                                                                                                                8.8.8.8.8.8.8.8.8.8.8.8.8.8.8.%.%.%.8.8. . . . . . . . . . . . . . . .)  .                                                                                                                                                                                                        e e e e e e e e c 3 3 3 3 3 3 3 3 3 3 3 3 3 3 3 3 3 3 e 3 = = = > = = = = = = = = = = =                                               ",
"                                              G.G.G.S.S.S.S.S.S.S.S.S.S.S.S.S.S.S.F.F.F.S.F.F.F.S.S.S.S.F.F.F.F.F.F.F.F.F.F.F.F.F.F.                                                                                                                                                                                                        C.C.C.C.C.C.Z.C.C.C.C.C.C.C.C.C.C.C.C.C.C.C.C.C.C.C.C.B.B.B.B.B.B.B.B.B.B.                                                                                                                                                                                                                    8.8.8.8.8.8.8.8.8.8.8.8.8.8.8.%.%.%.%.8. . . . . . . . . . . . . . . . . .                                                                                                                                                                                                        e e e e e e e e 3 3 3 3 3 3 3 3 3 3 3 3 3 3 3 3 = = = = = = = = = = = = = = = > > = =                                               ",
"                                            G.G.G.G.G.S.S.S.S.S.S.S.S.S.S.S.S.S.S.S.F.F.S.F.S.F.S.S.S.S.F.F.F.F.F.F.F.F.F.F.F.F.F.                                                                                                                                                                                                          Z.C.C.C.C.C.Z.Z.C.C.C.C.C.C.C.C.C.C.C.C.C.C.C.C.C.C.C.C.B.B.B.B.B.B.B.B.                                                                                                                                                                                                                        8.8.8.8.8.8.8.8.8.8.8.8.8.8.8.%.%.%.8.8. . . . . . . . . . . . . . . . .                                                                                                                                                                                                          e e e e e e e e 3 3 3 3 3 3 3 3 3 3 3 3 3 3 3 3 = = = = = = = = = = = = = = = = = = =                                             ",
"                                          G.G.G.G.G.G.G.S.S.S.S.S.S.S.S.S.S.S.S.S.S.S.F.S.S.S.S.F.F.F.F.F.F.F.F.F.F.F.F.F.F.F.F.                                                                                                                                                                                                          Z.C.C.C.Z.Z.C.Z.Z.C.C.C.C.C.C.C.C.C.C.C.C.C.C.C.C.C.C.C.C.C.B.B.B.B.B.B.                                                                                                                                                                                                                            8.8.8.8.8.8.8.8.8.8.8.8.8.8.8.%.%.8.8.8. . . . . . . . . . . . . . . .%.                                                                                                                                                                                                          e e e e e e e e 3 3 3 3 3 3 3 3 3 3 3 3 3 3 3 3 3 3 = 3 3 = = = = = = = = = = = = = =                                           ",
"                                        G.G.G.G.G.G.G.G.G.S.S.S.S.S.S.S.S.S.S.S.S.S.S.S.S.S.S.S.S.F.F.F.F.F.F.F.F.F.F.F.F.F.F.                                                                                                                                                                                                            Z.C.C.Z.Z.Z.Z.Z.Z.C.C.C.C.C.C.C.C.C.C.C.C.C.C.C.C.C.C.C.C.C.C.B.B.B.B.B.                                                                                                                                                                                                                            t.8.8.8.8.8.8.8.8.8.8.8.8.8.8.8.%.%.%.8.8. . . . . . . . . . . . . . . .                                                                                                                                                                                                            e e e e e e e e 3 3 3 3 3 3 3 3 3 3 3 3 3 3 3 3 3 3 3 3 3 = = = = = = = = = = = = = &                                         ",
"                                        G.G.G.G.G.G.G.G.G.G.S.S.S.S.S.S.S.S.S.S.S.S.S.S.S.S.S.S.F.F.F.F.S.F.F.F.F.F.F.F.F.F.                                                                                                                                                                                                              Z.Z.C.Z.Z.Z.Z.C.C.C.C.Z.C.C.C.C.C.C.C.C.C.C.C.C.C.C.C.C.C.B.C.C.B.B.B.                                                                                                                                                                                                                                t.8.8.8.8.8.8.8.8.8.8.8.8.8.8.8.%.8.8.8.8. . . . . . . . . . . . . . .                                                                                                                                                                                                              e e e e e e e e c 3 3 3 3 3 3 3 3 3 3 3 3 3 3 3 = = = = 3 = = = = = = = = = = = = =                                         ",
"                                      G.G.G.G.G.G.G.G.G.G.G.G.S.S.S.S.S.S.S.S.S.S.S.S.S.S.S.F.F.F.S.F.F.S.F.F.F.S.F.F.F.F.                                                                                                                                                                                                              Z.Z.Z.C.Z.Z.Z.Z.C.C.C.C.Z.Z.C.C.C.C.C.C.C.C.C.C.C.C.C.C.C.C.B.B.C.C.B.                                                                                                                                                                                                                                  t.t.8.8.8.8.8.8.8.8.8.8.8.8.8.8.8.8.%.%.8.8. . . . . . . . . . . . . . .                                                                                                                                                                                                              e e e e e e e e c 3 3 3 3 3 3 3 3 3 3 3 3 3 3 3 = = = 3 3 = = = = = = = = = = = = =                                       ",
"                                    G.G.G.G.G.G.G.G.G.G.G.G.G.G.S.S.S.S.S.S.S.S.S.S.S.S.S.S.S.F.S.S.S.S.S.S.F.F.S.S.F.F.                                                                                                                                                                                                                Z.Z.Z.Z.C.C.Z.Z.Z.C.C.Z.C.Z.Z.C.C.C.C.C.C.C.C.C.C.C.C.C.C.C.B.B.C.C.C.                                                                                                                                                                                                                                    t.t.8.8.8.8.8.8.8.8.8.8.8.8.8.8.8.%.%.8.8.%. . . . . . . . . . . . . .                                                                                                                                                                                                                e e e e e e e e c 3 3 3 3 3 3 3 3 3 3 3 3 3 3 3 = = = 3 3 = = = = > > = = = = = = >                                     ",
"                                  P.G.G.G.G.G.G.G.G.G.G.G.G.G.G.G.S.S.S.S.S.S.S.S.S.S.S.S.S.S.S.S.S.S.S.S.S.F.F.S.S.S.                                                                                                                                                                                                                  Z.Z.Z.Z.Z.C.Z.Z.Z.Z.Z.Z.C.Z.Z.Z.C.C.C.C.C.C.C.C.C.C.C.C.C.C.C.B.C.C.                                                                                                                                                                                                                                        t.t.8.8.8.8.8.8.8.8.8.8.8.8.8.8.8.%.%.%.%.8. . . . . . . . . . . . .                                                                                                                                                                                                                  e e e e e e e e c 3 3 3 3 3 3 3 3 3 3 3 3 3 3 3 = 3 3 3 3 = = = = > > = = = = = = =                                   ",
"                                  P.P.G.G.G.G.G.G.G.G.G.G.G.G.G.G.G.S.S.S.S.S.S.S.S.S.S.S.S.S.S.S.F.F.S.S.S.F.F.F.S.                                                                                                                                                                                                                  Z.Z.Z.Z.Z.Z.Z.C.C.C.C.Z.Z.C.C.Z.C.C.C.C.C.C.C.C.C.C.C.C.C.C.C.C.C.B.B.                                                                                                                                                                                                                                        8.t.t.8.8.8.8.8.8.8.8.8.8.8.8.8.8.8.%.%.%.8.8. . . . . . . . . . . . .                                                                                                                                                                                                                  e e e e e e e e 3 3 3 3 3 3 3 3 3 3 3 3 3 3 3 3 = = = 3 3 = = = = = = = = = > = >                                   ",
"                                D.G.P.P.G.G.G.G.G.G.G.G.G.G.G.G.G.G.G.S.S.S.S.S.S.S.S.S.S.S.S.S.S.S.F.F.F.F.S.F.F.                                                                                                                                                                                                                    Z.Z.Z.Z.Z.Z.Z.Z.C.C.C.Z.Z.Z.Z.C.C.C.C.C.C.C.C.C.C.C.C.C.C.C.C.C.C.C.                                                                                                                                                                                                                                            t.t.t.8.8.8.8.8.8.8.8.8.8.8.8.8.8.8.%.%.%.8.8. . . . . . . . . . . .                                                                                                                                                                                                                    e e e e e e e e 3 3 3 3 3 3 3 3 3 3 3 3 3 3 3 3 3 = 3 3 3 = = = = = = = = = > = =                                 ",
"                              P.G.G.G.G.P.G.G.G.G.G.G.G.G.G.G.G.G.G.G.G.S.S.S.S.S.S.S.S.S.S.S.S.S.S.S.F.F.S.S.S.                                                                                                                                                                                                                      Z.Z.Z.Z.Z.Z.Z.Z.Z.C.C.Z.Z.Z.Z.C.C.Z.Z.Z.C.C.C.C.C.C.C.C.C.C.C.C.C.C.                                                                                                                                                                                                                                            t.t.t.t.8.8.8.8.8.8.8.8.8.8.8.8.8.8.8.%.%.8.8.8. . . . . . . . . . .                                                                                                                                                                                                                      e e e e e e e e 3 3 3 3 3 3 3 3 3 3 3 3 3 3 3 3 = = 3 3 3 = = = = = = = = = = = =                               ",
"                              P.P.G.G.G.P.P.G.G.G.G.G.G.G.G.G.G.G.G.G.G.G.S.S.S.S.S.S.S.S.S.S.S.S.S.S.S.S.S.S.                                                                                                                                                                                                                      Z.Z.Z.Z.Z.Z.Z.Z.Z.Z.Z.C.Z.Z.Z.Z.Z.C.Z.Z.Z.Z.C.C.C.C.C.C.C.C.C.C.C.C.                                                                                                                                                                                                                                                t.t.8.8.8.8.8.8.8.8.8.8.8.8.8.8.8.8.8.%.8.8.8.8. . . . . . . . . .%.                                                                                                                                                                                                                      e e e e e e e e 3 3 3 3 3 3 3 3 3 3 3 3 3 3 3 3 = 3 3 3 3 = = = = = = = = = = =                               ",
"                            P.P.P.P.P.G.P.P.P.G.G.G.G.G.G.G.G.G.G.G.G.G.G.G.S.S.S.S.S.S.S.S.S.S.S.S.S.S.S.S.                                                                                                                                                                                                                        Z.Z.Z.Z.Z.Z.Z.Z.Z.Z.Z.Z.C.C.Z.Z.Z.Z.Z.C.C.C.Z.C.C.C.C.C.C.C.C.C.C.C.                                                                                                                                                                                                                                                t.t.t.8.t.8.8.8.8.8.8.8.8.8.8.8.8.8.8.8.%.%.%.8.8. . . . . . . . . .                                                                                                                                                                                                                        e e e e e e e e 3 3 3 3 3 3 3 3 3 3 3 3 3 3 3 3 = = = = = = > > = = = = = = = =                             ",
"                          P.P.P.P.P.P.G.G.P.P.P.G.G.G.G.G.G.G.G.G.G.G.G.G.G.G.S.S.S.S.S.S.S.S.S.S.S.S.S.S.                                                                                                                                                                                                                          Z.Z.Z.Z.Z.Z.Z.Z.Z.Z.Z.Z.Z.C.Z.Z.Z.Z.Z.Z.C.C.Z.Z.C.C.C.C.C.C.C.C.C.                                                                                                                                                                                                                                                    t.t.8.t.t.8.8.8.8.8.8.8.8.8.8.8.8.8.8.8.%.%.8.8.8. . . . . . . . .                                                                                                                                                                                                                          e e e e e e e e 3 3 3 3 3 3 3 3 3 3 3 3 3 3 3 3 = = = = = > > = = = = > > = = =                           ",
"                        P.P.P.P.P.P.P.P.G.G.P.P.P.G.G.G.G.G.G.G.G.G.G.G.G.G.G.G.S.S.S.S.S.S.S.S.S.S.S.S.S.                                                                                                                                                                                                                        Z.Z.Z.Z.Z.Z.Z.Z.Z.Z.Z.Z.Z.Z.Z.Z.C.Z.Z.Z.C.C.C.Z.Z.Z.C.C.C.C.C.C.C.C.                                                                                                                                                                                                                                                    t.t.t.t.t.t.8.8.8.8.8.8.8.8.8.8.8.8.8.8.8.%.8.%.8.8. . . . . . . . .                                                                                                                                                                                                                        e e e e e e e e e c 3 3 3 3 3 3 3 3 3 3 3 3 3 3 3 = = 3 3 3 = = = = = = = = = = :                         ",
"                        P.P.P.P.P.P.P.P.P.G.P.P.P.P.G.G.G.G.G.G.G.G.G.G.G.G.G.G.G.S.S.S.S.S.S.S.S.S.S.S.                                                                                                                                                                                                                          Z.Z.Z.Z.Z.Z.Z.Z.Z.Z.Z.Z.Z.Z.Z.Z.C.Z.Z.Z.C.C.C.Z.Z.Z.Z.Z.C.C.C.C.C.C.                                                                                                                                                                                                                                                    # t.t.t.t.t.t.8.8.8.8.8.8.8.8.8.8.8.8.8.8.8.%.%.8.8.8. . . . . . . .                                                                                                                                                                                                                          e e e e e e e e e c 3 3 3 3 3 3 3 3 3 3 3 3 3 3 3 3 3 3 3 3 = = = = = = = = = =                         ",
"                      H.P.P.P.P.P.P.P.P.P.P.G.G.P.P.P.G.G.G.G.G.G.G.G.G.G.G.G.G.G.G.S.S.S.S.S.S.S.S.S.                                                                                                                                                                                                                            Z.Z.Z.Z.Z.Z.Z.Z.Z.Z.Z.Z.Z.Z.Z.Z.Z.C.C.C.C.Z.Z.Z.C.C.C.C.C.C.C.C.C.                                                                                                                                                                                                                                                        t.t.8.t.t.t.t.8.8.8.8.8.8.8.8.8.8.8.8.8.8.8.%.%.%.8.8. . . . . . .                                                                                                                                                                                                                            e e e e e e e e e 3 3 3 3 3 3 3 3 3 3 3 3 3 3 3 3 = = 3 3 3 = = = = = = = = = =                       ",
"                    I.P.P.P.P.P.P.P.P.P.P.P.P.G.P.G.P.P.G.G.G.G.G.G.G.G.G.G.G.G.G.G.G.S.S.S.S.S.S.S.                                                                                                                                                                                                                              Z.Z.Z.Z.Z.Z.Z.Z.Z.Z.Z.Z.Z.Z.Z.Z.Z.Z.C.C.C.Z.Z.Z.C.C.C.C.C.C.C.C.C.                                                                                                                                                                                                                                                        # t.t.t.8.t.t.t.8.8.8.8.8.8.8.8.8.8.8.8.8.8.8.%.%.%.8.%. . . . . .                                                                                                                                                                                                                              e e e e e e e e e 3 3 3 3 3 3 3 3 3 3 3 3 3 3 3 3 = 3 = 3 3 = = = = = = = = = >                     ",
"                    P.P.P.P.P.P.P.P.P.P.P.P.P.P.G.G.G.G.P.G.G.G.G.G.G.G.G.G.G.G.G.G.G.G.S.S.S.S.S.                                                                                                                                                                                                                              Z.Z.Z.Z.Z.Z.Z.Z.Z.Z.Z.Z.Z.Z.Z.Z.Z.Z.Z.Z.C.C.Z.Z.Z.Z.C.C.C.C.C.C.C.C.                                                                                                                                                                                                                                                        # # t.t.8.8.t.t.t.8.8.8.8.8.8.8.8.8.8.8.8.8.8.8.%.%.%.8.8. . . . .;.                                                                                                                                                                                                                              e e e e e e e e e 3 3 3 3 3 3 3 3 3 3 3 3 3 3 3 3 = = = = 3 = = = = = = = = =                     ",
"                  P.P.P.P.P.P.P.P.P.P.P.P.P.P.P.P.G.G.G.P.P.G.G.G.G.G.G.G.G.G.G.G.G.G.G.G.S.S.S.G.                                                                                                                                                                                                                              Z.Z.Z.Z.Z.Z.Z.Z.Z.Z.Z.Z.Z.Z.Z.Z.Z.Z.Z.Z.Z.C.Z.Z.Z.Z.C.C.C.C.C.C.C.                                                                                                                                                                                                                                                            # # t.t.8.t.t.t.8.8.8.8.8.8.8.8.8.8.8.8.8.8.8.8.%.%.8.8.8. . . . .                                                                                                                                                                                                                              e e e e e e e e e e 3 3 3 3 3 3 3 3 3 3 3 3 3 3 3 3 = = = 3 3 = = = = = = = = =                   ",
"                  P.P.P.P.P.P.P.P.P.P.P.P.P.P.P.P.P.G.G.P.P.G.G.G.G.G.G.G.G.G.G.G.G.G.G.G.G.S.S.                                                                                                                                                                                                                                Z.Z.Z.Z.Z.Z.Z.Z.Z.Z.Z.Z.Z.Z.Z.Z.Z.Z.Z.Z.Z.Z.C.C.Z.Z.C.C.C.C.Z.C.C.                                                                                                                                                                                                                                                            # # # t.t.t.t.8.8.t.8.8.8.8.8.8.8.8.8.8.8.8.8.8.8.%.8.8.%.%. . . .                                                                                                                                                                                                                                e e e e e e e e e e 3 3 3 3 3 3 3 3 3 3 3 3 3 3 3 3 = = 3 3 = = = = = = = = =                   ",
"                P.H.P.P.P.P.P.P.P.P.P.P.P.P.P.P.P.P.P.G.P.G.G.G.G.G.G.G.G.G.G.G.G.G.G.G.G.G.G.                                                                                                                                                                                                                                  Z.Z.Z.Z.Z.Z.Z.Z.Z.Z.Z.Z.Z.Z.Z.Z.Z.Z.Z.Z.Z.Z.Z.C.Z.Z.C.C.C.C.Z.Z.Z.                                                                                                                                                                                                                                                            @ # # # t.t.t.8.8.t.t.8.8.8.8.8.8.8.8.8.8.8.8.8.8.8.8.%.%.%.%. . .                                                                                                                                                                                                                                  e e e e e e e e e e 3 3 3 3 3 3 3 3 3 3 3 3 3 3 3 3 = 3 = = = = = = = = = = =                 ",
"              P.H.H.H.H.P.P.P.P.P.P.P.P.P.P.P.P.P.P.P.P.P.P.G.G.P.G.G.G.G.G.G.G.G.G.G.G.G.G.                                                                                                                                                                                                                                    Z.Z.Z.Z.Z.Z.Z.Z.Z.Z.Z.Z.Z.Z.Z.Z.Z.Z.Z.Z.Z.Z.Z.Z.Z.Z.Z.C.Z.Z.C.Z.                                                                                                                                                                                                                                                                # # # # t.t.8.8.t.t.t.8.8.8.8.8.8.8.8.8.8.8.8.8.8.8.%.%.%.8.8. .                                                                                                                                                                                                                                    e e e e e e e e e e c 3 3 3 3 3 3 3 3 3 3 3 3 3 3 3 3 3 = = 3 = = = = = = = :               ",
"              H.H.H.H.H.H.H.P.P.P.P.P.P.P.P.P.P.P.P.P.P.P.P.G.G.P.P.G.G.G.G.G.G.G.G.G.G.G.                                                                                                                                                                                                                                      Z.Z.Z.Z.Z.Z.Z.Z.Z.Z.Z.Z.Z.Z.Z.Z.Z.Z.Z.Z.Z.Z.Z.Z.Z.Z.Z.Z.Z.Z.Z.Z.                                                                                                                                                                                                                                                                # # # # # t.t.8.t.t.t.t.8.8.8.8.8.8.8.8.8.8.8.8.8.8.8.%.8.8.8.8.                                                                                                                                                                                                                                      e e e e e e e e e e c 3 3 3 3 3 3 3 3 3 3 3 3 3 3 3 3 = = 3 3 = = = = = = =               ",
"            H.H.H.H.P.P.P.H.H.P.P.P.P.P.P.P.P.P.P.P.P.P.P.P.G.G.P.P.P.G.G.G.G.G.G.G.G.G.G.                                                                                                                                                                                                                                    Z.Z.Z.Z.Z.Z.Z.Z.Z.Z.Z.Z.Z.Z.Z.Z.Z.Z.Z.Z.Z.Z.Z.Z.Z.Z.Z.Z.Z.Z.Z.C.C.                                                                                                                                                                                                                                                                # # # # # # t.t.8.t.8.t.t.8.8.8.8.8.8.8.8.8.8.8.8.8.8.8.%.%.%.%.8.                                                                                                                                                                                                                                    e e e e e e e e e e e 3 3 3 3 3 3 3 3 3 3 3 3 3 3 3 3 = = 3 3 3 = = = = = = =             ",
"          H.H.H.H.H.H.P.P.P.H.H.P.P.P.P.P.P.P.P.P.P.P.P.P.P.P.G.P.P.P.P.G.G.G.G.G.G.G.G.                                                                                                                                                                                                                                      Z.Z.Z.Z.Z.Z.Z.Z.Z.Z.Z.Z.Z.Z.Z.Z.Z.Z.Z.Z.Z.Z.Z.Z.Z.Z.Z.Z.Z.Z.Z.C.C.                                                                                                                                                                                                                                                                # # # # # # # t.t.t.8.8.8.t.8.8.8.8.8.8.8.8.8.8.8.8.8.8.8.%.%.%.8.                                                                                                                                                                                                                                      e e e e e e e e e e e 3 3 3 3 3 3 3 3 3 3 3 3 3 3 3 3 = 3 3 3 3 = = = = = = >           ",
"          H.H.H.H.H.H.H.P.P.P.P.H.P.P.P.P.P.P.P.P.P.P.P.P.P.P.P.G.G.P.P.P.G.G.G.G.G.G.                                                                                                                                                                                                                                        Z.Z.Z.Z.Z.Z.Z.Z.Z.Z.Z.Z.Z.Z.Z.Z.Z.Z.Z.Z.Z.Z.Z.Z.Z.Z.Z.Z.Z.Z.Z.C.Z.                                                                                                                                                                                                                                                                # # # # # # # # t.t.8.8.t.t.t.8.8.8.8.8.8.8.8.8.8.8.8.8.8.8.%.%.8.                                                                                                                                                                                                                                        e e e e e e e e e e e c 3 3 3 3 3 3 3 3 3 3 3 3 3 3 3 = = 3 3 3 = = = = = =           ",
"        H.H.H.H.H.H.H.H.H.P.P.P.H.H.P.P.P.P.P.P.P.P.P.P.P.P.P.P.P.G.G.P.P.P.G.G.G.G.                                                                                                                                                                                                                                          Z.Z.Z.Z.Z.Z.Z.Z.Z.Z.Z.Z.Z.Z.Z.Z.Z.Z.Z.Z.Z.Z.Z.Z.Z.Z.Z.Z.Z.Z.Z.C.                                                                                                                                                                                                                                                                    # # # # # # # # t.t.8.t.t.t.t.8.8.8.8.8.8.8.8.8.8.8.8.8.8.8.%.8.                                                                                                                                                                                                                                          e e e e e e e e e e e c 3 3 3 3 3 3 3 3 3 3 3 3 3 3 3 = = = 3 3 = = = = = =         ",
"        H.H.H.H.H.H.H.H.H.H.P.P.H.H.P.P.P.P.P.P.P.P.P.P.P.P.P.P.P.P.G.G.G.G.P.G.G.G.                                                                                                                                                                                                                                          Z.Z.Z.Z.Z.Z.Z.Z.Z.Z.Z.Z.Z.Z.Z.Z.Z.Z.Z.Z.Z.Z.Z.Z.Z.Z.Z.Z.Z.Z.Z.C.                                                                                                                                                                                                                                                                    # # # # # # # # # t.t.t.t.t.t.t.8.8.8.8.8.8.8.8.8.8.8.8.8.8.8.8.                                                                                                                                                                                                                                          e e e e e e e e e e e e 3 3 3 3 3 3 3 3 3 3 3 3 3 3 3 3 = = = = 3 = = = = =         ",
"      H.H.H.H.H.H.H.H.H.H.H.H.P.H.H.P.P.P.P.P.P.P.P.P.P.P.P.P.P.P.P.P.P.G.G.P.P.G.                                                                                                                                                                                                                                            A.A.Z.Z.Z.Z.Z.Z.Z.Z.Z.Z.Z.Z.Z.Z.Z.Z.Z.Z.Z.Z.Z.Z.Z.Z.Z.Z.Z.Z.Z.Z.                                                                                                                                                                                                                                                                    # # # # # # # # # # t.t.t.8.t.t.t.8.8.8.8.8.8.8.8.8.8.8.8.8.8.8.                                                                                                                                                                                                                                            e e e e e e e e e e e e 3 3 3 3 3 3 3 3 3 3 3 3 3 3 3 3 3 = = 3 3 = = = = =       ",
"    H.H.H.H.H.H.H.H.H.H.H.H.H.H.H.H.P.P.P.P.P.P.P.P.P.P.P.P.P.P.P.P.P.P.G.G.G.P.                                                                                                                                                                                                                                              A.A.A.Z.Z.Z.Z.Z.Z.Z.Z.Z.Z.Z.Z.Z.Z.Z.Z.Z.Z.Z.Z.Z.Z.Z.Z.Z.Z.Z.Z.Z.                                                                                                                                                                                                                                                                    # # # # # # # # # # # t.t.8.8.t.t.t.8.8.8.8.8.8.8.8.8.8.8.8.8.8.                                                                                                                                                                                                                                              e e e e e e e e e e e e 3 3 3 3 3 3 3 3 3 3 3 3 3 3 3 3 = = = 3 = = = = = =     ",
"    H.H.H.H.H.H.H.H.H.H.H.H.H.H.H.H.P.P.P.H.P.P.P.P.P.P.P.P.P.P.P.P.P.P.P.G.G.P.                                                                                                                                                                                                                                              A.A.A.A.Z.Z.Z.Z.Z.Z.Z.Z.Z.Z.Z.Z.Z.Z.Z.Z.Z.Z.Z.Z.Z.Z.Z.Z.Z.Z.Z.Z.                                                                                                                                                                                                                                                                    # # # # # # # # # # # # t.t.8.t.t.t.t.8.8.8.8.8.8.8.8.8.8.8.8.8.                                                                                                                                                                                                                                              e e e e e e e e e e e e e 3 3 3 3 3 3 3 3 3 3 3 3 3 3 3 3 = = 3 = 3 = = = =     ",
"  L.L.H.H.H.H.H.H.H.H.H.H.H.H.H.H.H.P.P.H.H.P.P.P.P.P.P.P.P.P.P.P.P.P.P.P.P.G.                                                                                                                                                                                                                                                Z.Z.Z.Z.Z.Z.Z.Z.Z.Z.Z.Z.Z.Z.Z.Z.Z.Z.Z.Z.Z.Z.Z.Z.Z.Z.Z.Z.Z.Z.Z.Z.                                                                                                                                                                                                                                                                    # # # # # # # # # # # # # t.t.8.8.t.t.t.8.8.8.8.8.8.8.8.8.8.8.8.                                                                                                                                                                                                                                                e e e e e e e e e e e e e 3 3 3 3 3 3 3 3 3 3 3 3 3 3 3 3 = = 3 3 3 = = = 3   ",
"  H.H.L.H.H.H.H.H.H.H.H.H.H.H.H.H.H.H.H.H.P.P.P.P.P.P.P.P.P.P.P.P.P.P.P.P.P.                                                                                                                                                                                                                                                A.A.Z.Z.Z.Z.Z.Z.Z.Z.Z.Z.Z.Z.Z.Z.Z.Z.Z.Z.Z.Z.Z.Z.Z.Z.Z.Z.Z.Z.Z.Z.Z.                                                                                                                                                                                                                                                                    1.# # # # # # # # # # # # # t.t.8.t.t.t.8.8.8.8.8.8.8.8.8.8.8.8.8.                                                                                                                                                                                                                                                e e e e e e e e e e e e e 3 3 3 3 3 3 3 3 3 3 3 3 3 3 3 3 = 3 3 3 3 = = =   ",
"  H.L.L.L.H.H.H.H.H.H.H.H.H.H.H.H.H.H.H.H.H.P.P.H.P.P.P.P.P.P.P.P.P.P.P.P.G.                                                                                                                                                                                                                                                A.A.A.Z.Z.Z.A.Z.Z.Z.Z.Z.Z.Z.Z.Z.Z.Z.Z.Z.Z.Z.Z.Z.Z.Z.Z.Z.Z.Z.Z.Z.                                                                                                                                                                                                                                                                        # # # # # # # # # # # # # # t.t.t.t.t.t.t.8.8.8.8.8.8.8.8.8.8.8.                                                                                                                                                                                                                                                e e e e e e e e e e e e e e c 3 3 3 3 3 3 3 3 3 3 3 3 3 3 3 3 = 3 = = = =   ",
"L.H.L.L.L.L.H.H.H.H.H.H.H.H.H.H.H.H.H.H.H.H.P.P.H.H.P.P.P.P.P.P.P.P.P.P.P.                                                                                                                                                                                                                                                  A.A.A.A.Z.Z.A.A.A.Z.Z.Z.Z.Z.Z.Z.Z.Z.Z.Z.Z.Z.Z.Z.Z.Z.Z.Z.Z.Z.Z.Z.                                                                                                                                                                                                                                                                        # # # # # # # # # # # # # # # t.t.8.t.t.t.t.8.8.8.8.8.8.8.8.8.8.                                                                                                                                                                                                                                                  e e e e e e e e e e e e e e c 3 3 3 3 3 3 3 3 3 3 3 3 3 3 3 = 3 3 3 = = = ",
"L.L.H.H.H.H.H.H.H.H.H.H.H.H.H.H.H.H.H.H.H.H.P.P.H.H.H.P.P.P.P.P.P.P.P.P.                                                                                                                                                                                                                                                    A.A.A.A.Z.Z.Z.Z.A.A.Z.Z.Z.Z.Z.Z.Z.Z.Z.Z.Z.Z.Z.Z.Z.Z.Z.Z.Z.Z.Z.Z.                                                                                                                                                                                                                                                                        # # # # # # # # # # # # # # # # t.t.8.8.t.t.t.8.8.8.8.8.8.8.8.8.                                                                                                                                                                                                                                                    e e e e e e e e e e e e e e c 3 3 3 3 3 3 3 3 3 3 3 3 3 3 3 = = = = 3 = ",
"L.L.L.H.H.H.H.H.H.H.H.H.H.H.H.H.H.H.H.H.H.H.H.P.H.H.H.H.P.P.P.P.P.P.P.P.                                                                                                                                                                                                                                                    A.A.A.A.A.Z.Z.Z.A.A.A.Z.Z.Z.Z.Z.Z.Z.Z.Z.Z.Z.Z.Z.Z.Z.Z.Z.Z.Z.Z.Z.                                                                                                                                                                                                                                                                        # # # # # # # # # # # # # # # # # t.t.t.t.t.t.t.8.8.8.8.8.8.8.@                                                                                                                                                                                                                                                     e e e e e e e e e e e e e e e c 3 3 3 3 3 3 3 3 3 3 3 3 3 3 3 = = = 3 e ",
"L.L.L.L.H.H.L.L.L.H.H.H.H.H.H.H.H.H.H.H.H.H.H.H.P.P.P.P.H.P.P.P.P.P.P.                                                                                                                                                                                                                                                      A.A.A.A.A.A.Z.Z.Z.Z.A.A.Z.Z.Z.Z.Z.Z.Z.Z.Z.Z.Z.Z.Z.Z.Z.Z.Z.Z.Z.Z.                                                                                                                                                                                                                                                                        # # # # # # # # # # # # # # # # # # t.t.t.t.t.t.t.8.8.8.8.8.8.8.                                                                                                                                                                                                                                                      e e e e e e e e e e e e e e e 3 3 3 3 3 3 3 3 3 3 3 3 3 3 3 3 = = = = ",
"L.L.L.L.L.L.L.L.L.L.H.H.H.H.H.H.H.H.H.H.H.H.H.H.H.P.P.P.H.H.P.P.P.P.P.                                                                                                                                                                                                                                                      A.A.A.A.A.A.Z.Z.Z.Z.A.A.A.Z.Z.Z.Z.Z.Z.Z.Z.Z.Z.Z.Z.Z.Z.Z.Z.Z.Z.Z.                                                                                                                                                                                                                                                                        # # # # # # # # # # # # # # # # # # # t.t.t.t.t.t.t.8.8.8.8.8.8.                                                                                                                                                                                                                                                      e e e e e e e e e e e e e e e e 3 3 3 3 3 3 3 3 3 3 3 3 3 3 3 3 = = = ",
"L.L.L.L.L.L.H.H.H.H.L.H.H.H.H.H.H.H.H.H.H.H.H.H.H.H.P.P.P.P.H.P.P.P.P.P.                                                                                                                                                                                                                                                    A.A.A.A.Z.A.A.A.Z.Z.A.Z.Z.Z.Z.Z.Z.Z.Z.Z.Z.Z.Z.Z.Z.Z.Z.Z.Z.Z.Z.Z.                                                                                                                                                                                                                                                                        # # # # # # # # # # # # # # # # # # # # t.t.8.8.t.t.t.8.8.8.8.8.                                                                                                                                                                                                                                                    c e e e e e e e e e e e e e e e e e 3 3 3 3 3 3 3 3 3 3 3 3 3 3 3 3 = = ",
"L.L.L.L.L.L.L.H.H.H.L.L.H.H.H.H.H.H.H.H.H.H.H.H.H.H.H.P.P.P.H.H.P.P.P.P.                                                                                                                                                                                                                                                    A.A.A.A.A.A.A.A.A.Z.A.A.Z.Z.Z.Z.Z.Z.Z.Z.Z.Z.Z.Z.Z.Z.Z.Z.Z.Z.Z.Z.                                                                                                                                                                                                                                                                        # # # # # # # # # # # # # # # # # # # # # t.t.8.8.t.t.t.8.8.8.8.                                                                                                                                                                                                                                                    e e e e e e e e e e e e e e e e e e e 3 3 3 3 3 3 3 3 3 3 3 3 3 3 3 3 > ",
"L.L.L.L.L.L.L.L.H.H.H.H.L.H.H.H.H.H.H.H.H.H.H.H.H.H.H.H.P.P.P.H.P.P.P.P.P.                                                                                                                                                                                                                                                  A.A.A.A.A.A.A.A.Z.Z.A.Z.Z.Z.A.A.Z.Z.Z.Z.Z.Z.Z.Z.Z.Z.Z.Z.Z.Z.Z.Z.                                                                                                                                                                                                                                                                        # # # # # # # # # # # # # # # # # # # # # # t.t.t.t.t.t.t.8.8.#                                                                                                                                                                                                                                                   e e e e e e e e e e e e e e e e e e e e e c 3 3 3 3 3 3 3 3 3 3 3 3 3 3 e ",
"  L.L.L.L.L.L.L.L.H.H.H.L.L.H.H.H.H.H.H.H.H.H.H.H.H.H.H.H.P.P.P.P.P.P.P.P.P.                                                                                                                                                                                                                                                A.A.A.A.A.A.A.A.Z.Z.A.A.Z.Z.A.A.A.Z.Z.Z.Z.Z.Z.Z.Z.Z.Z.Z.Z.Z.Z.Z.                                                                                                                                                                                                                                                                      i.# # # # # # # # # # # # # # # # # # # # # # # t.t.t.t.t.8.8.8.8.                                                                                                                                                                                                                                                e e e e e e e e e e e e e e e e e e e e e e e c 3 3 3 3 3 3 3 3 3 3 3 3 3   ",
"  L.L.L.L.L.L.L.L.L.H.H.H.H.H.H.H.H.H.H.H.H.H.H.H.H.H.H.H.H.P.P.P.P.P.P.P.P.                                                                                                                                                                                                                                                A.A.A.A.A.A.A.A.Z.Z.A.A.A.A.A.A.A.Z.Z.Z.Z.Z.Z.Z.Z.Z.Z.Z.Z.Z.Z.Z.Z.                                                                                                                                                                                                                                                                    # # # # # # # # # # # # # # # # # # # # # # # # # t.t.t.8.8.8.t.2.                                                                                                                                                                                                                                                e e d d e e e e e e e e e e e e e e e e e e e e c 3 3 3 3 3 3 3 3 3 3 3 3   ",
"  L.L.L.L.L.L.L.L.L.L.H.H.H.H.L.H.H.H.H.H.H.H.H.H.H.H.H.H.H.H.P.P.H.H.P.P.P.P.                                                                                                                                                                                                                                                A.A.A.A.A.A.A.A.Z.A.A.A.A.A.A.Z.Z.A.Z.Z.Z.Z.Z.Z.Z.Z.Z.Z.Z.Z.Z.Z.                                                                                                                                                                                                                                                                    # # # # # # # # # # # # # # # # # # # # # # # # # # t.t.t.8.8.t.                                                                                                                                                                                                                                                d d e d e e e e e e e e e e e e e e e e e e e e e e c 3 3 3 3 3 3 3 3 3 3 >   ",
"    L.L.L.L.L.L.L.L.L.L.H.H.L.L.L.H.H.H.H.H.H.H.H.H.H.H.H.H.H.H.P.P.P.P.H.P.P.P.                                                                                                                                                                                                                                              A.A.A.A.A.A.A.A.A.A.A.A.A.Z.Z.Z.Z.A.A.Z.Z.Z.Z.Z.Z.Z.Z.Z.Z.Z.Z.Z.                                                                                                                                                                                                                                                                    # # # # # # # # # # # # # # # # # # # # # # # # # # # t.t.t.t.t.                                                                                                                                                                                                                                              d d d d d d e e d e e e e e e e e e e e e e e e e e e e c 3 3 3 3 3 3 3 3 3     ",
"    L.L.L.L.L.L.L.L.L.L.L.H.L.L.L.L.H.H.H.H.H.H.H.H.H.H.H.H.H.H.H.P.H.H.H.H.P.P.                                                                                                                                                                                                                                              A.A.A.A.A.A.A.A.A.A.A.A.A.Z.Z.Z.Z.A.A.A.Z.Z.Z.Z.Z.Z.Z.Z.Z.Z.Z.Z.                                                                                                                                                                                                                                                                    # # # # # # # # # # # # # # # # # # # # # # # # # # # # t.t.t.t.                                                                                                                                                                                                                                              d d d d d d e e d d e e e e e e e e e e e e e e e e e e e c 3 3 3 3 3 3 3 e     ",
"      L.L.L.L.L.L.L.L.L.L.L.H.H.H.H.L.H.H.H.H.H.H.H.H.H.H.H.H.H.H.H.H.H.P.H.H.P.P.                                                                                                                                                                                                                                            A.A.A.A.A.A.A.A.A.A.A.Z.Z.Z.Z.A.A.Z.Z.Z.Z.Z.Z.Z.Z.Z.Z.Z.Z.Z.Z.Z.                                                                                                                                                                                                                                                                    # # # # # # # # # # # # # # # # # # # # # # # # # # # # # t.t.t.                                                                                                                                                                                                                                            d d d d d d d e e d d d e e e e e e e e e e e e e e e e e e e 3 3 3 3 3 3 3       ",
"        L.L.L.L.L.L.L.L.L.L.L.H.H.H.L.L.H.H.H.H.H.H.H.H.H.H.H.H.H.H.H.H.P.P.H.H.P.P.                                                                                                                                                                                                                                          A.A.A.A.A.A.A.A.A.A.A.A.Z.Z.Z.A.A.Z.Z.Z.Z.A.Z.Z.Z.Z.Z.Z.Z.Z.Z.Z.                                                                                                                                                                                                                                                                    $ # # # # # # # # # # # # # # # # # # # # # # # # # # # # # t.t.                                                                                                                                                                                                                                          b d d d d d d d d e d d d d e e e e e e e e e e e e e e e e e e e 3 3 3 3 3         ",
"        L.L.L.L.L.L.L.L.L.L.L.L.H.H.H.H.L.H.H.H.H.H.H.H.H.H.H.H.H.H.H.H.P.P.P.P.H.P.                                                                                                                                                                                                                                          A.A.A.A.A.A.A.A.A.A.A.A.A.Z.A.A.A.A.Z.Z.Z.A.A.Z.Z.Z.Z.Z.Z.Z.Z.Z.                                                                                                                                                                                                                                                                    $ $ # $ $ # # # # # # # # # # # # # # # # # # # # # # # # # # t.                                                                                                                                                                                                                                          d d d d d d d d d d e e d d d e e e e e e e e e e e e e e e e e e e c 3 3 3         ",
"          L.L.L.L.L.L.L.L.L.L.L.L.H.H.H.H.L.H.H.H.H.H.H.H.H.H.H.H.H.H.H.H.P.P.P.H.H.P.                                                                                                                                                                                                                                        A.A.A.A.A.A.A.A.A.A.A.A.A.A.Z.A.A.Z.A.Z.Z.A.A.A.Z.Z.Z.Z.Z.Z.Z.Z.Z.                                                                                                                                                                                                                                                                $ $ $ $ $ $ $ # $ # # # # # # # # # # # # # # # # # # # # # # # t.                                                                                                                                                                                                                                        d d d d d d d d d d d d e e e d d e e e e e e e e e e e e e e e e e e e c 3           ",
"          L.L.L.L.L.L.L.L.L.L.L.L.L.H.H.H.H.H.H.H.H.H.H.H.H.H.H.H.H.H.H.H.H.P.P.H.P.P.P.                                                                                                                                                                                                                                      A.A.A.A.A.A.A.A.A.A.A.A.A.A.A.Z.Z.A.A.A.A.A.A.A.Z.Z.Z.Z.Z.Z.Z.Z.Z.                                                                                                                                                                                                                                                                # $ $ $ $ # # # # # # # # # # # # # # # # # # # # # # # # # # # #                                                                                                                                                                                                                                       d d d d d d d d d d d d d d e e e e d e e e e e e e e e e e e e e e e e e e 3           ",
"            L.L.L.L.L.L.L.L.L.L.L.L.L.H.H.H.H.H.H.H.H.H.H.H.H.H.H.H.H.H.H.H.H.P.H.P.P.P.P.                                                                                                                                                                                                                                    A.A.A.A.A.A.A.A.A.A.A.A.A.A.A.A.Z.A.A.A.A.Z.A.Z.Z.A.Z.Z.Z.Z.Z.Z.Z.                                                                                                                                                                                                                                                                $ $ $ $ $ $ # # # # # # # # # # # # # # # # # # # # # # # # # # @                                                                                                                                                                                                                                     d d d d d d d d d d d d d d d d d e e d d e e e e e e e e e e e e e e e e e e             ",
"              L.L.L.L.L.L.L.L.L.L.L.L.L.L.L.H.H.L.H.H.H.H.H.H.H.H.H.H.H.H.H.H.H.H.H.P.P.P.                                                                                                                                                                                                                                      A.A.A.A.A.A.A.A.A.A.A.A.A.A.A.A.A.Z.A.A.A.Z.Z.Z.A.A.Z.Z.Z.Z.Z.Z.                                                                                                                                                                                                                                                                $ $ $ $ $ $ $ # # # # $ # # # # # # # # # # # # # # # # # # # #                                                                                                                                                                                                                                       A A d d d d d d d d d d d d d d d e e e d d e e e e e e e e e e e e e e e e               ",
"              L.L.L.L.L.L.L.L.L.L.L.L.L.L.L.H.H.L.L.H.H.H.H.H.H.H.H.H.H.H.H.H.H.H.H.P.P.P.P.                                                                                                                                                                                                                                    A.A.A.A.A.A.A.A.A.A.A.A.A.A.A.A.A.Z.A.A.A.Z.Z.Z.A.A.A.Z.Z.Z.Z.Z.                                                                                                                                                                                                                                                                $ $ $ $ $ $ $ $ # # # $ $ # # # # # # # # # # # # # # # # # # #                                                                                                                                                                                                                                     A A A A d d d d d d d d d d d d d d d e e d d d e e e e e e e e e e e e e e e               ",
"                L.L.L.L.L.L.L.L.L.L.L.L.L.L.H.H.H.H.L.H.H.H.H.H.H.H.H.H.H.H.H.H.H.H.P.P.P.P.P.                                                                                                                                                                                                                                  A.A.A.A.A.A.A.A.A.A.A.A.A.A.A.A.A.A.Z.Z.A.A.A.A.Z.Z.Z.Z.Z.Z.Z.Z.Z.                                                                                                                                                                                                                                                            $ $ $ $ $ $ $ $ $ $ # # # # $ # # # # # # # # # # # # # # # # # #                                                                                                                                                                                                                                   A d d d d A d d d d d d d d d d d d d d d e e d d e e e e e e e e e e e e e e                 ",
"                  L.L.L.L.L.L.L.L.L.L.L.L.L.L.H.H.H.H.L.H.H.H.H.H.H.H.H.H.H.H.H.H.H.H.P.P.P.P.P.                                                                                                                                                                                                                                A.A.A.A.A.A.A.A.A.A.A.A.A.A.A.A.A.A.A.Z.A.A.A.A.Z.Z.Z.Z.Z.Z.Z.Z.Z.                                                                                                                                                                                                                                                            $ $ $ $ $ $ $ $ $ $ $ # # # # $ # # # # # # # # # # # # # # # # #                                                                                                                                                                                                                                 A A A d d d A A d d d d d d d d d d d d d d d e d d e e e e e e e e e e e e e                   ",
"                  L.L.L.L.L.L.L.L.L.L.L.L.L.L.L.H.H.L.L.L.H.H.H.H.H.H.H.H.H.H.H.H.H.H.H.H.H.P.P.                                                                                                                                                                                                                                A.A.A.A.A.A.A.A.A.A.A.A.A.A.A.A.A.A.A.A.Z.A.Z.Z.A.Z.Z.Z.A.Z.Z.Z.Z.                                                                                                                                                                                                                                                            $ $ $ $ $ $ $ $ $ $ $ # # # # # # # # # # # # # # # # # # # # # i.                                                                                                                                                                                                                                A A A A d d d A A d d d d d d d d d d d d d d d d d d e d e e e e e e e e e e                   ",
"                    L.L.L.L.L.L.L.L.L.L.L.L.L.L.L.H.L.L.L.L.H.H.H.H.H.H.H.H.H.H.H.H.H.H.H.H.H.H.H.                                                                                                                                                                                                                                A.A.A.A.A.A.A.A.A.A.A.A.A.A.A.A.A.A.A.A.Z.Z.Z.A.A.Z.Z.A.A.A.Z.Z.Z.                                                                                                                                                                                                                                                        $ $ $ $ $ $ $ $ $ $ $ $ $ # # # # # # # # # # # # # # # # # # # #                                                                                                                                                                                                                                 A A A A A A d A A A A d d d d d d d d d d d d d d d d d e d d e e e e e e e e                     ",
"                      L.L.L.L.L.L.L.L.L.L.L.L.L.L.L.H.L.H.H.H.H.H.H.H.H.H.H.H.H.H.H.H.H.H.H.H.P.P.P.                                                                                                                                                                                                                              A.A.A.A.A.A.A.A.A.A.A.A.A.A.A.A.A.A.A.A.A.Z.Z.A.A.Z.Z.Z.Z.A.A.Z.Z.                                                                                                                                                                                                                                                        $ $ $ $ $ $ $ $ $ $ $ $ $ $ $ # # # # # # # # # # # # # # # # # #                                                                                                                                                                                                                               A A A A A A A A d d A A A d d d d d d d d d d d d d d d e e d d d e e e e e e e                     ",
"                      L.L.L.L.L.L.L.L.L.L.L.L.L.L.L.L.L.H.H.H.H.H.H.H.H.H.H.H.H.H.H.H.H.H.H.H.H.P.P.P.                                                                                                                                                                                                                            A.A.A.A.A.A.A.A.A.A.A.A.A.A.A.A.A.A.A.A.A.A.Z.A.A.A.Z.Z.Z.A.A.Z.Z.                                                                                                                                                                                                                                                        $ $ $ $ $ $ $ $ $ $ $ $ $ # $ $ # # # # $ # # # # # # # # # # # #                                                                                                                                                                                                                             A A A A A A A A A A d A A A A d d d d d d d d d d d d d d d e d d d d e e e e e                       ",
"                        L.L.L.L.L.L.L.L.L.L.L.L.L.L.L.L.H.H.L.L.L.H.H.H.H.H.H.H.H.H.H.H.H.H.H.H.P.P.P.P.                                                                                                                                                                                                                          A.A.A.A.A.A.A.A.A.A.A.A.A.A.A.A.A.A.A.A.A.A.A.A.A.A.A.Z.Z.Z.Z.A.A.Z.                                                                                                                                                                                                                                                    $ d.$ $ $ $ $ $ $ $ $ $ $ $ # $ $ $ # # $ $ $ # # # # # # # # # # #                                                                                                                                                                                                                           A A A A A A A A A A A A d d A A A d d d d d d d d d d d d d d d e e d d e e e e                         ",
"                          L.L.L.L.L.L.L.L.L.L.L.L.L.L.L.L.L.L.L.L.L.H.H.H.H.H.H.H.H.H.H.H.H.H.H.H.P.P.P.                                                                                                                                                                                                                          A.A.A.A.A.A.A.A.A.A.A.A.A.A.A.A.A.A.A.A.A.A.A.A.A.A.A.Z.Z.Z.Z.A.A.A.                                                                                                                                                                                                                                                    $ $ $ $ $ $ $ $ $ $ $ $ $ $ $ $ $ $ $ # $ $ $ # # # # # # # # # # 1.                                                                                                                                                                                                                        A A A A A A A A A A A A A A d d d A A d d d d d d d d d d d d d d d e e e e e e c                         ",
"                          L.L.L.L.L.L.L.L.L.L.L.L.L.L.L.L.L.H.H.H.H.L.H.H.H.H.H.H.H.H.H.H.H.H.H.H.H.P.P.P.                                                                                                                                                                                                                          A.A.A.A.A.A.A.A.A.A.A.A.A.A.A.A.A.A.A.A.A.A.A.A.Z.A.A.A.Z.Z.A.Z.Z.                                                                                                                                                                                                                                                  d.$ $ $ $ $ $ $ $ $ $ $ $ $ $ $ $ $ $ $ $ # # # $ # # # # # # # # #                                                                                                                                                                                                                           A A A A A A A A A A A A A A A d d d d d d d d d d d d d d d d d d d d e e e e d                           ",
"                            L.L.L.L.L.L.L.L.L.L.L.L.L.L.L.L.L.H.H.H.L.L.H.H.H.H.H.H.H.H.H.H.H.H.H.H.H.P.P.P.                                                                                                                                                                                                                        A.A.A.A.A.A.A.A.A.A.A.A.A.A.A.A.A.A.A.A.A.A.A.A.A.A.A.A.A.Z.Z.Z.Z.Z.                                                                                                                                                                                                                                                $ $ $ $ $ $ $ $ $ $ $ $ $ $ $ $ $ $ $ $ $ $ # # $ # # # # # # # # #                                                                                                                                                                                                                         U A A A A A A A A A A A A A A A A d d d d d d d d d d d d d d d d d d d d e e d                             ",
"                              L.L.L.L.L.L.L.L.L.L.L.L.L.L.L.L.L.H.H.H.H.L.H.H.H.H.H.H.H.H.H.H.H.H.H.H.H.H.H.P.                                                                                                                                                                                                                      F.A.A.A.A.A.A.A.A.A.A.A.A.A.A.A.A.A.A.A.A.A.A.A.A.A.A.A.Z.Z.A.Z.Z.Z.                                                                                                                                                                                                                                                $ $ $ $ $ $ $ $ $ $ $ $ $ $ $ $ $ $ $ $ $ $ $ # $ # # # # # # # # #                                                                                                                                                                                                                       A A A A A A A A A A A A A A A A A A A A A d A A d d d d d d d d d d d d d d d e                               ",
"                              L.L.L.L.L.L.L.L.L.L.L.L.L.L.L.L.L.L.H.H.H.H.L.H.H.H.H.H.H.H.H.H.H.H.H.H.H.H.H.H.P.                                                                                                                                                                                                                      A.A.A.A.A.A.A.A.A.A.A.A.A.A.A.A.A.A.A.A.A.A.A.A.A.A.A.Z.Z.A.A.Z.Z.Z.                                                                                                                                                                                                                                            d.$ $ $ $ d.$ $ $ $ $ $ $ $ $ $ $ $ $ $ $ $ $ $ $ # # # # # # # # #                                                                                                                                                                                                                       U A A A A A A A A A A A A A A A A A A A A A A A A d d d d d d d d d d d d d d d d                               ",
"                                L.L.K.L.L.L.L.L.L.L.L.L.L.L.L.L.L.L.H.H.H.H.H.H.H.H.H.H.H.H.H.H.H.H.H.H.H.H.P.P.P.                                                                                                                                                                                                                    A.A.A.A.A.A.A.A.A.A.A.A.A.A.A.A.A.A.A.A.A.A.A.A.A.A.A.Z.Z.A.A.A.Z.Z.                                                                                                                                                                                                                                            d.d.$ $ $ d.$ $ $ $ $ $ $ $ $ $ $ $ $ $ $ $ $ $ $ # # # # # # # # #                                                                                                                                                                                                                     U U A A A U U A A A A A A A A A A A A A A A A A A d d d d d d d d d d d d d d d d                                 ",
"                                  L.K.K.L.L.L.L.L.L.L.L.L.L.L.L.L.L.L.H.H.H.H.H.H.H.H.H.H.H.H.H.H.H.H.H.H.H.H.P.P.P.                                                                                                                                                                                                                  A.A.A.A.A.A.A.A.A.A.A.A.A.A.A.A.A.A.A.A.A.A.A.A.A.A.A.A.Z.Z.A.A.A.Z.Z.                                                                                                                                                                                                                                        d.d.d.$ $ $ d.d.$ $ $ $ $ $ $ $ $ $ $ $ $ $ $ $ $ $ $ $ # # # # # # #                                                                                                                                                                                                                   U U U U A A U U U A A A A A A A A A A A A A A A A A d d d d d d d d d d d d d d d                                   ",
"                                  L.L.K.L.L.L.L.L.L.L.L.L.L.L.L.L.L.L.L.L.L.H.H.L.H.H.H.H.H.H.H.H.H.H.H.H.H.H.H.P.P.J.                                                                                                                                                                                                                  A.A.A.A.A.A.A.A.A.A.A.A.A.A.A.A.A.A.A.A.A.A.A.A.A.A.A.A.Z.Z.A.A.A.A.                                                                                                                                                                                                                                        d.d.d.d.$ $ d.d.d.$ $ $ $ $ $ $ $ $ $ $ $ $ $ $ $ $ $ $ $ $ $ $ # #                                                                                                                                                                                                                   U U U U U U U U U A A A A A A A A A A A A A A A A A A A A A A A d d d d d d d d d d                                   ",
"                                    L.L.L.L.L.L.L.L.L.L.L.L.L.L.L.L.L.L.L.L.H.H.L.L.H.H.H.H.H.H.H.H.H.H.H.H.H.H.H.P.P.                                                                                                                                                                                                                  A.A.A.A.A.A.A.A.A.A.A.A.A.A.A.A.A.A.A.A.A.A.A.A.A.A.A.A.A.Z.A.A.A.A.Z.                                                                                                                                                                                                                                    d.d.d.d.d.d.$ d.d.d.d.$ $ $ $ $ $ $ $ $ $ $ $ $ $ $ # $ $ $ $ $ $ $ $                                                                                                                                                                                                                 U U U U U U U U U U A A U A A A A A A A A A A A A A A A A A A A A A d d d d d d d d                                     ",
"                                      K.L.L.L.L.L.L.L.L.L.L.L.L.L.L.L.L.L.L.H.H.H.H.L.H.H.H.H.H.H.H.H.H.H.H.H.H.H.H.P.P.                                                                                                                                                                                                                A.A.A.A.A.A.A.A.A.A.A.A.A.A.A.A.A.A.A.A.A.A.A.A.A.A.A.A.A.A.A.A.A.A.A.Z.                                                                                                                                                                                                                                d.d.d.d.d.d.d.d.d.d.$ $ $ $ $ $ $ $ $ $ $ $ $ $ $ $ $ $ $ $ $ $ $ # # i.                                                                                                                                                                                                              U U U U U U U U U U A A A U U A A A A A A A A A A A A A A A A d d d d A d d d d d d                                       ",
"                                        K.L.L.L.L.L.L.L.L.L.L.L.L.L.L.L.L.L.L.H.H.H.L.L.H.H.H.H.H.H.H.H.H.H.H.H.H.H.H.P.P.                                                                                                                                                                                                                A.A.A.A.A.A.A.A.A.A.A.A.A.A.A.A.A.A.A.A.A.A.A.A.A.A.A.A.A.A.Z.A.A.A.A.                                                                                                                                                                                                                                d.d.d.d.d.d.d.d.d.d.$ $ $ d.$ $ $ $ $ $ $ $ $ $ $ $ $ $ $ $ $ $ $ $ #                                                                                                                                                                                                                 U U U U U U U U U U U A A U U U A A A A A A A A A A A A A A A A d d d A A d d d d                                         ",
"                                        K.K.L.L.L.L.L.L.L.L.L.L.L.L.L.L.L.L.L.L.H.H.L.L.H.H.H.H.H.H.H.H.H.H.H.H.H.H.H.H.P.P.                                                                                                                                                                                                              A.A.A.A.A.A.A.A.A.A.A.A.A.A.A.A.A.A.A.A.A.A.A.A.A.A.A.A.A.A.A.Z.A.Z.Z.Z.                                                                                                                                                                                                                            b.d.d.d.d.d.d.d.d.d.d.$ $ d.d.d.$ $ $ $ $ $ $ $ $ $ $ $ $ $ $ $ $ $ $ #                                                                                                                                                                                                               U U U U U U U U U U U U U A A A U U A A A A A A A A A A A A A A A A d d d A d d d d                                         ",
"                                          K.L.L.L.L.L.L.L.L.L.L.L.L.L.L.L.L.L.L.L.H.L.L.L.L.H.H.H.H.H.H.H.H.H.H.H.H.H.H.H.P.P.                                                                                                                                                                                                            A.A.A.A.A.A.A.A.A.A.A.A.A.A.A.A.A.A.A.A.A.A.A.A.A.A.A.A.A.A.A.A.Z.Z.Z.A.                                                                                                                                                                                                                            d.d.d.d.d.d.d.d.d.d.d.d.$ d.d.d.d.$ $ $ $ $ $ $ $ $ $ $ $ $ $ $ $ $ # #                                                                                                                                                                                                             U U U U U U U U U U U U U U U A A U U U A A A A A A A A A A A A A A A A d A A A d d                                           ",
"                                            L.L.L.L.L.L.L.L.L.L.L.L.L.L.L.L.L.L.L.L.H.H.H.H.L.H.H.H.H.H.H.H.H.H.H.H.H.H.H.H.P.P.                                                                                                                                                                                                            F.F.A.A.A.A.A.A.A.A.A.A.A.A.A.A.A.A.A.A.A.A.A.A.A.A.A.A.A.A.A.A.Z.Z.A.A.                                                                                                                                                                                                                        d.d.d.d.d.d.d.d.d.d.d.d.d.d.d.d.d.d.d.$ $ $ $ $ $ $ $ $ $ $ $ $ $ $ # #                                                                                                                                                                                                             U U U U U U U U U U U U U U U U U A U A U U A A A A A A A A A A A A A A A A d d A A                                             ",
"                                              L.K.L.L.L.L.L.L.L.L.L.L.L.L.L.L.L.L.L.L.H.H.H.H.L.H.H.H.H.H.H.H.H.H.H.H.H.H.H.H.P.P.                                                                                                                                                                                                          F.F.F.A.A.A.A.A.A.A.A.A.A.A.A.A.A.A.A.A.A.A.A.A.A.A.A.A.A.A.A.A.A.Z.A.A.Z.                                                                                                                                                                                                                    d.d.d.d.d.d.d.d.d.d.d.d.d.d.d.d.d.d.d.d.d.$ $ $ $ $ $ $ $ $ $ $ $ $ $ $ i.                                                                                                                                                                                                          U U U U U U U U U U U U U U U U U U U A A U U A A A A A A A A A A A A A A A A A d A                                               ",
"                                                K.K.L.L.L.L.L.L.L.L.L.L.L.L.L.L.L.L.L.L.H.H.H.H.H.H.H.H.H.H.H.H.H.H.H.H.H.H.H.H.P.P.                                                                                                                                                                                                          F.F.F.A.A.A.A.A.A.A.A.A.A.A.A.A.A.A.A.A.A.A.A.A.A.A.A.A.A.A.A.A.A.A.A.A.A.                                                                                                                                                                                                                b.d.d.d.d.d.d.d.d.d.d.d.d.d.d.d.d.d.$ $ d.d.d.$ $ $ $ $ $ $ $ $ $ $ $ $ $                                                                                                                                                                                                           ) U U ) ) U U U U U U U U U U U U U U U U A U U U U A A A A A A A A A A A A A A A A d                                               ",
"                                                K.K.L.L.L.L.L.L.L.L.L.L.L.L.L.L.L.L.L.L.L.H.H.H.H.H.H.H.H.H.H.H.H.H.H.H.H.H.H.H.H.P.J.                                                                                                                                                                                                        F.F.F.F.A.A.A.A.A.A.A.A.A.A.A.A.A.A.A.A.A.A.A.A.A.A.A.A.A.A.A.A.A.A.A.A.A.                                                                                                                                                                                                                d.d.d.d.d.d.d.d.d.d.d.d.d.d.d.d.d.d.d.$ d.d.d.d.$ $ $ $ $ $ $ $ $ $ $ $ $                                                                                                                                                                                                         U ) ) ) ) ) U U U U U U U U U U U U U U U U U U U U U U A A A A A A A A A A A A A A A                                                 ",
"                                                  K.L.L.L.L.L.L.L.L.L.L.L.L.L.L.L.L.L.L.L.L.H.H.H.H.L.H.H.H.H.H.H.H.H.H.H.H.H.H.H.H.P.P.                                                                                                                                                                                                        A.A.A.F.A.A.A.A.A.A.A.A.A.A.A.A.A.A.A.A.A.A.A.A.A.A.A.A.A.A.A.A.A.A.Z.A.A.                                                                                                                                                                                                            b.d.d.d.d.b.d.d.d.d.d.d.d.d.d.d.d.d.d.d.d.$ $ d.d.d.$ $ $ $ $ $ $ $ $ $ $                                                                                                                                                                                                         U U ) ) U U U U ) U U U U U U U U U U U U U U U U A A A A A A A A A A A A A A A A A A                                                   ",
"                                                    K.L.L.L.L.L.L.L.L.L.L.L.L.L.L.L.L.L.L.L.L.H.H.H.H.L.H.H.H.H.H.H.H.H.H.H.H.H.H.H.H.P.P.                                                                                                                                                                                                      F.A.A.A.F.A.A.A.A.A.A.A.A.A.A.A.A.A.A.A.A.A.A.A.A.A.A.A.A.A.A.A.A.A.A.A.A.A.                                                                                                                                                                                                        b.b.b.d.d.d.b.b.d.d.d.d.d.d.d.d.d.d.d.d.d.d.d.$ d.d.d.d.$ $ $ $ $ $ $ $ $ $                                                                                                                                                                                                       ) ) U ) ) U ) U U ) U U U U U U U U U U U U U U U U U A A A A U A A A A A A A A A A A                                                     ",
"                                                      K.K.K.L.L.K.L.L.L.L.L.L.L.L.L.L.L.L.L.L.L.H.H.L.L.L.H.H.H.H.H.H.H.H.H.H.H.H.H.H.H.P.P.                                                                                                                                                                                                      A.A.A.F.F.A.A.A.A.A.A.A.A.A.A.A.A.A.A.A.A.A.A.A.A.A.A.A.A.A.A.A.A.A.A.A.A.Z.                                                                                                                                                                                                    b.b.b.b.b.d.d.b.b.b.d.d.d.d.d.d.d.d.d.d.d.d.d.d.d.$ $ $ $ d.$ $ $ $ $ $ $ $                                                                                                                                                                                                     ) ) ) ) ) U U U ) ) U ) ) U U U U U U U U U U U U U U U U U A A U U U A A A A A A A A A                                                       ",
"                                                        K.K.K.L.K.K.L.L.L.L.L.L.L.L.L.L.L.L.L.L.L.H.L.L.L.L.H.H.H.H.H.H.H.H.H.H.H.H.H.H.H.P.P.                                                                                                                                                                                                    F.A.A.A.F.F.A.A.A.A.A.A.A.A.A.A.A.A.A.A.A.A.A.A.A.A.A.A.A.A.A.A.A.A.A.A.A.Z.Z.                                                                                                                                                                                                b.b.b.b.b.b.b.d.d.b.b.b.d.d.d.d.d.d.d.d.d.d.d.d.d.d.d.$ $ $ $ d.$ $ $ $ $ $ $                                                                                                                                                                                                   @.) ) ) ) ) ) U ) ) ) ) ) ) U U ) U U U U U U U U U U U U U U U A A U U U A A A A A A A                                                         ",
"                                                        K.K.K.K.K.K.K.L.L.L.L.L.L.L.L.L.L.L.L.L.L.L.H.L.H.H.H.H.H.H.H.H.H.H.H.H.H.H.H.H.H.H.P.P.                                                                                                                                                                                                    F.F.F.F.F.F.A.A.A.A.A.A.A.A.A.A.A.A.A.A.A.A.A.A.A.A.A.A.A.A.A.A.A.A.A.A.Z.Z.A.                                                                                                                                                                                            b.b.b.b.b.b.b.b.b.d.b.b.b.b.d.d.d.d.d.d.d.d.d.d.d.d.d.d.d.d.d.d.d.d.$ $ $ $ $                                                                                                                                                                                                   ) ) ) ) ) ) ) ) ) ) ) ) ) ) U U U ) ) U U U U U U U U U U U U U U U A A A U U A A A A A A                                                         ",
"                                                          K.K.K.K.L.K.K.L.L.L.L.L.L.L.L.L.L.L.L.L.L.L.L.H.H.H.H.H.H.H.H.H.H.H.H.H.H.H.H.H.H.H.P.P.                                                                                                                                                                                                  F.F.F.F.A.A.F.A.A.A.A.A.A.A.A.A.A.A.A.A.A.A.A.A.A.A.A.A.A.A.A.A.A.A.A.A.A.Z.A.A.                                                                                                                                                                                        b.b.b.b.b.b.b.b.b.b.b.b.d.d.b.b.d.d.d.d.d.d.d.d.d.d.d.d.d.d.d.d.d.d.d.d.$ $ $ $                                                                                                                                                                                                 ) ) ) ) ) ) ) ) ) ) ) ) ) ) ) ) U U ) ) ) U U U U U U U U U U U U U U U A U U U U A A A A                                                           ",
"                                                            K.K.L.L.L.L.L.L.L.L.L.L.L.L.L.L.L.L.L.L.L.L.H.H.L.L.L.H.H.H.H.H.H.H.H.H.H.H.H.H.H.H.P.P.P.                                                                                                                                                                                                F.F.A.A.A.F.F.A.A.A.A.A.A.A.A.A.A.A.A.A.A.A.A.A.A.A.A.A.A.A.A.A.A.A.A.A.A.A.A.A.                                                                                                                                                                                    b.b.b.b.b.b.b.b.b.b.b.b.b.d.d.b.b.d.d.d.d.d.d.d.d.d.d.d.d.d.d.d.d.d.d.d.d.$ $ $                                                                                                                                                                                                 ) ) ) ) ) ) ) ) ) ) ) ) ) ) ) ) ) ) U U U ) U U U U U U U U U U U U U U U U A A A U U A A                                                             ",
"                                                              K.K.L.L.L.L.L.L.L.L.L.L.L.L.L.L.L.L.L.L.L.L.L.L.L.L.L.H.H.H.H.H.H.H.H.H.H.H.H.H.H.H.P.P.P.                                                                                                                                                                                              A.F.A.A.A.F.F.F.A.A.A.A.A.A.A.A.A.A.A.A.A.A.A.A.A.A.A.A.A.A.A.A.A.A.A.A.A.A.A.A.A.                                                                                                                                                                                b.b.b.b.b.b.b.b.b.b.b.b.b.b.b.d.d.d.d.b.d.d.d.d.d.d.d.d.d.d.d.d.d.d.d.d.d.d.$ $ $                                                                                                                                                                                               ) ) ) ) ) ) ) ) ) ) ) ) ) ) ) ) ) ) ) ) U U U U ) U U U U U U U U U U U U U U U A U U U A                                                               ",
"                                                                K.K.L.L.L.L.K.L.L.L.L.L.L.L.L.L.L.L.L.L.L.L.H.H.H.H.L.H.H.H.H.H.H.H.H.H.H.H.H.H.H.H.P.P.P.                                                                                                                                                                                              F.F.F.A.A.A.A.F.A.A.A.A.A.A.A.A.A.A.A.A.A.A.A.A.A.A.A.A.A.A.A.A.A.A.A.A.A.A.Z.A.A.                                                                                                                                                                            b.B.b.b.b.b.b.b.b.b.b.b.b.b.b.b.b.d.d.b.b.b.d.d.d.d.d.d.d.d.d.d.d.d.d.d.d.$ $ $ $                                                                                                                                                                                                . .) ) ) ) ) ) ) ) ) ) ) ) ) ) ) U U U U ) ) U U U U U U U U U U U U U U U U U U U A A A                                                                 ",
"                                                                  K.K.L.L.L.K.K.L.L.L.L.L.L.L.L.L.L.L.L.L.L.L.H.H.H.L.L.H.H.H.H.H.H.H.H.H.H.H.H.H.H.H.P.P.P.                                                                                                                                                                                            F.F.F.F.A.A.A.F.F.A.A.A.A.A.A.A.A.A.A.A.A.A.A.A.A.A.A.A.A.A.A.A.A.A.A.A.A.A.A.A.A.A.                                                                                                                                                                        b.B.B.B.b.b.b.b.b.b.b.b.b.b.b.b.b.b.b.d.d.d.b.b.d.d.d.d.d.d.d.d.d.d.d.d.d.d.d.$ $ $                                                                                                                                                                                             ) ) )  .) ) ) ) ) ) ) ) ) ) ) ) ) ) ) U U U ) ) U U U U ) U U U U U U U U U U U U U U U A                                                                   ",
"                                                                    K.K.L.L.K.K.L.L.L.L.L.L.L.L.L.L.L.L.L.L.L.L.H.H.H.H.L.H.H.H.H.H.H.H.H.H.H.H.H.H.H.H.H.H.P.                                                                                                                                                                                            A.F.F.A.A.A.A.F.F.A.A.A.A.A.A.A.A.A.A.A.A.A.A.A.A.A.A.A.A.A.A.A.A.A.A.A.A.A.A.A.A.Z.                                                                                                                                                                    B.B.B.B.B.b.b.b.b.b.b.b.b.b.b.b.b.b.b.b.b.d.d.b.b.b.d.d.d.d.d.d.d.d.d.d.d.d.d.d.d.$                                                                                                                                                                                            . .) ) )  . .) ) ) ) ) ) ) ) ) ) ) ) ) ) ) U U ) ) ) U U U U ) U U U U U U U U U U U U U U                                                                     ",
"                                                                      K.K.L.K.K.L.L.L.L.L.L.L.L.L.L.L.L.L.L.L.L.L.H.H.H.L.L.H.H.H.H.H.H.H.H.H.H.H.H.H.H.H.H.H.P.                                                                                                                                                                                            F.F.A.A.A.A.F.F.F.A.A.A.A.A.A.A.A.A.A.A.A.A.A.A.A.A.A.A.A.A.A.A.A.A.A.A.A.A.A.A.Z.Z.A.                                                                                                                                                            B.B.B.B.B.B.b.b.B.b.b.b.b.b.b.b.b.b.b.b.b.b.b.b.d.d.b.b.b.d.d.d.d.d.d.d.d.d.d.d.d.d.d.                                                                                                                                                                                           . . . .)  . . . .) ) ) ) ) ) ) ) ) ) ) ) ) ) ) U ) ) ) U U U U U ) U U U U U U U U U U U U                                                                       ",
"                                                                      K.K.K.K.K.L.L.L.L.L.L.L.L.L.L.L.L.L.L.L.L.L.L.H.H.H.H.H.H.H.H.H.H.H.H.H.H.H.H.H.H.H.H.P.P.P.P.                                                                                                                                                                                        A.F.F.F.F.A.A.A.A.F.A.A.A.A.A.A.A.A.A.A.A.A.A.A.A.A.A.A.A.A.A.A.A.A.A.A.A.A.A.A.A.Z.A.A.                                                                                                                                                        B.B.B.B.B.B.b.b.b.B.B.b.b.b.b.b.b.b.b.b.b.b.b.b.b.b.d.b.b.b.b.d.d.d.d.d.d.d.d.d.d.d.d.d.                                                                                                                                                                                         . . . . . .) ) )  . .) ) ) ) ) ) ) ) ) ) ) ) ) ) ) U U U U ) U U U ) ) U U U U U U U U U U U                                                                       ",
"                                                                        K.K.K.K.L.L.L.L.L.L.L.L.L.L.L.L.L.L.L.L.L.L.L.H.H.H.H.L.H.H.H.H.H.H.H.H.H.H.H.H.H.H.H.P.P.P.H.                                                                                                                                                                                        A.F.F.F.F.A.A.A.F.F.A.A.A.A.A.A.A.A.A.A.A.A.A.A.A.A.A.A.A.A.A.A.A.A.A.A.A.A.A.A.Z.A.A.A.                                                                                                                                                    B.B.B.B.B.B.B.B.b.b.B.B.B.b.b.b.b.b.b.b.b.b.b.b.b.b.b.b.b.d.d.b.b.d.d.d.d.d.d.d.d.d.d.d.                                                                                                                                                                                         . . . . . . . .) )  . . .) ) ) ) ) ) ) ) ) ) ) ) ) ) ) U U U ) ) U U ) ) ) U U U U U U U U U                                                                         ",
"                                                                          K.K.K.K.K.L.L.L.L.L.L.L.L.L.L.L.L.L.L.L.L.L.L.H.H.L.L.L.H.H.H.H.H.H.H.H.H.H.H.H.H.H.H.P.P.P.P.                                                                                                                                                                                        F.F.F.F.A.A.F.F.F.F.A.A.A.A.A.A.A.A.A.A.A.A.A.A.A.A.A.A.A.A.A.A.A.A.A.A.A.A.A.A.Z.Z.A.A.A.                                                                                                                                            B.B.B.B.B.B.B.B.B.B.B.B.b.B.B.B.b.b.b.b.b.b.b.b.b.b.b.b.b.b.b.d.d.b.b.b.d.d.d.d.d.d.d.d.d.                                                                                                                                                                                         . . . . . . . . . . . .)  . .) ) ) ) ) ) ) ) ) ) ) ) ) ) ) ) ) ) ) ) U U U ) ) U U U U U U U                                                                           ",
"                                                                            K.K.K.K.K.L.L.L.L.L.L.L.L.L.L.L.L.L.L.L.L.L.L.H.L.L.L.L.H.H.H.H.H.H.H.H.H.H.H.H.H.H.H.P.P.P.P.                                                                                                                                                                                      F.F.F.A.A.A.F.F.F.F.F.A.A.A.A.A.A.A.A.A.A.A.A.A.A.A.A.A.A.A.A.A.A.A.A.A.A.A.A.A.A.Z.A.A.A.A.Z.                                                                                                                                    B.B.B.B.B.B.B.B.B.B.B.B.B.B.b.b.B.B.B.b.b.b.b.b.b.b.b.b.b.b.b.b.b.b.d.b.b.b.b.d.d.d.d.d.d.d.d.                                                                                                                                                                                     . . . . . . . . . . . . .) )  . . .) ) ) ) ) ) ) ) ) ) ) ) ) ) ) ) ) ) ) ) U U U U U U U U U U                                                                             ",
"                                                                              K.K.K.L.L.L.L.K.L.L.L.L.L.L.L.L.L.L.L.L.L.L.L.H.H.H.H.L.H.H.H.H.H.H.H.H.H.H.H.H.H.H.H.P.P.P.P.I.                                                                                                                                                                                    F.F.F.A.A.A.A.A.A.A.A.A.A.A.A.A.A.A.A.A.A.A.A.A.A.A.A.A.A.A.A.A.A.A.A.A.A.A.A.A.A.Z.Z.Z.Z.A.A.                                                                                                                                B.B.B.B.B.B.B.B.B.B.B.B.B.B.B.B.b.b.b.b.B.b.b.b.b.b.b.b.b.b.b.b.b.b.b.b.d.d.b.b.b.d.d.d.d.d.d.d.                                                                                                                                                                                   . . . . . . . . . . . . . . .) ) )  . .) ) ) ) ) ) ) ) ) ) ) ) ) ) ) U U ) ) ) U U U U U U U U                                                                               ",
"                                                                                K.K.K.L.L.L.K.K.L.L.L.L.L.L.L.L.L.L.L.L.L.L.L.H.H.H.L.L.H.H.H.H.H.H.H.H.H.H.H.H.H.H.H.P.P.P.P.P.                                                                                                                                                                                    F.F.A.A.A.F.A.A.A.F.A.A.A.A.A.A.A.A.A.A.A.A.A.A.A.A.A.A.A.A.A.A.A.A.A.A.A.A.A.A.A.Z.Z.Z.A.A.Z.Z.                                                                                                                        C.C.C.C.B.B.B.B.B.B.B.B.B.B.B.B.B.B.B.b.b.b.B.B.b.b.b.b.b.b.b.b.b.b.b.b.b.b.b.d.d.d.b.d.d.d.d.d.d.d.d.                                                                                                                                                                              8.8. . . . . . . . . . . . . . . .) ) )  .) ) ) ) ) ) ) ) ) ) ) ) ) ) ) ) U ) ) U ) U U U U U U                                                                                 ",
"                                                                                  K.K.K.L.K.K.K.L.L.L.L.L.L.L.L.L.L.L.L.L.L.L.L.H.H.H.H.L.H.H.H.H.H.H.H.H.H.H.H.H.H.H.H.H.H.P.P.P.                                                                                                                                                                                    F.A.A.F.F.F.F.F.F.F.F.A.A.A.A.A.A.A.A.A.A.A.A.A.A.A.A.A.A.A.A.A.A.A.A.A.A.A.A.A.A.Z.A.A.A.A.Z.Z.Z.                                                                                                                C.C.C.C.C.B.B.B.B.B.B.B.B.B.B.B.B.B.B.B.B.B.b.b.B.B.B.b.b.b.b.b.b.b.b.b.b.b.b.b.b.b.d.d.d.d.b.d.d.d.d.d.d.d.                                                                                                                                                                        %.8.8.8.%. . . . . . . . . . . . . . . .) ) )  . .) ) ) ) ) ) ) ) ) ) ) ) ) ) ) U U U ) ) U ) ) U                                                                                   ",
"                                                                                    K.K.K.K.K.K.L.L.L.L.L.L.L.L.L.L.L.L.L.L.L.L.L.H.H.H.H.L.H.H.H.H.H.H.H.H.H.H.H.H.H.H.H.H.H.P.P.P.                                                                                                                                                                                  F.F.F.F.A.F.F.F.F.F.F.A.A.A.A.A.A.A.A.A.A.A.A.A.A.A.A.A.A.A.A.A.A.A.A.A.A.A.A.A.A.A.Z.A.A.A.A.Z.Z.Z.Z.A.                                                                                                    C.C.C.C.C.C.C.B.B.B.B.B.B.B.B.B.B.B.B.B.B.B.B.B.B.B.b.b.b.b.B.b.b.b.b.b.b.b.b.b.b.b.b.b.b.b.d.d.b.b.b.d.d.d.d.d.d.d.                                                                                                                                                                    8.8.8.8.%.%.%. . . . . . . . . . . . . . . .) )  . . .) ) ) ) ) ) ) ) ) ) ) ) ) ) ) U ) ) ) ) ) )                                                                                     ",
"                                                                                      K.K.K.L.L.L.L.K.L.L.L.L.L.L.L.L.L.L.L.L.L.L.L.H.H.H.H.H.H.H.H.H.H.H.H.H.H.H.H.H.H.H.H.H.H.H.H.H.P.                                                                                                                                                                                F.F.F.F.F.F.F.F.F.F.A.A.A.A.A.A.A.A.A.A.A.A.A.A.A.A.A.A.A.A.A.A.A.A.A.A.A.A.A.A.A.A.Z.Z.A.A.Z.Z.Z.Z.A.A.Z.                                                                                            C.C.C.C.C.C.C.C.C.B.B.C.C.C.B.B.B.B.B.B.B.B.B.B.B.B.B.B.B.b.b.B.B.B.b.b.b.b.b.b.b.b.b.b.b.b.b.b.b.d.b.b.b.d.d.d.d.d.d.d.d.                                                                                                                                                                8.8.8.8.%.%.%.%.8. . . . . . . . . . . . . . . .)  . .)  .) ) ) ) ) ) ) ) ) ) ) ) ) ) ) ) ) ) ) )                                                                                       ",
"                                                                                        L.K.K.L.L.L.K.K.L.L.L.L.L.L.L.L.L.L.L.L.L.L.L.H.H.H.H.H.H.H.H.H.H.H.H.H.H.H.H.H.H.H.H.H.H.H.H.H.P.                                                                                                                                                                                F.F.F.F.F.F.F.F.F.A.A.F.A.A.A.A.A.A.A.A.A.A.A.A.A.A.A.A.A.A.A.A.A.A.A.A.A.A.A.A.A.A.Z.A.A.Z.Z.Z.Z.A.A.A.Z.Z.Z.                                                                                Z.C.C.C.C.C.C.C.C.C.C.C.C.B.C.C.C.C.B.B.B.B.B.B.B.B.B.B.B.B.B.B.B.b.b.b.B.B.b.b.b.b.b.b.b.b.b.b.b.b.b.b.b.b.b.b.d.d.d.d.d.d.d.d.d.                                                                                                                                                          # 8.8.8.8.8.8.%.%.8.8.8. . . . . . . . . . . . . . . . .) )  . .) ) ) ) ) ) ) ) ) ) ) ) ) ) ) ) ) )                                                                                         ",
"                                                                                          K.K.K.L.L.L.K.K.L.L.L.L.L.L.L.L.L.L.L.L.L.L.L.L.L.H.H.L.H.H.H.H.H.H.H.H.H.H.H.H.H.H.H.P.P.P.P.P.P.H.                                                                                                                                                                              F.F.F.A.F.F.F.A.A.A.F.F.A.A.A.A.A.A.A.A.A.A.A.A.A.A.A.A.A.A.A.A.A.A.A.A.A.A.A.A.A.A.A.A.A.A.Z.Z.Z.A.A.A.Z.Z.Z.Z.Z.                                                                    Z.Z.C.C.C.C.C.C.C.C.C.C.C.C.C.C.C.C.C.C.C.C.B.B.B.B.B.B.B.B.B.B.B.B.B.B.B.b.b.B.B.B.b.b.b.b.b.b.b.b.b.b.b.b.b.b.b.d.d.d.b.b.d.d.d.d.d.d.d.                                                                                                                                                      8.8.8.8.8.8.8.8.8.8.8.8.8.%. . . . . . . . . . . . . . . .) )  . . .) ) ) ) ) ) ) ) ) ) ) ) ) ) ) )                                                                                           ",
"                                                                                            K.K.K.L.K.K.K.K.L.L.L.L.L.L.L.L.L.L.L.L.L.L.L.L.H.H.L.L.H.H.H.H.H.H.H.H.H.H.H.H.H.H.H.P.P.P.H.P.P.P.                                                                                                                                                                              F.F.A.F.F.F.A.A.A.F.F.F.A.A.A.A.A.A.A.A.A.A.A.A.A.A.A.A.A.A.A.A.A.A.A.A.A.A.A.A.A.A.A.A.A.Z.A.Z.Z.A.A.Z.Z.Z.Z.Z.Z.Z.Z.Z.Z.                                                C.Z.Z.C.Z.Z.Z.Z.C.C.C.C.C.C.C.C.C.C.C.C.C.C.C.C.C.C.C.C.B.B.B.B.B.B.B.B.B.B.B.B.B.B.B.b.b.B.B.B.b.b.b.b.b.b.b.b.b.b.b.b.b.b.b.d.d.b.b.b.d.d.d.d.d.d.d.                                                                                                                                                  8.8.8.8.8.8.8.8.8.8.8.%.%.%.8.8. . . . . . . . . . . . . . . .)  . . . .) ) ) ) ) ) ) ) ) ) ) ) ) )                                                                                             ",
"                                                                                              L.K.K.K.K.K.K.L.L.L.L.L.L.L.L.L.L.L.L.L.L.L.L.H.H.H.H.L.H.H.H.H.H.H.H.H.H.H.H.H.H.H.H.P.P.P.H.H.P.P.                                                                                                                                                                              F.F.F.A.A.F.F.A.A.A.A.F.A.A.A.A.A.A.A.A.A.A.A.A.A.A.A.A.A.A.A.A.A.A.A.A.A.A.A.A.A.A.Z.A.A.A.Z.Z.A.A.Z.Z.Z.Z.Z.Z.Z.Z.Z.Z.Z.Z.Z.Z.Z.Z.Z.Z.                Z.Z.Z.Z.Z.Z.C.C.C.C.C.C.Z.Z.Z.C.C.C.C.C.C.C.C.C.C.C.C.C.C.C.C.C.C.C.C.C.B.B.B.B.B.B.B.B.B.B.B.B.B.B.B.B.b.b.B.B.B.b.b.b.b.b.b.b.b.b.b.b.b.b.b.b.d.d.d.d.b.d.d.d.d.d.d.d.                                                                                                                                            8.8.8.8.8.8.8.8.8.8.8.8.8.8.%.%.%.8.8. . . . . . . . . . . . . . . .) ) ) )  .) ) ) ) ) ) ) ) ) ) ) )                                                                                               ",
"                                                                                                K.K.K.K.K.K.L.L.L.L.L.L.L.L.L.L.L.L.L.L.L.L.L.H.H.H.L.L.H.H.H.H.H.H.H.H.H.H.H.H.H.H.H.P.P.P.H.H.P.P.P.                                                                                                                                                                            F.F.F.A.F.A.F.A.A.A.F.F.A.A.A.A.A.A.A.A.A.A.A.A.A.A.A.A.A.A.A.A.A.A.A.A.A.A.A.A.A.A.A.A.A.A.Z.Z.Z.Z.Z.Z.Z.Z.Z.Z.Z.Z.Z.Z.Z.Z.Z.Z.Z.Z.Z.Z.Z.Z.Z.Z.Z.Z.Z.Z.Z.Z.Z.Z.Z.Z.Z.C.C.Z.C.Z.C.Z.Z.C.C.C.C.C.C.C.C.C.C.C.C.C.C.C.C.C.C.C.C.C.C.B.B.B.B.B.B.B.B.B.B.B.B.B.B.B.B.b.b.b.b.b.b.b.b.b.b.b.b.b.b.b.b.b.b.b.d.d.d.b.b.d.d.d.d.d.d.d.                                                                                                                                        # 8.8.8.8.8.8.8.8.8.8.8.8.8.8.8.%.%.%.8.8. . . . . . . . . . . . . . . .) ) ) ) ) ) ) ) ) ) ) ) ) ) )                                                                                                 ",
"                                                                                                  K.K.K.K.K.L.L.L.L.L.L.L.L.L.L.L.L.L.L.L.L.L.L.H.H.L.L.H.H.H.H.H.H.H.H.H.H.H.H.H.H.H.H.P.P.P.P.H.P.P.P.                                                                                                                                                                            F.F.F.F.A.A.A.A.A.A.F.F.A.A.A.A.A.A.A.A.A.A.A.A.A.A.A.A.A.A.A.A.A.A.A.A.A.A.A.A.A.A.A.A.Z.Z.A.Z.Z.Z.A.A.Z.Z.Z.Z.Z.Z.Z.Z.Z.Z.Z.Z.Z.Z.Z.Z.Z.Z.Z.Z.Z.Z.Z.Z.Z.Z.Z.Z.Z.Z.Z.Z.Z.Z.Z.Z.C.C.C.C.C.C.C.C.C.C.C.C.C.C.C.C.C.C.C.C.C.C.C.C.B.B.B.B.B.B.B.B.B.B.B.B.B.B.B.B.b.b.b.B.B.b.b.b.b.b.b.b.b.b.b.b.b.b.b.b.d.d.b.b.b.d.d.d.d.d.d.d.                                                                                                                                  # t.t.t.8.8.8.8.8.8.8.8.8.8.8.8.8.8.8.%.%.8.8.8. . . . . . . . . . . . . . . .) ) )  . .) ) ) ) ) ) ) )                                                                                                   ",
"                                                                                                    K.K.K.L.L.K.L.L.L.L.L.L.L.L.L.L.L.L.L.L.L.L.L.H.L.L.L.L.H.H.H.H.H.H.H.H.H.H.H.H.H.H.H.P.P.P.H.H.P.P.P.P.                                                                                                                                                                        F.F.F.F.F.A.A.A.A.A.F.F.F.A.A.A.A.A.A.A.A.A.A.A.A.A.A.A.A.A.A.A.A.A.A.A.A.A.A.A.A.A.A.A.Z.Z.A.A.Z.Z.A.A.A.Z.Z.Z.Z.Z.Z.Z.Z.Z.Z.Z.Z.Z.Z.Z.Z.Z.Z.Z.Z.Z.Z.Z.Z.Z.Z.Z.Z.Z.Z.Z.Z.Z.Z.Z.C.C.C.C.C.C.C.C.C.C.C.C.C.C.C.C.C.C.C.C.C.C.C.B.B.B.B.B.B.B.B.B.B.B.B.B.B.B.B.B.B.b.B.B.B.B.b.b.b.b.b.b.b.b.b.b.b.b.b.b.b.d.d.b.b.b.d.d.d.d.d.d.d.                                                                                                                              t.t.t.t.8.8.8.8.8.8.8.8.8.8.8.8.8.8.8.8.8.%.%.%.8.8. . . . . . . . . . . . . . . .) )  . . .) ) ) ) ) )                                                                                                     ",
"                                                                                                        K.K.L.K.L.L.L.L.L.L.L.L.L.L.L.L.L.L.L.L.L.L.H.H.H.H.L.H.H.H.H.H.H.H.H.H.H.H.H.H.H.H.P.P.H.P.P.P.P.P.P.                                                                                                                                                                        F.F.F.F.F.F.F.F.A.A.A.A.F.A.A.A.A.A.A.A.A.A.A.A.A.A.A.A.A.A.A.A.A.A.A.A.A.A.A.A.A.A.A.Z.Z.A.A.A.A.A.A.A.Z.Z.Z.Z.Z.Z.Z.Z.Z.Z.Z.Z.Z.Z.Z.Z.Z.Z.Z.Z.Z.Z.Z.Z.Z.Z.Z.Z.Z.Z.Z.Z.Z.C.C.C.C.C.C.C.C.Z.C.C.C.C.C.C.C.C.C.C.C.C.C.C.C.C.C.B.B.C.B.B.B.B.B.B.B.B.B.B.B.B.B.B.B.B.B.B.b.B.b.b.b.b.b.b.b.b.b.b.b.b.b.b.b.d.d.b.b.b.d.d.d.d.d.d.d.                                                                                                                        # # t.t.t.8.8.8.t.8.8.8.8.8.8.8.8.8.8.8.8.8.8.8.%.8.8.8.8. . . . . . . . . . . . . . . .)  . . . .) ) )                                                                                                         ",
"                                                                                                          K.K.K.K.L.L.L.L.L.L.L.L.L.L.L.L.L.L.L.L.L.L.H.H.H.H.L.H.H.H.H.H.H.H.H.H.H.H.H.H.H.H.P.P.P.H.P.P.P.P.P.P.                                                                                                                                                                        F.F.F.F.F.F.F.A.A.A.F.F.A.A.A.A.A.A.A.A.A.A.A.A.A.A.A.A.A.A.A.A.A.A.A.A.A.A.A.A.A.A.Z.A.A.A.A.A.A.Z.Z.A.Z.Z.Z.Z.Z.Z.Z.Z.Z.Z.Z.Z.Z.Z.Z.Z.Z.Z.Z.Z.Z.Z.Z.Z.Z.Z.Z.Z.Z.Z.C.Z.Z.C.C.Z.C.C.Z.Z.Z.C.C.C.C.C.C.C.C.C.C.C.C.C.C.C.C.B.C.C.C.B.B.B.B.B.B.B.B.B.B.B.B.B.B.B.B.b.b.B.B.b.b.b.b.b.b.b.b.b.b.b.b.b.b.b.b.d.d.d.d.d.d.d.d.d.d.d.                                                                                                                    # # # # t.t.t.8.8.t.t.8.8.8.8.8.8.8.8.8.8.8.8.8.8.8.%.%.%.8.8. . . . . . . . . . . . . . . . . . . . .)                                                                                                           ",
"                                                                                                            K.K.K.K.L.L.L.L.L.L.L.L.L.L.L.L.L.L.L.L.L.L.H.H.H.H.H.H.H.H.H.H.H.H.H.H.H.H.H.H.H.H.P.H.P.P.P.P.P.P.P.P.                                                                                                                                                                        F.F.F.F.F.F.A.A.F.F.F.F.A.A.A.A.A.A.A.A.A.A.A.A.A.A.A.A.A.A.A.A.A.A.A.A.A.A.A.A.A.A.A.A.A.A.Z.Z.Z.Z.A.A.Z.Z.Z.Z.Z.Z.Z.Z.Z.Z.Z.Z.Z.Z.Z.Z.Z.Z.Z.Z.Z.Z.Z.Z.Z.Z.Z.Z.Z.Z.Z.Z.Z.Z.Z.Z.Z.Z.C.Z.Z.C.C.C.C.C.C.C.C.C.C.C.C.C.C.C.C.C.C.C.C.B.B.B.B.B.B.B.B.B.B.B.B.B.B.B.b.b.B.B.B.b.b.b.b.b.b.b.b.b.b.b.b.b.b.b.d.d.d.b.b.d.d.d.d.d.d.d.                                                                                                              # # # # # # # t.t.t.t.t.t.t.8.8.8.8.8.8.8.8.8.8.8.8.8.8.8.%.%.8.8.8. . . . . . . . . . . . . . . . . . . .                                                                                                            ",
"                                                                                                              K.K.K.L.L.L.L.L.L.L.L.L.L.L.L.L.L.L.L.L.L.L.H.H.H.H.H.H.H.H.H.H.H.H.H.H.H.H.H.H.H.H.P.P.P.P.P.P.P.P.P.P.P.                                                                                                                                                                      F.F.F.F.A.A.A.F.F.F.F.F.A.A.A.A.A.A.A.A.A.A.A.A.A.A.A.A.A.A.A.A.A.A.A.A.A.A.A.A.A.A.A.A.A.Z.Z.Z.Z.A.A.A.Z.Z.Z.Z.Z.Z.Z.Z.Z.Z.Z.Z.Z.Z.Z.Z.Z.Z.Z.Z.Z.Z.Z.Z.Z.Z.Z.Z.Z.Z.Z.Z.Z.Z.Z.Z.C.C.Z.Z.Z.C.C.C.C.C.C.C.C.C.C.C.C.C.C.C.C.C.C.C.C.B.B.B.B.B.B.B.B.B.B.B.B.B.B.B.b.B.B.B.B.b.b.b.b.b.b.b.b.b.b.b.b.b.b.b.d.b.b.b.b.d.d.d.d.d.d.d.                                                                                                        t.# # # # # # # # # t.t.t.t.t.t.t.8.8.8.8.8.8.8.8.8.8.8.8.8.8.8.%.8.8.8.8. . . . . . . . . . . . . . . .)  .                                                                                                              ",
"                                                                                                                K.K.L.L.L.L.L.L.L.L.L.L.L.L.L.L.L.L.L.L.L.L.H.H.H.H.L.H.H.H.H.H.H.H.H.H.H.H.H.H.H.H.P.P.P.P.P.P.P.P.P.P.P.P.                                                                                                                                                                    F.F.F.F.A.F.F.A.A.A.F.F.A.A.A.A.A.A.A.A.A.A.A.A.A.A.A.A.A.A.A.A.A.A.A.A.A.A.A.A.A.A.Z.Z.Z.Z.A.A.Z.Z.Z.Z.Z.Z.Z.Z.Z.Z.Z.Z.Z.Z.Z.Z.Z.Z.Z.Z.Z.Z.Z.Z.Z.Z.Z.Z.Z.Z.Z.Z.Z.Z.C.C.C.C.C.C.Z.Z.Z.C.C.C.C.C.C.C.C.C.C.C.C.C.C.C.C.C.C.C.C.C.C.B.B.B.B.B.B.B.B.B.B.B.B.B.B.B.b.b.b.B.B.b.b.b.b.b.b.b.b.b.b.b.b.b.b.b.d.d.d.d.b.d.d.d.d.d.d.d.                                                                                                    i.# # # # # # # # # # # t.t.8.8.t.t.t.8.8.8.8.8.8.8.8.8.8.8.8.8.8.8.%.%.%.8.8. . . . . . . . . . . . . . . .                                                                                                                ",
"                                                                                                                  K.K.L.L.L.L.L.L.L.L.L.L.L.L.L.L.L.L.L.L.L.L.H.H.H.H.L.H.H.H.H.H.H.H.H.H.H.H.H.H.H.H.P.P.P.P.P.P.P.P.P.P.P.P.                                                                                                                                                                    F.F.F.F.F.A.A.A.A.F.F.F.A.A.A.A.A.A.A.A.A.A.A.A.A.A.A.A.A.A.A.A.A.A.A.A.A.A.A.A.A.A.Z.Z.Z.A.A.Z.Z.Z.Z.A.Z.Z.Z.Z.Z.Z.Z.Z.Z.Z.Z.Z.Z.Z.Z.Z.Z.Z.Z.Z.Z.Z.Z.Z.Z.Z.Z.Z.Z.Z.C.C.C.Z.C.Z.C.Z.Z.C.C.C.C.C.C.C.C.C.C.C.C.C.C.C.C.C.C.C.C.C.C.B.B.B.B.B.B.B.B.B.B.B.B.B.B.B.b.b.B.b.B.b.b.b.b.b.b.b.b.b.b.b.b.b.b.b.d.d.d.b.b.d.d.d.d.d.d.d.                                                                                                i.# # # # # # # # # # # # # t.t.8.8.t.t.t.8.8.8.8.8.8.8.8.8.8.8.8.8.8.8.%.%.%.%.%. . . . . . . . . . . . . .                                                                                                                  ",
"                                                                                                                    K.K.K.K.K.K.L.L.L.L.L.L.L.L.L.L.L.L.L.L.L.L.H.H.L.L.L.H.H.H.H.H.H.H.H.H.H.H.H.H.H.H.H.H.P.H.P.P.P.P.P.P.P.P.P.                                                                                                                                                                  F.F.F.A.A.A.F.A.F.F.A.F.A.A.A.A.A.A.A.A.A.A.A.A.A.A.A.A.A.A.A.A.A.A.A.A.A.A.A.A.A.A.Z.A.A.A.A.Z.Z.Z.A.A.Z.Z.Z.Z.Z.Z.Z.Z.Z.Z.Z.Z.Z.Z.Z.Z.Z.Z.Z.Z.Z.Z.Z.Z.Z.Z.Z.Z.Z.Z.Z.Z.Z.Z.Z.Z.C.C.C.C.C.C.C.C.C.C.C.C.C.C.C.C.C.C.C.C.C.C.C.C.C.B.B.B.B.B.B.B.B.B.B.B.B.B.B.B.b.b.b.B.B.b.b.b.b.b.b.b.b.b.b.b.b.b.b.b.d.d.b.b.b.d.d.d.d.d.d.d.                                                                                            # # # # # # # # # # # # # # # # t.t.t.t.t.t.t.8.8.8.8.8.8.8.8.8.8.8.8.8.8.8.%.%.%.8.8. . . . . . . . . . . .                                                                                                                    ",
"                                                                                                                      L.K.K.K.K.L.K.L.L.L.L.L.L.L.L.L.L.L.L.L.L.L.H.L.L.L.L.H.H.H.H.H.H.H.H.H.H.H.H.H.H.H.H.H.H.P.P.P.P.P.P.P.P.P.P.J.                                                                                                                                                                F.F.A.A.A.F.F.F.F.A.A.A.A.A.A.A.A.A.A.A.A.A.A.A.A.A.A.A.A.A.A.A.A.A.A.A.A.A.A.A.A.A.Z.A.A.Z.A.Z.Z.A.A.A.Z.Z.Z.Z.Z.Z.Z.Z.Z.Z.Z.Z.Z.Z.Z.Z.Z.Z.Z.Z.Z.Z.Z.Z.Z.Z.Z.Z.Z.Z.Z.Z.Z.Z.Z.C.C.C.C.C.C.C.C.C.C.C.C.C.C.C.C.C.C.C.C.C.C.C.C.C.C.B.B.B.B.B.B.B.B.B.B.B.B.B.B.B.b.b.B.B.B.b.b.b.b.b.b.b.b.b.b.b.b.b.b.b.d.d.b.b.b.d.d.d.d.d.d.d.                                                                                        # # # # # # # # # # # # # # # # # # t.t.t.t.t.8.t.8.8.8.8.8.8.8.8.8.8.8.8.8.8.8.%.%.8.8.8. . . . . . . . .                                                                                                                        ",
"                                                                                                                          K.L.L.K.K.K.L.L.L.L.L.L.L.L.L.L.L.L.L.L.L.H.L.H.H.H.H.H.H.H.H.H.H.H.H.H.H.H.H.H.H.H.P.P.P.P.P.P.P.P.P.P.P.P.P.P.                                                                                                                                                                F.F.F.F.F.F.A.A.A.A.F.A.A.A.A.A.A.A.A.A.A.A.A.A.A.A.A.A.A.A.A.A.A.A.A.A.A.A.A.A.A.Z.Z.A.A.A.A.A.A.A.Z.Z.Z.Z.Z.Z.Z.Z.Z.Z.Z.Z.Z.Z.Z.Z.Z.Z.Z.Z.Z.Z.Z.Z.Z.Z.Z.Z.Z.Z.Z.Z.Z.Z.C.C.C.C.C.C.C.Z.C.C.C.C.C.C.C.C.C.C.C.C.C.C.C.C.C.B.C.C.B.B.B.B.B.B.B.B.B.B.B.B.B.B.B.b.b.b.b.B.b.b.b.b.b.b.b.b.b.b.b.b.b.b.b.d.b.b.b.b.d.d.d.d.d.d.d.                                                                                      # # # # # # # # # # # # # # # # # # # t.t.8.8.8.t.t.8.8.8.8.8.8.8.8.8.8.8.8.8.8.8.%.%.%.8.8. . . . . .+                                                                                                                           ",
"                                                                                                                            K.L.K.K.K.K.L.L.L.L.L.L.L.L.L.L.L.L.L.L.L.L.H.H.H.H.H.H.H.H.H.H.H.H.H.H.H.H.H.H.H.P.P.H.P.P.P.P.P.P.P.P.P.P.P.J.                                                                                                                                                                F.F.A.F.F.F.F.A.A.A.F.A.A.A.A.A.A.A.A.A.A.A.A.A.A.A.A.A.A.A.A.A.A.A.A.A.A.A.A.A.A.Z.A.A.A.A.Z.A.Z.Z.A.Z.Z.Z.Z.Z.Z.Z.Z.Z.Z.Z.Z.Z.Z.Z.Z.Z.Z.Z.Z.Z.Z.Z.Z.Z.Z.Z.Z.Z.Z.C.Z.Z.C.C.C.C.C.C.Z.Z.C.C.C.C.C.C.C.C.C.C.C.C.C.C.C.C.B.B.C.C.B.B.B.B.B.B.B.B.B.B.B.B.B.B.B.b.b.b.B.B.b.b.b.b.b.b.b.b.b.b.b.b.b.b.b.b.d.d.b.b.d.d.d.d.d.d.d.                                                                                  # # # # # # # # # # # # # # # # # # # # # t.t.8.8.8.t.t.8.8.8.8.8.8.8.8.8.8.8.8.8.8.8.%.%.8.8.8. . . . .                                                                                                                            ",
"                                                                                                                              K.L.K.L.L.L.L.L.L.L.L.L.L.L.L.L.L.L.L.L.L.H.H.L.L.L.H.H.H.H.H.H.H.H.H.H.H.H.H.H.H.H.H.H.H.P.P.P.P.P.P.P.P.P.P.P.P.                                                                                                                                                              F.A.A.A.F.F.F.A.A.F.F.A.A.A.A.A.A.A.A.A.A.A.A.A.A.A.A.A.A.A.A.A.A.A.A.A.A.A.A.A.A.A.Z.A.A.A.Z.Z.Z.A.A.Z.Z.Z.Z.Z.Z.Z.Z.Z.Z.Z.Z.Z.Z.Z.Z.Z.Z.Z.Z.Z.Z.Z.Z.Z.Z.Z.Z.Z.Z.Z.Z.Z.Z.Z.Z.C.C.C.Z.Z.C.C.C.C.C.C.C.C.C.C.C.C.C.C.C.B.B.C.C.C.B.B.B.B.B.B.B.B.B.B.B.B.B.B.B.b.b.B.B.B.b.b.b.b.b.b.b.b.b.b.b.b.b.b.b.d.d.b.b.d.d.d.d.d.d.d.d.                                                                                # # # # # # # # # # # # # # # # # # # # # # t.t.t.t.t.t.t.8.8.8.8.8.8.8.8.8.8.8.8.8.8.8.8.8.%.8.8. . .                                                                                                                              ",
"                                                                                                                                K.L.L.L.L.L.L.L.L.L.L.L.L.L.L.L.L.L.L.L.L.L.L.L.L.L.H.H.H.H.H.H.H.H.H.H.H.H.H.H.H.H.H.H.H.H.P.P.P.P.P.P.P.P.P.P.P.I.                                                                                                                                                              A.A.A.F.F.A.A.F.F.F.A.A.A.A.A.A.A.A.A.A.A.A.A.A.A.A.A.A.A.A.A.A.A.A.A.A.A.A.A.A.Z.A.A.A.Z.Z.Z.A.A.A.Z.Z.Z.Z.Z.Z.Z.Z.Z.Z.Z.Z.Z.Z.Z.Z.Z.Z.Z.Z.Z.Z.Z.Z.Z.Z.Z.Z.Z.Z.Z.Z.Z.Z.Z.Z.Z.C.Z.Z.Z.C.C.C.C.C.C.C.C.C.C.C.C.C.C.C.B.C.C.C.      B.B.B.B.B.B.B.B.B.B.B.B.B.b.B.B.B.B.b.b.b.b.b.b.b.b.b.b.b.b.b.b.b.d.d.d.d.b.d.d.d.d.d.d.d.                                                                            # # # # # # # # # # # # # # # # # # # # # # # # t.t.8.t.t.t.t.8.8.8.8.8.8.8.8.8.8.8.8.8.8.8.%.%.8.8.@                                                                                                                                 ",
"                                                                                                                                    L.L.L.L.K.L.L.L.L.L.L.L.L.L.L.L.L.L.L.L.H.H.H.H.L.H.H.H.H.H.H.H.H.H.H.H.H.H.H.H.P.P.P.H.H.P.P.P.P.P.P.P.P.P.P.P.P.P.                                                                                                                                                            A.F.F.F.F.A.F.F.A.A.A.A.A.A.A.A.A.A.A.A.A.A.A.A.A.A.A.A.A.A.A.A.A.A.A.A.A.A.A.A.Z.Z.A.A.A.A.Z.Z.Z.Z.Z.Z.Z.Z.Z.Z.Z.Z.Z.Z.Z.Z.Z.Z.Z.Z.Z.Z.Z.Z.Z.Z.Z.Z.Z.Z.Z.Z.Z.Z.C.C.Z.Z.Z.Z.C.C.Z.C.C.C.C.C.C.C.C.C.C.C.C.C.C.C.C.C.B.B.          B.B.B.B.B.B.B.B.B.B.B.B.B.b.b.b.b.B.b.b.b.b.b.b.b.b.b.b.b.b.b.b.b.d.d.b.b.b.d.d.d.d.d.d.d.                                                                          $ # # # # # # # # # # # # # # # # # # # # # # # # t.t.8.8.8.8.8.8.8.8.8.8.8.8.8.8.8.8.8.8.8.8.%.%.                                                                                                                                    ",
"                                                                                                                                      L.L.L.L.L.L.L.L.L.L.L.L.L.L.L.L.L.L.L.L.H.H.H.L.L.H.H.H.H.H.H.H.H.H.H.H.H.H.H.H.P.P.P.H.H.P.P.P.P.P.P.P.P.P.P.P.P.P.P.                                                                                                                                                            F.F.F.F.F.F.A.A.A.A.A.A.A.A.A.A.A.A.A.A.A.A.A.A.A.A.A.A.A.A.A.A.A.A.A.A.A.A.A.Z.A.A.A.A.Z.Z.Z.Z.Z.Z.Z.Z.Z.Z.Z.Z.Z.Z.Z.Z.Z.Z.Z.Z.Z.Z.Z.Z.Z.Z.Z.Z.Z.Z.Z.Z.Z.Z.Z.C.Z.Z.Z.Z.Z.Z.C.C.C.C.C.C.C.C.C.C.C.C.C.C.C.C.C.C.                B.B.B.B.B.B.B.B.B.B.B.B.B.b.b.B.B.B.b.b.b.b.b.b.b.b.b.b.b.b.b.b.b.d.d.d.b.b.d.d.d.d.d.d.d.                                                                        $ # # # # # # # # # # # # # # # # # # # # # # # # # t.t.8.8.8.t.t.8.8.8.8.8.8.8.8.8.8.8.8.8.8.8.                                                                                                                                      ",
"                                                                                                                                        L.L.L.L.L.L.L.L.L.L.L.L.L.L.L.L.L.L.L.L.H.H.H.H.L.H.H.H.H.H.H.H.H.H.H.H.H.H.H.H.P.P.P.P.H.P.P.P.P.P.P.P.P.P.P.P.P.P.P.P.                                                                                                                                                          A.F.F.F.A.A.A.F.F.A.A.A.A.A.A.A.A.A.A.A.A.A.A.A.A.A.A.A.A.A.A.A.A.A.A.A.A.A.A.Z.A.Z.Z.A.Z.Z.Z.A.Z.Z.Z.Z.Z.Z.Z.Z.Z.Z.Z.Z.Z.Z.Z.Z.Z.Z.Z.Z.Z.Z.Z.Z.Z.Z.Z.Z.Z.Z.Z.C.C.C.C.Z.Z.C.C.Z.Z.Z.C.C.C.C.C.C.C.C.C.C.C.C.                    B.B.B.B.B.B.B.B.B.B.B.B.B.B.B.B.B.b.b.b.b.b.b.b.b.b.b.b.b.b.b.b.b.d.d.b.b.b.d.d.d.d.d.d.d.                                                                      $ # # # # # # # # # # # # # # # # # # # # # # # # # # t.t.t.t.t.t.t.8.8.8.8.8.8.8.8.8.8.8.8.8.                                                                                                                                        ",
"                                                                                                                                            L.L.L.L.L.L.L.L.L.L.L.L.L.L.L.L.L.L.L.H.H.H.H.L.H.H.H.H.H.H.H.H.H.H.H.H.H.H.H.P.P.P.H.H.P.P.P.P.P.P.P.P.P.P.P.P.P.P.P.P.                                                                                                                                                          F.F.F.A.A.F.F.F.A.A.A.A.A.A.A.A.A.A.A.A.A.A.A.A.A.A.A.A.A.A.A.A.A.A.A.A.A.A.Z.Z.Z.A.A.Z.Z.A.A.A.Z.Z.Z.Z.Z.Z.Z.Z.Z.Z.Z.Z.Z.Z.Z.Z.Z.Z.Z.Z.Z.Z.Z.Z.Z.Z.Z.Z.Z.Z.C.C.C.Z.Z.Z.C.Z.Z.Z.Z.C.C.C.C.C.C.C.C.C.                          B.B.B.B.B.B.B.B.B.B.B.B.B.B.B.b.b.B.b.b.b.b.b.b.b.b.b.b.b.b.b.b.b.d.d.b.b.b.d.d.d.d.d.d.d.                                                                    # # # # # # # # # # # # # # # # # # # # # # # # # # # # t.t.t.t.t.t.t.8.8.8.8.8.8.8.8.8.#                                                                                                                                             ",
"                                                                                                                                              L.L.L.L.L.L.L.L.L.L.L.L.L.L.L.L.L.L.L.H.H.H.H.H.H.H.H.H.H.H.H.H.H.H.H.H.H.H.H.P.P.H.H.P.P.P.P.P.P.P.P.P.P.P.P.P.P.P.P.G.G.                                                                                                                                                          F.F.A.F.F.F.F.A.A.A.A.A.A.A.A.A.A.A.A.A.A.A.A.A.A.A.A.A.A.A.A.A.A.A.A.A.A.Z.Z.A.A.Z.Z.Z.Z.A.A.Z.Z.Z.Z.Z.Z.Z.Z.Z.Z.Z.Z.Z.Z.Z.Z.Z.Z.Z.Z.Z.Z.Z.Z.Z.Z.Z.Z.Z.Z.C.C.Z.Z.Z.Z.Z.C.C.C.C.C.C.C.C.C.C.                                B.B.B.B.B.B.B.B.B.B.B.B.B.b.b.b.B.B.b.b.b.b.b.b.b.b.b.b.b.b.b.b.b.d.d.b.b.b.d.d.d.d.d.d.d.                                                                i.# # # # # # # # # # # # # # # # # # # # # # # # # # # # # t.t.8.8.t.t.t.8.8.8.8.8.8.8.8.                                                                                                                                              ",
"                                                                                                                                                L.L.L.L.L.L.L.L.L.L.L.L.L.L.L.L.L.L.L.H.H.H.H.H.H.H.H.H.H.H.H.H.H.H.H.H.H.H.H.P.H.H.P.P.P.P.P.P.P.P.P.P.P.P.P.P.P.P.P.G.G.G.                                                                                                                                                          F.F.F.A.A.F.A.A.A.A.A.A.A.A.A.A.A.A.A.A.A.A.A.A.A.A.A.A.A.A.A.A.A.A.A.A.Z.A.A.A.Z.Z.Z.A.A.A.Z.Z.Z.Z.Z.Z.Z.Z.Z.Z.Z.Z.Z.Z.Z.Z.Z.Z.Z.Z.Z.Z.Z.Z.Z.Z.Z.Z.Z.Z.C.Z.Z.Z.Z.Z.Z.C.C.Z.Z.C.C.C.                                      B.B.B.B.B.B.B.B.B.B.B.B.B.b.b.B.B.B.b.b.b.b.b.b.b.b.b.b.b.b.b.b.b.b.d.d.d.d.d.d.d.d.d.d.d.                                                              $ # # # # # $ # # # # # # # # # # # # # # # # # # # # # # # # t.t.8.8.t.t.t.8.8.8.8.8.8.                                                                                                                                                ",
"                                                                                                                                                    L.L.L.L.L.L.L.L.L.L.L.L.L.L.L.L.L.L.L.L.H.H.H.H.H.H.H.H.H.H.H.H.H.H.H.H.H.H.H.H.P.P.P.P.P.P.P.P.P.P.P.P.P.P.P.P.P.P.G.G.G.P.                                                                                                                                                          A.A.A.F.F.A.A.A.A.A.A.A.A.A.A.A.A.A.A.A.A.A.A.A.A.A.A.A.A.A.A.A.A.A.A.A.A.A.A.Z.Z.Z.Z.A.A.Z.Z.Z.Z.Z.Z.Z.Z.Z.Z.Z.Z.Z.Z.Z.Z.Z.Z.Z.Z.Z.Z.Z.Z.Z.Z.Z.Z.Z.Z.Z.C.Z.Z.Z.C.C.C.Z.C.C.                                            B.B.B.B.B.B.B.B.B.B.B.B.B.B.b.B.B.B.b.b.b.b.b.b.b.b.b.b.b.b.b.b.b.d.d.d.b.b.d.d.d.d.d.d.d.                                                              # # # # $ $ $ # # # # # # # # # # # # # # # # # # # # # # # # t.t.t.t.t.t.t.8.8.8.                                                                                                                                                    ",
"                                                                                                                                                      K.L.L.L.L.L.L.L.L.L.L.L.L.L.L.L.L.L.L.H.H.H.H.H.H.H.H.H.H.H.H.H.H.H.H.H.H.H.H.P.P.P.H.P.P.P.P.P.P.P.P.P.P.P.P.P.P.P.G.G.G.G.G.G.                                                                                                                                                        A.F.F.F.A.A.A.A.A.A.A.A.A.A.A.A.A.A.A.A.A.A.A.A.A.A.A.A.A.A.A.A.A.A.A.A.A.Z.Z.Z.Z.A.A.A.Z.Z.Z.Z.Z.Z.Z.Z.Z.Z.Z.Z.Z.Z.Z.Z.Z.Z.Z.Z.Z.Z.Z.Z.Z.Z.Z.Z.Z.Z.C.Z.Z.Z.C.C.C.C.                                                  B.B.B.B.B.B.B.B.B.B.B.B.B.b.b.B.B.B.b.b.b.b.b.b.b.b.b.b.b.b.b.b.b.d.b.b.b.b.d.d.d.d.d.d.d.                                                            # # # # $ $ $ # # # # # # # # # # # # # # # # # # # # # # # # # t.t.8.t.t.t.t.#                                                                                                                                                       ",
"                                                                                                                                                        K.L.L.L.L.L.L.L.L.L.L.L.L.L.L.L.L.L.H.H.H.H.L.H.H.H.H.H.H.H.H.H.H.H.H.H.H.H.P.P.H.H.P.P.P.P.P.P.P.P.P.P.P.P.P.P.P.P.G.G.P.G.P.G.G.                                                                                                                                                        A.A.A.A.A.A.A.A.A.A.A.A.A.A.A.A.A.A.A.A.A.A.A.A.A.A.A.A.A.A.A.A.A.Z.Z.A.A.A.Z.Z.Z.Z.Z.Z.Z.Z.Z.Z.Z.Z.Z.Z.Z.Z.Z.Z.Z.Z.Z.Z.Z.Z.Z.Z.Z.Z.Z.Z.Z.Z.Z.Z.Z.C.C.C.C.Z.                                                        B.B.B.B.B.B.B.B.B.B.B.B.B.b.b.B.B.B.b.b.b.b.b.b.b.b.b.b.b.b.b.b.b.d.d.d.d.b.d.d.d.d.d.d.d.                                                          # # # $ # # # # # # # # # # # # # # # # # # # # # # # # # # # # # t.t.t.t.t.t.                                                                                                                                                        ",
"                                                                                                                                                            L.L.L.L.L.L.L.L.L.L.L.L.L.L.L.L.L.H.H.H.H.L.H.H.H.H.H.H.H.H.H.H.H.H.H.H.H.H.H.P.P.P.P.P.P.P.P.P.P.P.P.P.P.P.P.P.P.G.P.P.P.G.G.G.G.                                                                                                                                                        A.A.A.A.A.A.A.A.A.A.A.A.A.A.A.A.A.A.A.A.A.A.A.A.A.A.A.A.A.A.A.A.A.A.A.A.Z.Z.Z.Z.Z.A.Z.Z.Z.Z.Z.Z.Z.Z.Z.Z.Z.Z.Z.Z.Z.Z.Z.Z.Z.Z.Z.Z.Z.Z.Z.Z.Z.Z.Z.Z.Z.Z.                                                              B.B.B.B.B.B.B.B.B.B.B.B.B.b.b.b.B.b.b.b.b.b.b.b.b.b.b.b.b.b.b.b.b.d.d.d.b.b.d.d.d.d.d.d.d.                                                        # # # $ $ # # $ # # # # # # # # # # # # # # # # # # # # # # # # # # t.t.t.                                                                                                                                                            ",
"                                                                                                                                                              L.L.L.L.L.L.L.L.L.L.L.L.L.L.L.L.L.H.H.L.L.L.H.H.H.H.H.H.H.H.H.H.H.H.H.H.H.H.H.P.P.H.P.P.P.P.P.P.P.P.P.P.P.P.P.P.P.G.G.P.P.G.G.G.G.G.G.                                                                                                                                                        A.A.A.A.A.A.A.A.A.A.A.A.A.A.A.A.A.A.A.A.A.A.A.A.A.A.A.A.A.A.A.A.Z.Z.Z.Z.A.A.A.A.Z.Z.Z.Z.Z.Z.Z.Z.Z.Z.Z.Z.Z.Z.Z.Z.Z.Z.Z.Z.Z.Z.Z.Z.Z.Z.Z.Z.                                                                      B.B.B.B.B.B.B.B.B.B.B.B.B.b.b.b.b.B.b.b.b.b.b.b.b.b.b.b.b.b.b.b.b.d.d.b.b.b.d.d.d.d.d.d.d.                                                        # # $ $ $ # $ $ # # # # # # # # # # # # # # # # # # # # # # # # # # t.                                                                                                                                                              ",
"                                                                                                                                                                  L.L.L.L.L.L.L.L.L.L.L.L.L.L.L.L.H.L.L.L.L.H.H.H.H.H.H.H.H.H.H.H.H.H.H.H.H.P.P.H.H.P.P.P.P.P.P.P.P.P.P.P.P.P.P.P.G.P.P.P.P.G.G.G.G.G.G.                                                                                                                                                          A.A.A.A.A.A.A.A.A.A.A.A.A.A.A.A.A.A.A.A.A.A.A.A.A.A.A.A.A.Z.Z.A.Z.A.A.A.A.Z.Z.Z.Z.Z.Z.Z.Z.Z.Z.Z.Z.Z.Z.Z.Z.Z.Z.Z.Z.Z.Z.Z.Z.Z.                                                                              B.B.B.B.B.B.B.B.B.B.B.B.B.b.b.B.B.B.b.b.b.b.b.b.b.b.b.b.b.b.b.b.b.d.d.b.b.b.d.d.d.d.d.d.d.                                                      $ # $ $ $ $ $ $ # # # # # # # # # # # # # # # # # # # # # # # # #                                                                                                                                                                   ",
"                                                                                                                                                                    L.L.L.L.L.L.L.L.L.L.L.L.L.L.L.L.H.L.H.H.H.H.H.H.H.H.H.H.H.H.H.H.H.H.H.H.P.P.H.H.H.P.P.P.P.P.P.P.P.P.P.P.P.P.P.P.P.G.P.P.P.G.G.G.G.G.G.G.G.                                                                                                                                                          A.A.A.A.A.A.A.A.A.A.A.A.A.A.A.A.A.A.A.A.A.A.A.A.A.A.Z.Z.A.A.A.A.Z.Z.Z.Z.Z.Z.Z.Z.Z.Z.Z.Z.Z.Z.Z.Z.Z.Z.Z.Z.Z.Z.Z.Z.                                                                                      B.B.B.B.B.B.B.B.B.B.B.B.B.b.B.B.B.B.b.b.b.b.b.b.b.b.b.b.b.b.b.b.b.d.b.b.b.b.d.d.d.d.d.d.d.                                                      $ $ $ $ $ $ # # # # $ # # # # # # # # # # # # # # # # # # # #                                                                                                                                                                     ",
"                                                                                                                                                                        L.L.L.L.L.L.L.L.L.L.L.L.L.L.L.L.H.H.H.H.H.H.H.H.H.H.H.H.H.H.H.H.H.H.H.P.H.H.H.H.P.P.P.P.P.P.P.P.P.P.P.P.P.P.P.G.P.G.P.P.G.G.G.G.G.G.G.G.G.G.                                                                                                                                                          A.A.A.A.A.A.A.A.A.A.A.A.A.A.A.A.A.A.A.A.A.A.A.A.Z.A.A.A.A.Z.Z.Z.Z.A.Z.Z.Z.Z.Z.Z.Z.Z.Z.Z.Z.Z.Z.Z.Z.                                                                                                B.B.B.B.B.B.B.B.B.B.B.B.B.B.b.B.B.B.b.b.b.b.b.b.b.b.b.b.b.b.b.b.b.b.d.d.b.b.d.d.d.d.d.d.d.                                                    $ $ $ $ $ $ $ # # # # $ # # # # # # # # # # # # # # # # #                                                                                                                                                                         ",
"                                                                                                                                                                          L.L.L.L.L.L.L.L.L.L.L.L.L.L.L.H.H.L.L.L.H.H.H.H.H.H.H.H.H.H.H.H.H.H.H.P.P.P.P.H.P.P.P.P.P.P.P.P.P.P.P.P.P.P.P.G.G.G.G.P.G.G.G.G.G.G.G.G.G.G.S.                                                                                                                                                                A.A.A.A.A.A.A.A.A.A.A.A.A.A.A.A.A.A.A.A.Z.A.A.A.A.Z.A.Z.A.A.Z.Z.Z.Z.Z.Z.Z.Z.Z.Z.                                                                                                          B.B.B.B.B.B.B.B.B.B.B.B.B.b.b.B.B.B.b.b.b.b.b.b.b.b.b.b.b.b.b.b.b.d.d.b.b.d.d.d.d.d.d.d.d.                                                    $ $ $ $ $ $ $ # # # $ $ # # # # # # # # # # # # # # @                                                                                                                                                                           ",
"                                                                                                                                                                              L.L.L.L.L.L.L.L.L.L.L.L.L.L.L.L.L.L.L.H.H.H.H.H.H.H.H.H.H.H.H.H.H.H.P.P.P.H.H.P.P.P.P.P.P.P.P.P.P.P.P.P.P.P.G.G.G.P.P.G.G.G.G.G.G.G.G.G.G.G.G.G.                                                                                                                                                                    A.A.A.A.A.A.A.A.A.A.A.A.A.A.A.A.A.A.A.A.A.A.A.A.A.A.Z.Z.Z.Z.                                                                                                                      B.B.B.B.B.B.B.B.B.B.B.B.B.b.B.B.B.B.b.b.b.b.b.b.b.b.b.b.b.b.b.b.b.d.d.d.d.b.d.d.d.d.d.d.d.                                                    $ $ # $ $ $ $ # # $ $ $ # # # # # # # # # # # #                                                                                                                                                                               ",
"                                                                                                                                                                                L.L.L.L.L.L.L.L.L.L.L.L.L.L.H.H.H.H.L.H.H.H.H.H.H.H.H.H.H.H.H.H.H.H.P.P.P.P.H.P.P.P.P.P.P.P.P.P.P.P.P.P.P.P.G.G.P.P.G.G.G.G.G.G.G.G.G.G.G.G.G.G.G.G.                                                                                                                                                                                  A.A.A.A.A.Z.A.A.Z.A.                                                                                                                                            B.B.B.B.B.B.B.B.B.B.B.B.B.b.b.b.b.B.b.b.b.b.b.b.b.b.b.b.b.b.b.b.b.d.d.b.b.b.d.d.d.d.d.d.d.                                                    $ $ # # # # $ # # # $ $ # # # # # # # # # i.                                                                                                                                                                                ",
"                                                                                                                                                                                    L.L.L.L.L.L.L.L.L.L.L.L.L.H.H.H.L.L.H.H.H.H.H.H.H.H.H.H.H.H.H.H.H.P.P.P.H.H.P.P.P.P.P.P.P.P.P.P.P.P.P.P.P.G.P.P.G.G.G.G.G.G.G.G.G.G.G.G.G.G.G.G.G.S.S.                                                                                                                                                                                                                                                                                                                                              B.B.B.B.B.B.B.B.B.B.B.B.B.b.b.b.B.B.b.b.b.b.b.b.b.b.b.b.b.b.b.b.b.d.d.d.b.b.d.d.d.d.d.d.d.                                                    $ $ # # # $ # # # $ $ # # # # # # # #                                                                                                                                                                                     ",
"                                                                                                                                                                                      L.L.L.L.L.L.L.L.L.L.L.L.L.H.H.H.H.L.H.H.H.H.H.H.H.H.H.H.H.H.H.H.H.P.P.P.H.P.P.P.P.P.P.P.P.P.P.P.P.P.P.P.P.P.P.P.G.P.G.G.G.G.G.G.G.G.G.G.G.G.G.G.G.S.S.S.S.                                                                                                                                                                                                                                                                                                                                          B.B.B.B.B.B.B.B.B.B.B.B.B.b.b.B.B.B.b.b.b.b.b.b.b.b.b.b.b.b.b.b.b.d.d.b.b.b.d.d.d.d.d.d.d.                                                    $ $ $ $ # # # # $ # # # # # # # #                                                                                                                                                                                       ",
"                                                                                                                                                                                          L.L.L.L.L.L.L.L.L.L.L.L.H.H.H.L.L.H.H.H.H.H.H.H.H.H.H.H.H.H.H.H.P.P.P.P.H.P.P.P.P.P.P.P.P.P.P.P.P.P.P.P.P.P.G.P.P.G.G.G.G.G.G.G.G.G.G.G.G.G.G.G.S.S.S.S.S.S.S.                                                                                                                                                                                                                                                                                                                                    B.B.B.B.B.B.B.B.B.B.B.B.B.b.b.b.b.B.b.b.b.b.b.b.b.b.b.b.b.b.b.b.b.d.b.b.b.b.d.d.d.d.d.d.d.                                                      p.$ # # # # # # # # # #                                                                                                                                                                                             ",
"                                                                                                                                                                                              L.L.L.L.L.L.L.L.L.L.L.H.H.H.H.H.H.H.H.H.H.H.H.H.H.H.H.H.H.H.H.P.P.P.P.H.P.P.P.P.P.P.P.P.P.P.P.P.P.P.P.G.G.P.P.P.G.G.G.G.G.G.G.G.G.G.G.G.G.G.G.S.S.S.S.S.S.S.S.S.                                                                                                                                                                                                                                                                                                                                B.B.B.B.B.B.B.B.B.B.B.B.B.b.b.B.B.B.b.b.b.b.b.b.b.b.b.b.b.b.b.b.b.d.d.d.b.b.d.d.d.d.d.d.d.                                                            $ $ i.# #                                                                                                                                                                                                   ",
"                                                                                                                                                                                                L.L.L.L.L.L.L.L.L.L.L.H.H.H.H.L.H.H.H.H.H.H.H.H.H.H.H.H.H.H.H.P.P.H.H.H.P.P.P.P.P.P.P.P.P.P.P.P.P.P.P.G.P.P.P.P.G.G.G.G.G.G.G.G.G.G.G.G.G.G.G.S.S.S.S.S.S.S.S.S.S.S.S.                                                                                                                                                                                                                                                                                                                          B.B.B.B.B.B.B.B.B.B.B.B.B.b.b.b.B.B.b.b.b.b.b.b.b.b.b.b.b.b.b.b.b.d.d.b.b.b.d.d.d.d.d.d.d.                                                                                                                                                                                                                                                                      ",
"                                                                                                                                                                                                    L.L.L.L.L.L.L.L.L.L.H.H.L.L.L.H.H.H.H.H.H.H.H.H.H.H.H.H.H.H.P.P.H.H.H.P.P.P.P.P.P.P.P.P.P.P.P.P.P.P.G.G.P.P.P.G.G.G.G.G.G.G.G.G.G.G.G.G.G.G.S.S.S.S.S.S.S.S.S.S.S.S.S.S.S.                                                                                                                                                                                                                                                                                                                    B.B.B.B.B.B.B.B.B.B.B.B.B.b.b.B.B.B.b.b.b.b.b.b.b.b.b.b.b.b.b.b.b.b.b.b.b.b.d.d.d.d.d.d.d.                                                                                                                                                                                                                                                                    ",
"                                                                                                                                                                                                        L.L.L.L.L.L.L.L.L.H.L.L.L.L.H.H.H.H.H.H.H.H.H.H.H.H.H.H.H.P.H.H.H.H.P.P.P.P.P.P.P.P.P.P.P.P.P.P.P.G.G.G.P.P.G.G.G.G.G.G.G.G.G.G.G.G.G.G.G.S.S.S.S.S.S.S.S.S.S.S.S.S.S.S.S.F.S.                                                                                                                                                                                                                                                                                                              B.B.B.B.B.B.B.B.B.B.B.B.B.b.b.B.B.B.b.b.b.b.b.b.b.b.b.b.b.b.b.b.b.d.d.b.b.b.d.d.d.d.d.d.d.                                                                                                                                                                                                                                                                  ",
"                                                                                                                                                                                                            L.L.L.L.L.L.L.L.H.H.H.H.L.H.H.H.H.H.H.H.H.H.H.H.H.H.H.H.P.P.P.H.H.P.P.P.P.P.P.P.P.P.P.P.P.P.P.P.G.G.G.G.G.G.G.G.G.G.G.G.G.G.G.G.G.G.G.G.S.S.S.S.S.S.S.S.S.S.S.S.S.S.S.F.F.F.S.S.F.                                                                                                                                                                                                                                                                                                        B.B.B.B.B.B.B.B.B.B.B.B.B.b.B.B.B.B.b.b.b.b.b.b.b.b.b.b.b.b.b.b.b.d.d.b.b.b.d.d.d.d.d.d.d.                                                                                                                                                                                                                                                                ",
"                                                                                                                                                                                                              L.L.L.L.L.L.L.L.H.H.H.L.L.H.H.H.H.H.H.H.H.H.H.H.H.H.H.H.P.P.P.H.H.P.P.P.P.P.P.P.P.P.P.P.P.P.P.P.G.G.G.G.G.G.G.G.G.G.G.G.G.G.G.G.G.G.G.G.S.S.S.S.S.S.S.S.S.S.S.S.S.S.S.F.F.S.F.S.F.F.F.S.F.                                                                                                                                                                                                                                                                                                B.B.B.B.B.B.B.B.B.B.B.B.B.B.b.b.B.B.b.b.b.b.b.b.b.b.b.b.b.b.b.b.b.d.d.d.b.d.d.d.d.d.d.d.d.                                                                                                                                                                                                                                                              ",
"                                                                                                                                                                                                                  L.L.L.L.L.L.L.H.H.H.H.L.H.H.H.H.H.H.H.H.H.H.H.H.H.H.H.P.P.P.P.H.P.P.P.P.P.P.P.P.P.P.P.P.P.P.P.P.P.G.P.P.G.G.G.G.G.G.G.G.G.G.G.G.G.G.G.S.S.S.S.S.S.S.S.S.S.S.S.S.S.S.F.S.S.S.S.F.F.F.F.S.S.F.F.F.                                                                                                                                                                                                                                                                                        B.B.B.B.B.B.B.B.B.B.B.B.B.b.b.B.B.b.b.b.b.b.b.b.b.b.b.b.b.b.b.b.b.d.d.d.d.b.d.d.d.d.d.d.d.                                                                                                                                                                                                                                                            ",
"                                                                                                                                                                                                                      L.L.L.L.L.L.H.H.H.H.L.H.H.H.H.H.H.H.H.H.H.H.H.H.H.H.P.P.P.H.H.P.P.P.P.P.P.P.P.P.P.P.P.P.P.P.P.P.P.P.P.G.G.G.G.G.G.G.G.G.G.G.G.G.G.G.S.S.S.S.S.S.S.S.S.S.S.S.S.S.S.S.S.S.S.S.F.F.F.F.S.F.F.F.F.F.F.F.F.F.                                                                                                                                                                                                      Z.Z.Z.C.C.C.Z.                                                          B.B.B.B.B.B.B.B.B.B.B.B.B.b.b.b.b.B.b.b.b.b.b.b.b.b.b.b.b.b.b.b.b.d.d.b.b.b.d.d.d.d.d.d.d.                                                                                                                                                                                                                                                          ",
"                                                                                                                                                                                                                          L.L.L.L.L.H.H.L.H.H.H.H.H.H.H.H.H.H.H.H.H.H.H.H.H.P.P.P.P.H.P.P.P.P.P.P.P.P.P.P.P.P.P.P.P.G.G.G.G.P.G.G.G.G.G.G.G.G.G.G.G.G.G.G.G.S.S.S.S.S.S.S.S.S.S.S.S.S.S.S.S.S.S.S.S.F.F.F.F.F.F.F.F.F.F.F.F.F.F.F.F.F.F.F.                                                                                                                                                                            Z.Z.Z.Z.Z.Z.Z.Z.Z.Z.Z.C.C.C.C.Z.Z.                                                      B.B.B.B.B.B.B.B.B.B.B.B.B.b.b.B.B.B.b.b.b.b.b.b.b.b.b.b.b.b.b.b.b.d.b.b.b.d.d.d.d.d.d.d.d.                                                                                                                                                                                                                                                        ",
"                                                                                                                                                                                                                              L.L.L.L.H.L.H.H.H.H.H.H.H.H.H.H.H.H.H.H.H.H.H.H.P.P.P.H.H.P.P.P.P.P.P.P.P.P.P.P.P.P.P.P.G.G.G.P.P.G.G.G.G.G.G.G.G.G.G.G.G.G.G.G.S.S.S.S.S.S.S.S.S.S.S.S.S.S.S.F.F.S.S.F.F.F.F.F.F.F.F.F.F.F.F.F.F.F.F.F.F.F.F.F.F.F.F.F.F.F.                                                                                                                                            Z.Z.Z.Z.Z.Z.Z.Z.Z.Z.Z.Z.Z.Z.Z.Z.Z.Z.Z.Z.C.C.Z.Z.Z.Z.C.                                                    B.B.B.B.B.B.B.B.B.B.B.B.B.b.b.b.B.B.b.b.b.b.b.b.b.b.b.b.b.b.b.b.b.b.b.b.d.d.d.d.d.d.d.d.d.                                                                                                                                                                                                                                                      ",
"                                                                                                                                                                                                                                  L.L.L.L.L.H.H.L.H.H.H.H.H.H.H.H.H.H.H.H.H.H.H.P.P.H.H.H.P.P.P.P.P.P.P.P.P.P.P.P.P.P.P.G.G.G.P.P.G.G.G.G.G.G.G.G.G.G.G.G.G.G.G.S.S.S.S.S.S.S.S.S.S.S.S.S.S.S.F.S.S.S.S.F.S.F.F.F.S.F.F.F.F.F.F.F.F.F.F.F.F.F.F.F.F.F.F.F.F.F.F.F.F.F.F.F.F.F.                                                                                                    A.Z.Z.Z.Z.Z.Z.Z.Z.Z.Z.Z.Z.Z.Z.Z.Z.Z.Z.Z.Z.Z.Z.Z.Z.Z.Z.Z.Z.Z.Z.C.C.Z.Z.Z.Z.C.                                                    B.B.B.B.B.B.B.B.B.B.B.B.B.b.b.B.B.B.b.b.b.b.b.b.b.b.b.b.b.b.b.b.b.d.d.d.b.b.d.d.d.d.d.d.d.                                                                                                                                                                                                                                                    ",
"                                                                                                                                                                                                                                      L.L.L.H.H.L.L.H.H.H.H.H.H.H.H.H.H.H.H.H.H.H.P.H.H.H.H.P.P.P.P.P.P.P.P.P.P.P.P.P.P.P.G.P.P.P.P.G.G.G.G.G.G.G.G.G.G.G.G.G.G.G.S.S.S.S.S.S.S.S.S.S.S.S.S.S.S.S.S.S.S.S.S.F.F.F.F.S.F.F.F.F.F.F.F.F.F.F.F.F.F.F.F.F.F.F.F.F.F.F.F.F.F.F.F.F.F.F.F.F.F.F.F.A.A.A.A.A.A.A.A.A.A.A.A.A.A.      A.A.A.A.A.A.A.A.A.A.A.A.A.A.A.A.A.A.A.A.A.A.A.Z.Z.Z.Z.Z.Z.Z.Z.Z.Z.Z.Z.Z.Z.Z.Z.Z.Z.Z.Z.Z.Z.Z.Z.Z.Z.Z.Z.Z.Z.Z.Z.Z.Z.Z.C.Z.Z.Z.Z.Z.C.                                                    B.B.B.B.B.B.B.B.B.B.B.B.B.b.b.B.B.B.b.b.b.b.b.b.b.b.b.b.b.b.b.b.b.d.d.b.b.b.d.d.d.d.d.d.d.                                                                                                                                                                                                                                                  ",
"                                                                                                                                                                                                                                          L.H.H.H.H.H.H.H.H.H.H.H.H.H.H.H.H.H.H.H.H.P.P.P.P.P.P.P.P.P.P.P.P.P.P.P.P.P.P.P.P.G.G.P.P.G.G.G.G.G.G.G.G.G.G.G.G.G.G.G.G.S.S.S.S.S.S.S.S.S.S.S.S.S.S.S.F.F.F.F.F.S.F.F.F.F.S.F.F.F.F.F.F.F.F.F.F.F.F.F.F.F.F.F.F.F.F.F.F.F.F.F.F.F.F.F.F.A.A.A.A.A.A.A.A.A.F.A.A.A.A.A.A.A.A.A.A.A.A.A.A.A.A.A.A.A.A.A.A.A.A.A.A.A.A.A.A.Z.Z.Z.Z.A.A.Z.Z.Z.Z.Z.Z.Z.Z.Z.Z.Z.Z.Z.Z.Z.Z.Z.Z.Z.Z.Z.Z.Z.Z.Z.Z.Z.Z.Z.Z.Z.Z.Z.Z.C.C.C.C.C.C.Z.                                                    B.B.B.B.B.B.B.B.B.B.B.B.B.b.b.B.B.B.b.b.b.b.b.b.b.b.b.b.b.b.b.b.b.d.d.d.d.b.d.d.d.d.d.d.d.                                                                                                                                                                                                                                                ",
"                                                                                                                                                                                                                                              H.H.H.H.H.H.H.H.H.H.H.H.H.H.H.H.H.H.H.H.P.P.P.P.P.P.P.P.P.P.P.P.P.P.P.P.P.P.P.P.G.P.P.G.G.G.G.G.G.G.G.G.G.G.G.G.G.G.G.G.S.S.S.S.S.S.S.S.S.S.S.S.S.S.S.F.F.F.F.S.S.F.F.F.S.S.F.F.F.F.F.F.F.F.F.F.F.F.F.F.F.F.F.F.F.F.F.F.F.F.F.F.F.F.F.F.A.A.A.F.F.A.A.A.F.F.A.A.A.A.A.A.A.A.A.A.A.A.A.A.A.A.A.A.A.A.A.A.A.A.A.A.A.A.A.A.Z.Z.Z.A.A.Z.Z.Z.A.A.Z.Z.Z.Z.Z.Z.Z.Z.Z.Z.Z.Z.Z.Z.Z.Z.Z.Z.Z.Z.Z.Z.Z.Z.Z.Z.Z.Z.Z.Z.Z.C.C.Z.Z.Z.Z.                                                    B.B.B.B.B.B.B.B.B.B.B.B.B.B.b.b.b.b.b.b.b.b.b.b.b.b.b.b.b.b.b.b.b.d.d.d.b.b.d.d.d.d.d.d.d.                                                                                                                                                                                                                                              ",
"                                                                                                                                                                                                                                                  H.L.L.L.H.H.H.H.H.H.H.H.H.H.H.H.H.H.H.H.H.P.H.H.P.P.P.P.P.P.P.P.P.P.P.P.P.P.P.P.P.P.G.P.G.G.G.G.G.G.G.G.G.G.G.G.G.G.G.S.S.S.S.S.S.S.S.S.S.S.S.S.S.S.S.S.S.S.S.F.F.S.S.S.S.F.F.F.F.F.F.F.F.F.F.F.F.F.F.F.F.F.F.F.F.F.F.F.F.F.F.F.F.F.F.F.F.F.F.A.A.A.A.F.F.A.A.A.A.A.A.A.A.A.A.A.A.A.A.A.A.A.A.A.A.A.A.A.A.A.A.A.A.A.A.Z.A.A.A.Z.Z.A.A.A.A.Z.Z.Z.Z.Z.Z.Z.Z.Z.Z.Z.Z.Z.Z.Z.Z.Z.Z.Z.Z.Z.Z.Z.Z.Z.Z.Z.Z.Z.Z.Z.Z.Z.Z.Z.Z.C.                                                    B.B.B.B.B.B.B.B.B.B.B.B.B.b.b.b.B.B.b.b.b.b.b.b.b.b.b.b.b.b.b.b.b.d.d.b.b.b.d.d.d.d.d.d.d.                                                                                                                                                                                                                                            ",
"                                                                                                                                                                                                                                                      L.L.L.H.H.H.H.H.H.H.H.H.H.H.H.H.H.H.H.H.H.P.P.P.P.P.P.P.P.P.P.P.P.P.P.P.P.P.P.P.G.P.P.G.G.G.G.G.G.G.G.G.G.G.G.G.G.G.S.S.S.S.S.S.S.S.S.S.S.S.S.S.S.S.S.S.S.F.F.S.S.S.S.F.F.F.F.F.F.F.F.F.F.F.F.F.F.F.F.F.F.F.F.F.F.F.F.F.F.F.F.F.F.F.F.F.F.A.A.A.A.F.F.F.A.A.A.A.A.A.A.A.A.A.A.A.A.A.A.A.A.A.A.A.A.A.A.A.A.A.A.A.A.A.Z.A.A.Z.Z.A.A.A.A.Z.Z.Z.Z.Z.Z.Z.Z.Z.Z.Z.Z.Z.Z.Z.Z.Z.Z.Z.Z.Z.Z.Z.Z.Z.Z.Z.Z.Z.Z.Z.Z.Z.Z.Z.Z.C.                                                      B.B.B.B.B.B.B.B.B.B.B.B.B.b.B.B.B.B.b.b.b.b.b.b.b.b.b.b.b.b.b.b.b.d.d.b.b.b.d.d.d.d.d.d.d.                                                                                                                                                                                                                                          ",
"                                                                                                                                                                                                                                                            H.H.H.H.H.H.H.H.H.H.H.H.H.H.H.H.H.P.P.P.P.P.P.P.P.P.P.P.P.P.P.P.P.P.P.P.G.G.P.P.P.G.G.G.G.G.G.G.G.G.G.G.G.G.G.G.S.S.S.S.S.S.S.S.S.S.S.S.S.S.S.F.F.F.S.S.F.S.F.F.F.F.F.F.F.F.F.F.F.F.F.F.F.F.F.F.F.F.F.F.F.F.F.F.F.F.F.F.F.F.F.F.F.A.F.F.F.A.A.A.A.F.A.A.A.A.A.A.A.A.A.A.A.A.A.A.A.A.A.A.A.A.A.A.A.A.A.A.A.A.A.A.Z.Z.A.A.A.A.Z.Z.Z.Z.Z.Z.Z.Z.Z.Z.Z.Z.Z.Z.Z.Z.Z.Z.Z.Z.Z.Z.Z.Z.Z.Z.Z.Z.Z.Z.Z.Z.Z.Z.Z.C.C.C.C.C.                                                      B.B.B.B.B.B.B.B.B.B.B.B.B.B.B.B.b.B.b.b.b.b.b.b.b.b.b.b.b.b.b.b.b.d.b.b.b.b.d.d.d.d.d.d.d.                                                                                                                                                                                                                                        ",
"                                                                                                                                                                                                                                                                H.H.H.H.H.H.H.H.H.H.H.H.H.H.H.P.P.P.P.P.P.P.P.P.P.P.P.P.P.P.P.P.P.P.P.G.P.P.P.P.G.G.G.G.G.G.G.G.G.G.G.G.G.G.G.S.S.S.S.S.S.S.S.S.S.S.S.S.S.S.F.F.S.S.S.S.F.F.F.F.S.F.F.F.F.F.F.F.F.F.F.F.F.F.F.F.F.F.F.F.F.F.F.F.F.F.F.F.F.F.F.A.F.F.F.F.A.A.A.F.F.A.A.A.A.A.A.A.A.A.A.A.A.A.A.A.A.A.A.A.A.A.A.A.A.A.A.A.A.A.A.Z.A.A.A.A.Z.Z.Z.Z.A.Z.Z.Z.Z.Z.Z.Z.Z.Z.Z.Z.Z.Z.Z.Z.Z.Z.Z.Z.Z.Z.Z.Z.Z.Z.Z.Z.Z.Z.Z.C.C.Z.C.C.                                                        B.B.B.B.B.B.B.B.B.B.B.B.B.B.b.b.B.B.b.b.b.b.b.b.b.b.b.b.b.b.b.b.b.b.d.d.b.b.d.d.d.d.d.d.d.                                                                                                                                                                                                                                      ",
"                                                                                                                                                                                                                                                                    L.H.H.H.H.H.H.H.H.H.H.H.H.H.H.H.H.H.H.P.P.P.P.P.P.P.P.P.P.P.P.P.P.P.G.G.P.P.P.G.G.G.G.G.G.G.G.G.G.G.G.G.G.G.S.S.S.S.S.S.S.S.S.S.S.S.S.S.S.F.S.S.S.S.F.F.S.S.S.S.F.F.F.F.F.F.F.F.F.F.F.F.F.F.F.F.F.F.F.F.F.F.F.F.F.F.F.F.F.F.F.F.F.F.A.A.F.F.F.F.A.A.A.A.A.A.A.A.A.A.A.A.A.A.A.A.A.A.A.A.A.A.A.A.A.A.A.A.A.A.A.A.A.A.A.Z.A.Z.A.A.Z.Z.Z.Z.Z.Z.Z.Z.Z.Z.Z.Z.Z.Z.Z.Z.Z.Z.Z.Z.Z.Z.Z.Z.Z.Z.Z.Z.Z.Z.Z.Z.Z.Z.Z.                                                        B.B.B.B.B.B.B.B.B.B.B.B.B.b.b.B.B.B.b.b.b.b.b.b.b.b.b.b.b.b.b.b.b.d.d.b.b.b.d.d.d.d.d.d.d.                                                                                                                                                                                                                                    ",
"                                                                                                                                                                                                                                                                          H.H.H.H.H.H.H.H.H.H.H.H.H.H.H.H.H.P.P.P.P.P.P.P.P.P.P.P.P.P.P.P.G.G.G.P.P.G.G.G.G.G.G.G.G.G.G.G.G.G.G.G.S.S.S.S.S.S.S.S.S.S.S.S.S.S.S.S.S.S.S.S.S.S.S.S.S.S.F.F.F.F.F.F.F.F.F.F.F.F.F.F.F.F.F.F.F.F.F.F.F.F.F.F.F.F.F.F.F.F.A.A.A.F.F.F.F.F.A.A.A.A.A.A.A.A.A.A.A.A.A.A.A.A.A.A.A.A.A.A.A.A.A.A.A.A.A.A.A.A.A.A.A.A.A.A.A.A.Z.Z.Z.Z.Z.Z.Z.Z.Z.Z.Z.Z.Z.Z.Z.Z.Z.Z.Z.Z.Z.Z.Z.Z.Z.Z.Z.Z.Z.Z.Z.Z.Z.Z.                                                          B.B.B.B.B.B.B.B.B.B.B.B.B.b.B.B.B.B.b.b.b.b.b.b.b.b.b.b.b.b.b.b.b.d.b.b.b.b.d.d.d.d.d.d.d.                                                                                                                                                                                                                                  ",
"                                                                                                                                                                                                                                                                              H.H.H.H.H.H.H.H.H.H.H.P.P.H.H.H.P.P.P.P.P.P.P.P.P.P.P.P.P.P.P.G.G.G.G.G.G.G.G.G.G.G.G.G.G.G.G.G.G.G.G.S.S.S.S.S.S.S.S.S.S.S.S.S.S.S.F.F.F.F.F.S.F.F.F.F.F.F.F.F.F.F.F.F.F.F.F.F.F.F.F.F.F.F.F.F.F.F.F.F.F.F.F.F.F.F.F.A.A.A.A.A.A.A.F.F.F.A.A.A.A.A.A.A.A.A.A.A.A.A.A.A.A.A.A.A.A.A.A.A.A.A.A.A.A.A.A.Z.Z.Z.Z.Z.Z.Z.Z.A.A.Z.Z.Z.Z.Z.Z.Z.Z.Z.Z.Z.Z.Z.Z.Z.Z.Z.Z.Z.Z.Z.Z.Z.Z.Z.Z.Z.Z.Z.Z.C.C.C.                                                            B.B.B.B.B.B.B.B.B.B.B.B.B.b.b.B.B.B.b.b.b.b.b.b.b.b.b.b.b.b.b.b.b.d.d.d.d.b.d.d.d.d.d.d.d.                                                                                                                                                                                                                                ",
"                                                                                                                                                                                                                                                                                  H.H.H.H.H.H.H.H.H.H.P.H.P.H.H.P.P.P.P.P.P.P.P.P.P.P.P.P.P.P.G.G.G.G.G.G.G.G.G.G.G.G.G.G.G.G.G.G.G.G.S.S.S.S.S.S.S.S.S.S.S.S.S.S.S.F.F.F.F.S.S.F.F.F.F.F.F.F.F.F.F.F.F.F.F.F.F.F.F.F.F.F.F.F.F.F.F.F.F.F.F.F.F.F.F.F.A.A.A.F.A.A.A.F.F.A.A.A.A.A.A.A.A.A.A.A.A.A.A.A.A.A.A.A.A.A.A.A.A.A.A.A.A.A.A.A.Z.Z.Z.A.Z.Z.Z.A.A.A.Z.Z.Z.Z.Z.Z.Z.Z.Z.Z.Z.Z.Z.Z.Z.Z.Z.Z.Z.Z.Z.Z.Z.Z.Z.Z.Z.Z.Z.Z.C.C.                                                              B.B.B.B.B.B.B.B.B.B.B.B.B.b.b.b.B.b.b.b.b.b.b.b.b.b.b.b.b.b.b.b.b.d.d.d.b.b.d.d.d.d.d.d.d.                                                                                                                                                                                                                              ",
"                                                                                                                                                                                                                                                                                        H.H.H.H.H.H.H.H.P.P.P.P.H.P.P.P.P.P.P.P.P.P.P.P.P.P.P.P.P.P.G.P.P.G.G.G.G.G.G.G.G.G.G.G.G.G.G.G.S.S.S.S.S.S.S.S.S.S.S.S.S.S.S.S.S.S.S.S.S.S.F.F.S.F.F.F.F.F.F.F.F.F.F.F.F.F.F.F.F.F.F.F.F.F.F.F.F.F.F.F.F.F.F.F.F.F.F.F.F.A.A.A.A.F.A.A.A.A.A.A.A.A.A.A.A.A.A.A.A.A.A.A.A.A.A.A.A.A.A.A.A.A.A.A.A.A.A.A.Z.Z.Z.Z.A.Z.Z.Z.Z.Z.Z.Z.Z.Z.Z.Z.Z.Z.Z.Z.Z.Z.Z.Z.Z.Z.Z.Z.Z.Z.Z.Z.Z.Z.Z.Z.Z.                                                                B.B.B.B.B.B.B.B.B.B.B.B.B.b.b.b.b.B.b.b.b.b.b.b.b.b.b.b.b.b.b.b.b.d.d.b.b.d.d.d.d.d.d.d.d.                                                                                                                                                                                                                            ",
"                                                                                                                                                                                                                                                                                              H.H.H.H.H.H.P.P.P.P.H.P.P.P.P.P.P.P.P.P.P.P.P.P.P.P.P.P.P.P.P.G.G.G.G.G.G.G.G.G.G.G.G.G.G.G.S.S.S.S.S.S.S.S.S.S.S.S.S.S.S.S.S.S.S.S.F.F.F.F.F.S.F.F.F.F.F.F.F.F.F.F.F.F.F.F.F.F.F.F.F.F.F.F.F.F.F.F.F.F.F.F.F.F.F.F.A.A.A.A.A.A.A.A.A.A.A.A.A.A.A.A.A.A.A.A.A.A.A.A.A.A.A.A.A.A.A.A.A.A.A.A.A.A.A.Z.Z.Z.Z.A.A.Z.Z.Z.Z.Z.Z.Z.Z.Z.Z.Z.Z.Z.Z.Z.Z.Z.Z.Z.Z.Z.Z.Z.Z.Z.Z.Z.Z.Z.Z.Z.                                                                  B.B.B.B.B.B.B.B.B.B.B.B.B.b.b.B.B.B.b.b.b.b.b.b.b.b.b.b.b.b.b.b.b.d.d.d.d.d.d.d.d.d.d.d.d.                                                                                                                                                                                                                          ",
"                                                                                                                                                                                                                                                                                                  P.H.H.H.H.P.P.P.P.H.P.P.P.P.P.P.P.P.P.P.P.P.P.P.P.G.G.G.G.P.G.G.G.G.G.G.G.G.G.G.G.G.G.G.G.G.G.S.S.S.S.S.S.S.S.S.S.S.S.S.F.F.F.S.S.F.F.F.F.S.S.F.F.F.F.F.F.F.F.F.F.F.F.F.F.F.F.F.F.F.F.F.F.F.F.F.F.F.F.F.F.F.F.F.F.A.A.A.A.A.A.A.A.A.A.A.A.A.A.A.A.A.A.A.A.A.A.A.A.A.A.A.A.A.A.A.A.A.A.A.A.A.A.A.A.Z.Z.Z.Z.Z.Z.Z.Z.Z.Z.Z.Z.Z.Z.Z.Z.Z.Z.Z.Z.Z.Z.Z.Z.Z.Z.Z.Z.Z.Z.Z.Z.Z.Z.Z.                                                                    B.B.B.B.B.B.B.B.B.B.B.B.B.b.B.B.B.B.b.b.b.b.b.b.b.b.b.b.b.b.b.b.b.d.d.b.b.b.d.d.d.d.d.d.d.                                                                                                                                                                                                                        ",
"                                                                                                                                                                                                                                                                                                        H.H.H.P.P.H.H.H.P.P.P.P.P.P.P.P.P.P.P.P.P.P.P.G.G.G.P.P.G.G.G.G.G.G.G.G.G.G.G.G.G.G.G.G.S.S.S.S.S.S.S.S.S.S.S.S.S.S.F.F.S.S.F.F.F.F.S.S.S.F.F.F.F.F.F.F.F.F.F.F.F.F.F.F.F.F.F.F.F.F.F.F.F.F.F.F.F.F.F.A.F.F.A.A.A.A.A.A.F.A.A.A.A.A.A.A.A.A.A.A.A.A.A.A.A.A.A.A.A.A.A.A.A.A.A.A.A.A.A.Z.A.A.A.Z.Z.Z.Z.Z.A.Z.Z.Z.Z.Z.Z.Z.Z.Z.Z.Z.Z.Z.Z.Z.Z.Z.Z.Z.Z.Z.Z.Z.Z.Z.Z.Z.Z.                                                                      B.B.B.B.B.B.B.B.B.B.B.B.B.B.b.B.B.B.b.b.b.b.b.b.b.b.b.b.b.b.b.b.b.d.b.b.b.b.d.d.d.d.d.d.d.                                                                                                                                                                                                                      ",
"                                                                                                                                                                                                                                                                                                              P.J.P.H.H.H.P.P.P.P.P.P.P.P.P.P.P.P.P.P.P.G.G.G.P.P.G.G.G.G.G.G.G.G.G.G.G.G.G.G.G.S.S.S.S.S.S.S.S.S.S.S.S.S.S.S.F.S.S.S.S.F.F.F.S.S.S.F.F.F.F.F.F.F.F.F.F.F.F.F.F.F.F.F.F.F.F.F.F.F.F.F.F.F.F.F.F.F.F.F.F.F.A.A.A.F.F.A.A.A.A.A.A.A.A.A.A.A.A.A.A.A.A.A.A.A.A.A.A.A.A.A.A.A.A.A.A.A.A.A.A.A.Z.Z.Z.A.A.Z.Z.Z.Z.Z.Z.Z.Z.Z.Z.Z.Z.Z.Z.Z.Z.Z.Z.Z.Z.Z.Z.Z.Z.Z.Z.Z.                                                                        B.B.B.B.B.B.B.B.B.B.B.B.B.b.b.B.B.B.b.b.b.b.b.b.b.b.b.b.b.b.b.b.b.b.b.b.d.d.d.d.d.d.d.d.d.                                                                                                                                                                                                                    ",
"                                                                                                                                                                                                                                                                                                                    H.H.H.H.P.P.P.P.P.P.P.P.P.P.P.P.P.P.P.G.P.P.P.P.G.G.G.G.G.G.G.G.G.G.G.G.G.G.G.S.S.S.S.S.S.S.S.S.S.S.S.S.S.S.S.S.S.S.S.F.F.F.S.S.S.F.F.F.F.F.F.F.F.F.F.F.F.F.F.F.F.F.F.F.F.F.F.F.F.F.F.F.F.F.F.F.F.F.F.F.A.F.F.F.F.A.A.A.A.A.A.A.A.A.A.A.A.A.A.A.A.A.A.A.A.A.A.A.A.A.A.A.A.A.A.A.A.A.A.A.Z.Z.A.A.A.Z.Z.Z.Z.Z.Z.Z.Z.Z.Z.Z.Z.Z.Z.Z.Z.Z.Z.Z.Z.Z.Z.Z.Z.Z.Z.                                                                          B.B.B.B.B.B.B.B.B.B.B.B.B.b.B.B.B.B.b.b.b.b.b.b.b.b.b.b.b.b.b.b.b.d.d.d.b.b.d.d.d.d.d.d.d.                                                                                                                                                                                                                  ",
"                                                                                                                                                                                                                                                                                                                          P.P.P.P.P.P.P.P.P.P.P.P.P.P.P.P.P.G.G.P.P.P.G.G.G.G.G.G.G.G.G.G.G.G.G.G.G.S.S.S.S.S.S.S.S.S.S.S.S.S.S.S.F.F.S.S.S.F.F.S.S.F.F.F.F.F.F.F.F.F.F.F.F.F.F.F.F.F.F.F.F.F.F.F.F.F.F.F.F.F.F.F.F.A.A.F.F.F.F.F.F.F.F.A.A.A.A.A.A.A.A.A.A.A.A.A.A.A.A.A.A.A.A.A.A.A.A.A.A.A.A.A.A.Z.Z.Z.Z.A.A.Z.Z.A.A.Z.Z.Z.Z.Z.Z.Z.Z.Z.Z.Z.Z.Z.Z.Z.Z.Z.Z.Z.Z.Z.Z.Z.Z.                                                                              B.B.B.B.B.B.B.B.B.B.B.B.B.b.b.b.b.B.b.b.b.b.b.b.b.b.b.b.b.b.b.b.b.d.d.d.b.b.d.d.d.d.d.d.d.                                                                                                                                                                                                                ",
"                                                                                                                                                                                                                                                                                                                                P.J.P.P.P.P.P.P.P.P.P.P.P.P.P.G.P.P.P.P.G.G.G.G.G.G.G.G.G.G.G.G.G.G.G.S.S.S.S.S.S.S.S.S.S.S.S.S.S.S.F.S.S.S.S.F.S.S.F.F.F.F.F.F.F.F.F.F.F.F.F.F.F.F.F.F.F.F.F.F.F.F.F.F.F.F.F.F.F.F.F.A.F.F.F.F.F.F.A.A.F.A.A.A.A.A.A.A.A.A.A.A.A.A.A.A.A.A.A.A.A.A.A.A.A.A.A.A.A.A.A.Z.Z.Z.A.A.Z.A.A.A.Z.Z.Z.Z.Z.Z.Z.Z.Z.Z.Z.Z.Z.Z.Z.Z.Z.Z.Z.Z.Z.Z.Z.Z.                                                                                B.B.B.B.B.B.B.B.B.B.B.B.B.b.b.b.B.B.b.b.b.b.b.b.b.b.b.b.b.b.b.b.b.d.d.b.b.b.d.d.d.d.d.d.d.                                                                                                                                                                                                              ",
"                                                                                                                                                                                                                                                                                                                                        P.P.P.P.P.P.P.P.P.P.P.P.G.G.P.P.P.G.G.G.G.G.G.G.G.G.G.G.G.G.G.G.S.S.S.S.S.S.S.S.S.S.S.S.S.S.S.S.S.S.F.F.S.F.F.F.S.S.F.F.F.F.F.F.F.F.F.F.F.F.F.F.F.F.F.F.F.F.F.F.F.F.F.F.F.F.F.F.A.F.A.A.A.A.A.A.F.F.A.A.A.A.A.A.A.A.A.A.A.A.A.A.A.A.A.A.A.A.A.A.A.A.A.A.A.A.A.A.Z.A.A.A.A.Z.A.A.Z.Z.Z.Z.Z.Z.Z.Z.Z.Z.Z.Z.Z.Z.Z.Z.Z.Z.Z.Z.Z.Z.Z.Z.                                                                                  B.B.B.B.B.B.B.B.B.B.B.B.B.b.b.B.B.B.b.b.b.b.b.b.b.b.b.b.b.b.b.b.b.d.d.b.b.b.d.d.d.d.d.d.                                                                                                                                                                                                              ",
"                                                                                                                                                                                                                                                                                                                                              J.J.P.P.P.P.P.P.P.P.G.G.P.G.P.G.G.G.G.G.G.G.G.G.G.G.G.G.G.G.S.S.S.S.S.S.S.S.S.S.S.S.S.S.S.S.S.S.S.S.F.F.F.S.S.S.F.F.F.F.F.F.F.F.F.F.F.F.F.F.F.F.F.F.F.F.F.F.F.F.F.F.F.F.F.F.A.A.A.A.A.A.A.F.F.F.A.A.A.A.A.A.A.A.A.A.A.A.A.A.A.A.A.A.A.A.A.A.A.A.A.A.A.A.A.A.Z.A.A.Z.A.A.A.Z.Z.A.Z.Z.Z.Z.Z.Z.Z.Z.Z.Z.Z.Z.Z.Z.Z.Z.Z.Z.Z.Z.                                                                                      B.B.B.B.B.B.B.B.B.B.B.B.B.b.b.b.b.B.b.b.b.b.b.b.b.b.b.b.b.b.b.b.b.d.d.b.b.b.d.d.d.d.d.d.                                                                                                                                                                                                            ",
"                                                                                                                                                                                                                                                                                                                                                      P.P.P.P.P.P.P.G.G.G.G.P.G.G.G.G.G.G.G.G.G.G.G.G.G.G.G.S.S.S.S.S.S.S.S.S.S.S.S.S.S.S.F.F.F.S.S.S.S.S.S.S.S.F.F.F.F.F.F.F.F.F.F.F.F.F.F.F.F.F.F.F.F.F.F.F.F.F.F.F.F.F.F.A.A.A.F.F.A.A.A.F.F.A.A.A.A.A.A.A.A.A.A.A.A.A.A.A.A.A.A.A.A.A.A.A.A.A.A.A.A.A.A.Z.Z.Z.Z.A.Z.Z.A.A.A.Z.Z.Z.Z.Z.Z.Z.Z.Z.Z.Z.Z.Z.Z.Z.Z.Z.Z.                                                                                          B.B.B.B.B.B.B.B.B.B.B.B.B.b.b.B.B.B.b.b.b.b.b.b.b.b.b.b.b.b.b.b.b.d.b.b.b.b.d.d.d.d.d.                                                                                                                                                                                                            ",
"                                                                                                                                                                                                                                                                                                                                                              P.P.P.P.P.G.G.P.P.G.G.G.G.G.G.G.G.G.G.G.G.G.G.G.S.S.S.S.S.S.S.S.S.S.S.S.S.S.S.F.F.S.S.S.F.S.S.F.F.S.F.F.F.F.F.F.F.F.F.F.F.F.F.F.F.F.F.F.F.F.F.F.F.F.F.F.F.F.F.F.A.F.F.F.F.A.A.A.A.F.A.A.A.A.A.A.A.A.A.A.A.A.A.A.A.A.A.A.A.A.A.A.A.A.A.A.A.A.A.A.Z.Z.Z.A.A.Z.Z.A.A.A.Z.Z.Z.Z.Z.Z.Z.Z.Z.Z.Z.Z.Z.Z.Z.Z.                                                                                              B.B.B.B.B.B.B.B.B.B.B.B.B.b.b.b.B.B.b.b.b.b.b.b.b.b.b.b.b.b.b.b.b.b.d.d.b.b.d.d.d.d.                                                                                                                                                                                                            ",
"                                                                                                                                                                                                                                                                                                                                                                      P.G.G.G.P.P.G.G.G.G.G.G.G.G.G.G.G.G.G.G.G.S.S.S.S.S.S.S.S.S.S.S.S.S.S.S.F.S.S.S.S.F.F.F.F.S.S.F.F.F.F.F.F.F.F.F.F.F.F.F.F.F.F.F.F.F.F.F.F.F.F.F.F.F.F.F.F.F.F.F.F.A.A.A.A.F.F.A.A.A.A.A.A.A.A.A.A.A.A.A.A.A.A.A.A.A.A.A.A.A.A.A.A.A.A.A.A.A.A.A.A.Z.Z.Z.Z.A.A.Z.Z.Z.Z.Z.Z.Z.Z.Z.Z.Z.Z.Z.Z.Z.                                                                                                B.B.B.B.B.B.B.B.B.B.B.B.B.b.b.B.B.B.b.b.b.b.b.b.b.b.b.b.b.b.b.b.b.d.d.b.b.d.d.d.d.d.                                                                                                                                                                                                          ",
"                                                                                                                                                                                                                                                                                                                                                                              D.P.P.G.G.G.G.G.G.G.G.G.G.G.G.G.G.G.S.S.S.S.S.S.S.S.S.S.S.S.S.S.S.S.S.S.S.F.F.F.F.S.S.S.F.F.F.F.F.F.F.F.F.F.F.F.F.F.F.F.F.F.F.F.F.F.F.F.F.F.F.F.F.F.F.F.F.A.A.A.A.F.F.F.A.A.A.A.A.A.A.A.A.A.A.A.A.A.A.A.A.A.A.A.A.A.A.A.A.A.A.A.A.A.A.A.A.Z.Z.Z.Z.A.A.A.Z.Z.Z.Z.Z.Z.Z.Z.Z.Z.Z.Z.                                                                                                      B.B.B.B.B.B.B.B.B.B.B.B.B.b.B.B.B.B.b.b.b.b.b.b.b.b.b.b.b.b.b.b.b.d.d.d.d.d.d.d.d.                                                                                                                                                                                                          ",
"                                                                                                                                                                                                                                                                                                                                                                                        G.G.G.G.G.G.G.G.G.G.G.G.G.G.S.S.S.S.S.S.S.S.S.S.S.S.S.S.S.F.F.S.S.F.F.F.F.S.S.S.F.F.F.F.F.F.F.F.F.F.F.F.F.F.F.F.F.F.F.F.F.F.F.F.F.F.F.F.F.F.A.A.F.F.F.A.A.A.A.F.A.A.A.A.A.A.A.A.A.A.A.A.A.A.A.A.A.A.A.A.A.A.A.A.A.A.A.A.A.A.Z.Z.A.A.Z.Z.Z.Z.A.A.Z.Z.Z.Z.Z.Z.Z.Z.Z.Z.                                                                                                          B.B.B.B.B.B.B.B.B.B.B.B.B.b.b.b.b.B.b.b.b.b.b.b.b.b.b.b.b.b.b.b.b.d.d.d.b.b.d.d.                                                                                                                                                                                                          ",
"                                                                                                                                                                                                                                                                                                                                                                                                  S.G.G.G.G.G.G.G.G.G.S.S.S.S.S.S.S.S.S.S.S.S.S.S.S.F.F.S.F.S.F.F.F.S.S.S.F.F.F.F.F.F.F.F.F.F.F.F.F.F.F.F.F.F.F.F.F.F.F.F.F.F.F.F.F.F.F.F.F.F.A.A.A.A.F.F.A.A.A.A.A.A.A.A.A.A.A.A.A.A.A.A.A.A.A.A.A.A.A.A.A.A.A.A.A.A.Z.A.A.Z.Z.Z.A.A.A.Z.Z.Z.Z.Z.Z.Z.Z.                                                                                                                B.B.B.B.B.B.B.B.B.B.B.B.B.b.b.B.B.B.b.b.b.b.b.b.b.b.b.b.b.b.b.b.b.d.d.b.d.d.d.                                                                                                                                                                                                          ",
"                                                                                                                                                                                                                                                                                                                                                                                                            G.G.S.G.G.G.S.S.S.S.S.S.S.S.S.S.S.S.S.S.S.F.S.S.S.S.F.F.F.F.S.F.F.F.F.F.F.F.F.F.F.F.F.F.F.F.F.F.F.F.F.F.F.F.F.F.F.F.F.F.F.F.F.F.A.A.A.A.F.F.F.F.A.A.A.A.A.A.A.A.A.A.A.A.A.A.A.A.A.A.A.A.A.A.A.A.A.A.A.A.A.A.A.A.A.A.A.Z.A.A.Z.Z.Z.Z.Z.Z.                                                                                                                      B.B.B.B.B.B.B.B.B.B.B.B.B.B.B.B.B.b.b.b.b.b.b.b.b.b.b.b.b.b.b.b.b.d.d.d.b.b.                                                                                                                                                                                                          ",
"                                                                                                                                                                                                                                                                                                                                                                                                                        G.S.S.S.S.S.S.S.S.S.S.S.S.S.S.S.S.S.S.S.S.F.F.F.F.S.F.F.F.F.F.F.F.F.F.F.F.F.F.F.F.F.F.F.F.F.F.F.F.F.F.F.F.F.F.F.F.F.A.A.A.A.F.F.F.F.F.A.A.A.A.A.A.A.A.A.A.A.A.A.A.A.A.A.A.A.A.A.A.A.A.A.A.A.A.A.A.A.A.A.Z.Z.A.A.                                                                                                                                    B.B.B.B.B.B.B.B.B.B.B.B.B.B.B.b.b.B.b.b.b.b.b.b.b.b.b.b.b.b.b.b.b.d.d.b.b.                                                                                                                                                                                                          ",
"                                                                                                                                                                                                                                                                                                                                                                                                                                      S.S.S.S.S.S.S.S.S.S.S.S.S.S.S.F.F.F.F.F.F.F.F.F.F.F.F.F.F.F.F.F.F.F.F.F.F.F.F.F.F.F.F.F.F.F.F.F.F.F.F.A.A.A.F.F.F.A.A.A.A.A.A.A.A.A.A.A.A.A.A.A.A.A.A.A.A.A.A.A.A.A.A.A.A.A.A.A.A.A.                                                                                                                                                    B.B.B.B.B.B.B.B.B.B.B.B.B.b.b.b.B.B.b.b.b.b.b.b.b.b.b.b.b.b.b.b.b.d.d.d.                                                                                                                                                                                                          ",
"                                                                                                                                                                                                                                                                                                                                                                                                                                                      S.S.S.F.F.S.S.S.F.F.F.F.F.S.F.F.F.F.F.F.F.F.F.F.F.F.F.F.F.F.F.F.F.F.F.F.F.F.F.F.F.F.F.F.A.F.F.F.F.A.A.A.A.F.A.A.A.A.A.A.A.A.A.A.A.A.A.A.A.A.A.A.A.A.                                                                                                                                                                      B.B.B.B.B.B.B.B.B.B.B.B.B.b.b.B.B.B.b.b.b.b.b.b.b.b.b.b.b.b.b.b.b.d.d.                                                                                                                                                                                                          ",
"                                                                                                                                                                                                                                                                                                                                                                                                                                                                            F.F.S.S.F.F.F.F.F.F.F.F.F.F.F.F.F.F.F.F.F.F.F.F.F.F.F.F.F.F.F.F.F.F.F.F.F.F.F.A.A.A.F.F.A.A.A.A.A.A.A.A.A.                                                                                                                                                                                            B.B.B.B.B.B.B.B.B.B.B.B.B.B.b.B.B.B.b.b.b.b.b.b.b.b.b.b.b.b.b.b.b.                                                                                                                                                                                                            ",
"                                                                                                                                                                                                                                                                                                                                                                                                                                                                                                                    F.F.F.F.F.F.F.F.F.F.F.F.F.                                                                                                                                                                                                                                      B.B.B.B.B.B.B.B.B.B.B.B.B.b.b.B.B.B.b.b.b.b.b.b.b.b.b.b.b.b.b.b.                                                                                                                                                                                                            ",
"                                                                                                                                                                                                                                                                                                                                                                                                                                                                                                                                                                                                                                                                                                                                                                                      B.B.B.B.B.B.B.B.B.B.B.B.B.b.b.b.B.B.b.b.b.b.b.b.b.b.b.b.b.b.b.                                                                                                                                                                                                            ",
"                                                                                                                                                                                                                                                                                                                                                                                                                                                                                                                                                                                                                                                                                                                                                                                        B.B.B.B.B.B.B.B.B.B.B.B.B.b.b.B.b.b.b.b.b.b.b.b.b.b.b.b.b.                                                                                                                                                                                                              ",
"                                                                                                                                                                                                                                                                                                                                                                                                                                                                                                                                                                                                                                                                                                                                                                                          B.B.B.B.B.B.B.B.B.B.B.B.B.b.b.b.B.B.b.b.b.b.b.b.b.b.b.b.                                                                                                                                                                                                              ",
"                                                                                                                                                                                                                                                                                                                                                                                                                                                                                                                                                                                                                                                                                                                                                                                            B.B.B.B.B.B.B.B.B.B.B.B.B.b.b.B.B.B.b.b.b.b.b.b.b.b.                                                                                                                                                                                                                ",
"                                                                                                                                                                                                                                                                                                                                                                                                                                                                                                                                                                                                                                                                                                                                                                                              B.B.B.B.B.B.B.B.B.B.B.B.B.b.b.b.B.B.b.b.b.b.b.b.                                                                                                                                                                                                                  ",
"                                                                                                                                                                                                                                                                                                                                                                                                                                                                                                                                                                                                                                                                                                                                                                                                B.B.B.B.B.B.B.B.B.B.B.B.B.b.b.B.B.B.b.b.b.b.                                                                                                                                                                                                                    ",
"                                                                                                                                                                                                                                                                                                                                                                                                                                                                                                                                                                                                                                                                                                                                                                                                  B.B.B.B.B.B.B.B.B.B.B.B.B.B.B.B.B.B.b.b.                                                                                                                                                                                                                      ",
"                                                                                                                                                                                                                                                                                                                                                                                                                                                                                                                                                                                                                                                                                                                                                                                                    B.B.B.B.B.B.B.B.B.B.B.B.B.b.b.B.B.B.                                                                                                                                                                                                                        ",
"                                                                                                                                                                                                                                                                                                                                                                                                                                                                                                                                                                                                                                                                                                                                                                                                        B.B.B.B.B.B.B.B.B.B.B.B.b.B.                                                                                                                                                                                                                            ",
"                                                                                                                                                                                                                                                                                                                                                                                                                                                                                                                                                                                                                                                                                                                                                                                                              B.B.B.B.B.B.b.B.                                                                                                                                                                                                                                  ",
"                                                                                                                                                                                                                                                                                                                                                                                                                                                                                                                                                                                                                                                                                                                                                                                                                                                                                                                                                                                                                                                                ",
"                                                                                                                                                                                                                                                                                                                                                                                                                                                                                                                                                                                                                                                                                                                                                                                                                                                                                                                                                                                                                                                                ",
"                                                                                                                                                                                                                                                                                                                                                                                                                                                                                                                                                                                                                                                                                                                                                                                                                                                                                                                                                                                                                                                                ",
"                                                                                                                                                                                                                                                                                                                                                                                                                                                                                                                                                                                                                                                                                                                                                                                                                                                                                                                                                                                                                                                                ",
"                                                                                                                                                                                                                                                                                                                                                                                                                                                                                                                                                                                                                                                                                                                                                                                                                                                                                                                                                                                                                                                                ",
"                                                                                                                                                                                                                                                                                                                                                                                                                                                                                                                                                                                                                                                                                                                                                                                                                                                                                                                                                                                                                                                                ",
"                                                                                                                                                                                                                                                                                                                                                                                                                                                                                                                                                                                                                                                                                                                                                                                                                                                                                                                                                                                                                                                                ",
"                                                                                                                                                                                                                                                                                                                                                                                                                                                                                                                                                                                                                                                                                                                                                                                                                                                                                                                                                                                                                                                                ",
"                                                                                                                                                                                                                                                                                                                                                                                                                                                                                                                                                                                                                                                                                                                                                                                                                                                                                                                                                                                                                                                                ",
"                                                                                                                                                                                                                                                                                                                                                                                                                                                                                                                                                                                                                                                                                                                                                                                                                                                                                                                                                                                                                                                                ",
"                                                                                                                                                                                                                                                                                                                                                                                                                                                                                                                                                                                                                                                                                                                                                                                                                                                                                                                                                                                                                                                                ",
"                                                                                                                                                                                                                                                                                                                                                                                                                                                                                                                                                                                                                                                                                                                                                                                                                                                                                                                                                                                                                                                                ",
"                                                                                                                                                                                                                                                                                                                                                                                                                                                                                                                                                                                                                                                                                                                                                                                                                                                                                                                                                                                                                                                                ",
"                                                                                                                                                                                                                                                                                                                                                                                                                                                                                                                                                                                                                                                                                                                                                                                                                                                                                                                                                                                                                                                                ",
"                                                                                                                                                                                                                                                                                                                                                                                                                                                                                                                                                                                                                                                                                                                                                                                                                                                                                                                                                                                                                                                                ",
"                                                                                                                                                                                                                                                                                                                                                                                                                                                                                                                                                                                                                                                                                                                                                                                                                                                                                                                                                                                                                                                                ",
"                                                                                                                                                                                                                                                                                                                                                                                                                                                                                                                                                                                                                                                                                                                                                                                                                                                                                                                                                                                                                                                                ",
"                                                                                                                                                                                                                                                                                                                                                                                                                                                                                                                                                                                                                                                                                                                                                                                                                                                                                                                                                                                                                                                                ",
"                                                                                                                                                                                                                                                                                                                                                                                                                                                                                                                                                                                                                                                                                                                                                                                                                                                                                                                                                                                                                                                                ",
"                                                                                                                                                                                                                                                                                                                                                                                                                                                                                                                                                                                                                                                                                                                                                                                                                                                                                                                                                                                                                                                                ",
"                                                                                                                                                                                                                                                                                                                                                                                                                                                                                                                                                                                                                                                                                                                                                                                                                                                                                                                                                                                                                                                                ",
"                                                                                                                                                                                                                                                                                                                                                                                                                                                                                                                                                                                                                                                                                                                                                                                                                                                                                                                                                                                                                                                                ",
"                                                                                                                                                                                                                                                                                                                                                                                                                                                                                                                                                                                                                                                                                                                                                                                                                                                                                                                                                                                                                                                                ",
"                                                                                                                                                                                                                                                                                                                                                                                                                                                                                                                                                                                                                                                                                                                                                                                                                                                                                                                                                                                                                                                                ",
"                                                                                                                                                                                                                                                                                                                                                                                                                                                                                                                                                                                                                                                                                                                                                                                                                                                                                                                                                                                                                                                                ",
"                                                                                                                                                                                                                                                                                                                                                                                                                                                                                                                                                                                                                                                                                                                                                                                                                                                                                                                                                                                                                                                                ",
"                                                                                                                                                                                                                                                                                                                                                                                                                                                                                                                                                                                                                                                                                                                                                                                                                                                                                                                                                                                                                                                                ",
"                                                                                                                                                                                                                                                                                                                                                                                                                                                                                                                                                                                                                                                                                                                                                                                                                                                                                                                                                                                                                                                                ",
"                                                                                                                                                                                                                                                                                                                                                                                                                                                                                                                                                                                                                                                                                                                                                                                                                                                                                                                                                                                                                                                                ",
"                                                                                                                                                                                                                                                                                                                                                                                                                                                                                                                                                                                                                                                                                                                                                                                                                                                                                                                                                                                                                                                                "
};
